;FLAVOR:UltiGCode
;TIME:5734
;MATERIAL:8665
;MATERIAL2:0
;NOZZLE_DIAMETER:0.4
;MINX:43.013
;MINY:80.408
;MINZ:0.27
;MAXX:183.701
;MAXY:108.858
;MAXZ:27.97
;Generated with Cura_SteamEngine 4.8.0
M82 ;absolute extrusion mode
G0 F3000 Y50 ;avoid prime blob
G92 E0
G92 E0
G10
;LAYER_COUNT:278
;LAYER:0
M107
G0 F4320 X44.768 Y93.087 Z0.27
;TYPE:SKIRT
G11
G1 F2700 X45.227 Y92.924 E0.04603
G1 X45.988 Y92.825 E0.11855
G1 X60.988 Y92.825 E1.53605
G1 X61.474 Y92.865 E1.58213
G1 X61.947 Y92.984 E1.62822
G1 X62.394 Y93.178 E1.67427
G1 X62.803 Y93.443 E1.72033
G1 X63.163 Y93.771 E1.76635
G1 X63.466 Y94.153 E1.81243
G1 X63.701 Y94.58 E1.85848
G1 X63.864 Y95.039 E1.90451
G1 X63.963 Y95.8 E1.97703
G1 X63.963 Y105.8 E2.92203
G1 X63.923 Y106.286 E2.96812
G1 X63.804 Y106.759 E3.01421
G1 X63.61 Y107.206 E3.06026
G1 X63.345 Y107.615 E3.10631
G1 X63.017 Y107.975 E3.15233
G1 X62.635 Y108.278 E3.19841
G1 X62.208 Y108.513 E3.24447
G1 X61.749 Y108.676 E3.2905
G1 X60.988 Y108.775 E3.36302
G1 X45.988 Y108.775 E4.78052
G1 X45.502 Y108.735 E4.8266
G1 X45.029 Y108.616 E4.87269
G1 X44.582 Y108.422 E4.91874
G1 X44.173 Y108.157 E4.96479
G1 X43.813 Y107.829 E5.01082
G1 X43.51 Y107.447 E5.05689
G1 X43.275 Y107.02 E5.10295
G1 X43.112 Y106.561 E5.14898
G1 X43.013 Y105.8 E5.2215
G1 X43.013 Y95.8 E6.1665
G1 X43.053 Y95.314 E6.21258
G1 X43.172 Y94.841 E6.25868
G1 X43.366 Y94.394 E6.30472
G1 X43.631 Y93.985 E6.35078
G1 X43.959 Y93.625 E6.3968
G1 X44.341 Y93.322 E6.44288
G1 X44.768 Y93.087 E6.48894
G0 F4320 X45.092 Y93.333
G1 F2700 X45.534 Y93.215 E6.53217
G1 X45.988 Y93.175 E6.57524
G1 X60.988 Y93.175 E7.99274
G1 X61.444 Y93.215 E8.03599
G1 X61.886 Y93.333 E8.07923
G1 X62.301 Y93.527 E8.12252
G1 X62.676 Y93.79 E8.1658
G1 X63 Y94.114 E8.2091
G1 X63.262 Y94.489 E8.25233
G1 X63.455 Y94.904 E8.29558
G1 X63.573 Y95.346 E8.33881
G1 X63.613 Y95.8 E8.38188
G1 X63.613 Y105.8 E9.32688
G1 X63.573 Y106.256 E9.37014
G1 X63.455 Y106.698 E9.41337
G1 X63.261 Y107.113 E9.45666
G1 X62.998 Y107.488 E9.49995
G1 X62.674 Y107.812 E9.54325
G1 X62.299 Y108.074 E9.58648
G1 X61.884 Y108.267 E9.62973
G1 X61.442 Y108.385 E9.67296
G1 X60.988 Y108.425 E9.71603
G1 X45.988 Y108.425 E11.13353
G1 X45.532 Y108.385 E11.17679
G1 X45.09 Y108.267 E11.22002
G1 X44.675 Y108.073 E11.26331
G1 X44.3 Y107.81 E11.3066
G1 X43.976 Y107.486 E11.3499
G1 X43.714 Y107.111 E11.39313
G1 X43.521 Y106.696 E11.43638
G1 X43.403 Y106.254 E11.47961
G1 X43.363 Y105.8 E11.52268
G1 X43.363 Y95.8 E12.46768
G1 X43.403 Y95.344 E12.51094
G1 X43.521 Y94.902 E12.55417
G1 X43.715 Y94.487 E12.59746
G1 X43.978 Y94.112 E12.64074
G1 X44.302 Y93.788 E12.68404
G1 X44.677 Y93.526 E12.72727
G1 X45.092 Y93.333 E12.77052
G0 F4320 X45.008 Y93.747
G1 F2700 X45.408 Y93.6 E12.8108
G1 X45.988 Y93.525 E12.86606
G1 X60.988 Y93.525 E14.28356
G1 X61.412 Y93.565 E14.32381
G1 X61.822 Y93.683 E14.36413
G1 X62.202 Y93.876 E14.4044
G1 X62.539 Y94.136 E14.44462
G1 X62.822 Y94.454 E14.48485
G1 X63.041 Y94.82 E14.52516
G1 X63.188 Y95.22 E14.56543
G1 X63.263 Y95.8 E14.6207
G1 X63.263 Y105.8 E15.5657
G1 X63.223 Y106.224 E15.60594
G1 X63.105 Y106.634 E15.64626
G1 X62.912 Y107.014 E15.68654
G1 X62.652 Y107.351 E15.72676
G1 X62.334 Y107.634 E15.76699
G1 X61.968 Y107.853 E15.80729
G1 X61.568 Y108 E15.84756
G1 X60.988 Y108.075 E15.90283
G1 X45.988 Y108.075 E17.32033
G1 X45.564 Y108.035 E17.36058
G1 X45.154 Y107.917 E17.40089
G1 X44.774 Y107.724 E17.44117
G1 X44.437 Y107.464 E17.48139
G1 X44.154 Y107.146 E17.52162
G1 X43.935 Y106.78 E17.56193
G1 X43.788 Y106.38 E17.6022
G1 X43.713 Y105.8 E17.65747
G1 X43.713 Y95.8 E18.60247
G1 X43.753 Y95.376 E18.64271
G1 X43.871 Y94.966 E18.68303
G1 X44.064 Y94.586 E18.7233
G1 X44.324 Y94.249 E18.76353
G1 X44.642 Y93.966 E18.80376
G1 X45.008 Y93.747 E18.84406
G0 F4320 X45.333 Y93.99
G1 F2700 X45.713 Y93.895 E18.88108
G1 X45.988 Y93.875 E18.90713
G1 X60.988 Y93.875 E20.32463
G1 X61.378 Y93.915 E20.36168
G1 X61.752 Y94.033 E20.39874
G1 X62.094 Y94.224 E20.43576
G1 X62.39 Y94.481 E20.4728
G1 X62.628 Y94.792 E20.50981
G1 X62.798 Y95.145 E20.54684
G1 X62.893 Y95.525 E20.58385
G1 X62.913 Y95.8 E20.60991
G1 X62.913 Y105.8 E21.55491
G1 X62.873 Y106.19 E21.59196
G1 X62.755 Y106.564 E21.62902
G1 X62.564 Y106.906 E21.66603
G1 X62.307 Y107.202 E21.70308
G1 X61.996 Y107.44 E21.74009
G1 X61.643 Y107.61 E21.77711
G1 X61.263 Y107.705 E21.81413
G1 X60.988 Y107.725 E21.84018
G1 X45.988 Y107.725 E23.25768
G1 X45.598 Y107.685 E23.29473
G1 X45.224 Y107.567 E23.33179
G1 X44.882 Y107.376 E23.36881
G1 X44.586 Y107.119 E23.40585
G1 X44.348 Y106.808 E23.44286
G1 X44.178 Y106.455 E23.47989
G1 X44.083 Y106.075 E23.5169
G1 X44.063 Y105.8 E23.54296
G1 X44.063 Y95.8 E24.48796
G1 X44.103 Y95.41 E24.52501
G1 X44.221 Y95.036 E24.56207
G1 X44.412 Y94.694 E24.59908
G1 X44.669 Y94.398 E24.63613
G1 X44.98 Y94.16 E24.67314
G1 X45.333 Y93.99 E24.71016
G0 F4320 X45.312 Y94.377
G1 F2700 X45.648 Y94.262 E24.74372
G1 X45.988 Y94.225 E24.77604
G1 X60.988 Y94.225 E26.19354
G1 X61.34 Y94.265 E26.22702
G1 X61.674 Y94.382 E26.26046
G1 X61.974 Y94.572 E26.29402
G1 X62.224 Y94.823 E26.3275
G1 X62.411 Y95.124 E26.36099
G1 X62.526 Y95.46 E26.39455
G1 X62.563 Y95.8 E26.42687
G1 X62.563 Y105.8 E27.37187
G1 X62.523 Y106.152 E27.40534
G1 X62.406 Y106.486 E27.43879
G1 X62.216 Y106.786 E27.47234
G1 X61.965 Y107.036 E27.50582
G1 X61.664 Y107.223 E27.53931
G1 X61.328 Y107.338 E27.57287
G1 X60.988 Y107.375 E27.60519
G1 X45.988 Y107.375 E29.02269
G1 X45.636 Y107.335 E29.05617
G1 X45.302 Y107.218 E29.08961
G1 X45.002 Y107.028 E29.12317
G1 X44.752 Y106.777 E29.15665
G1 X44.565 Y106.476 E29.19013
G1 X44.45 Y106.14 E29.22369
G1 X44.413 Y105.8 E29.25601
G1 X44.413 Y95.8 E30.20101
G1 X44.453 Y95.448 E30.23449
G1 X44.57 Y95.114 E30.26793
G1 X44.76 Y94.814 E30.30149
G1 X45.011 Y94.564 E30.33497
G1 X45.312 Y94.377 E30.36846
G0 F4320 X45.35 Y94.754
G1 F2700 X45.635 Y94.627 E30.39794
G1 X45.988 Y94.575 E30.43166
G1 X60.988 Y94.575 E31.84916
G1 X61.298 Y94.615 E31.8787
G1 X61.588 Y94.732 E31.90825
G1 X61.838 Y94.918 E31.9377
G1 X62.034 Y95.162 E31.96727
G1 X62.161 Y95.447 E31.99676
G1 X62.213 Y95.8 E32.03048
G1 X62.213 Y105.8 E32.97548
G1 X62.173 Y106.11 E33.00501
G1 X62.056 Y106.4 E33.03456
G1 X61.87 Y106.65 E33.06401
G1 X61.626 Y106.846 E33.09359
G1 X61.341 Y106.973 E33.12307
G1 X60.988 Y107.025 E33.15679
G1 X45.988 Y107.025 E34.57429
G1 X45.678 Y106.985 E34.60383
G1 X45.388 Y106.868 E34.63338
G1 X45.138 Y106.682 E34.66283
G1 X44.942 Y106.438 E34.6924
G1 X44.815 Y106.153 E34.72189
G1 X44.763 Y105.8 E34.75561
G1 X44.763 Y95.8 E35.70061
G1 X44.803 Y95.49 E35.73014
G1 X44.92 Y95.2 E35.7597
G1 X45.106 Y94.95 E35.78914
G1 X45.35 Y94.754 E35.81872
G0 F4320 X45.68 Y94.981
G1 F2700 X45.988 Y94.925 E35.8483
G1 X60.988 Y94.925 E37.2658
G1 X61.249 Y94.965 E37.29075
G1 X61.486 Y95.08 E37.31565
G1 X61.678 Y95.262 E37.34065
G1 X61.807 Y95.492 E37.36557
G1 X61.863 Y95.8 E37.39515
G1 X61.863 Y105.8 E38.34015
G1 X61.823 Y106.061 E38.3651
G1 X61.708 Y106.298 E38.39
G1 X61.526 Y106.49 E38.415
G1 X61.296 Y106.619 E38.43992
G1 X60.988 Y106.675 E38.4695
G1 X45.988 Y106.675 E39.887
G1 X45.727 Y106.635 E39.91195
G1 X45.49 Y106.52 E39.93685
G1 X45.298 Y106.338 E39.96185
G1 X45.169 Y106.108 E39.98677
G1 X45.113 Y105.8 E40.01635
G1 X45.113 Y95.8 E40.96135
G1 X45.153 Y95.539 E40.9863
G1 X45.268 Y95.302 E41.0112
G1 X45.45 Y95.11 E41.0362
G1 X45.68 Y94.981 E41.06112
G0 F4320 X45.785 Y95.316
G1 F2700 X45.988 Y95.275 E41.08069
G1 X60.988 Y95.275 E42.49819
G1 X61.188 Y95.315 E42.51746
G1 X61.358 Y95.427 E42.5367
G1 X61.472 Y95.597 E42.55604
G1 X61.513 Y95.8 E42.57562
G1 X61.513 Y105.8 E43.52062
G1 X61.473 Y106 E43.53989
G1 X61.361 Y106.17 E43.55913
G1 X61.191 Y106.284 E43.57847
G1 X60.988 Y106.325 E43.59804
G1 X45.988 Y106.325 E45.01554
G1 X45.788 Y106.285 E45.03482
G1 X45.618 Y106.173 E45.05405
G1 X45.504 Y106.003 E45.0734
G1 X45.463 Y105.8 E45.09297
G1 X45.463 Y95.8 E46.03797
G1 X45.503 Y95.6 E46.05724
G1 X45.615 Y95.43 E46.07648
G1 X45.785 Y95.316 E46.09582
G0 F4320 X45.988 Y95.625
G1 F2700 X60.988 Y95.625 E47.51332
G1 X61.098 Y95.664 E47.52435
G1 X61.163 Y95.8 E47.5386
G1 X61.163 Y105.8 E48.4836
G1 X61.124 Y105.91 E48.49462
G1 X60.988 Y105.975 E48.50887
G1 X45.988 Y105.975 E49.92637
G1 X45.878 Y105.936 E49.9374
G1 X45.813 Y105.8 E49.95164
G1 X45.813 Y95.8 E50.89664
G1 X45.852 Y95.69 E50.90767
G1 X45.988 Y95.625 E50.92192
G10
G0 F4320 X45.988 Y95.104
G0 X101.891 Y83.383
G11
G1 F2700 X101.931 Y82.897 E50.968
G1 X102.05 Y82.424 E51.01409
G1 X102.244 Y81.977 E51.06014
G1 X102.509 Y81.568 E51.10619
G1 X102.837 Y81.208 E51.15222
G1 X103.219 Y80.905 E51.19829
G1 X103.646 Y80.67 E51.24435
G1 X104.105 Y80.507 E51.29038
G1 X104.866 Y80.408 E51.3629
G1 X134.866 Y80.408 E54.1979
G1 X135.352 Y80.448 E54.24398
G1 X135.825 Y80.567 E54.29007
G1 X136.272 Y80.761 E54.33612
G1 X136.681 Y81.026 E54.38218
G1 X137.041 Y81.354 E54.4282
G1 X137.344 Y81.736 E54.47428
G1 X137.579 Y82.163 E54.52033
G1 X137.742 Y82.622 E54.56636
G1 X137.841 Y83.383 E54.63888
G1 X137.841 Y105.883 E56.76513
G1 X137.801 Y106.369 E56.81122
G1 X137.682 Y106.842 E56.85731
G1 X137.488 Y107.289 E56.90336
G1 X137.223 Y107.698 E56.94941
G1 X136.895 Y108.058 E56.99543
G1 X136.513 Y108.361 E57.04151
G1 X136.086 Y108.596 E57.08757
G1 X135.627 Y108.759 E57.1336
G1 X134.866 Y108.858 E57.20612
G1 X104.866 Y108.858 E60.04112
G1 X104.38 Y108.818 E60.0872
G1 X103.907 Y108.699 E60.13329
G1 X103.46 Y108.505 E60.17934
G1 X103.051 Y108.24 E60.22539
G1 X102.691 Y107.912 E60.27142
G1 X102.388 Y107.53 E60.31749
G1 X102.153 Y107.103 E60.36355
G1 X101.99 Y106.644 E60.40958
G1 X101.891 Y105.883 E60.4821
G1 X101.891 Y83.383 E62.60835
G0 F4320 X102.241 Y83.383
G1 F2700 X102.281 Y82.927 E62.65161
G1 X102.399 Y82.485 E62.69484
G1 X102.593 Y82.07 E62.73813
G1 X102.856 Y81.695 E62.78142
G1 X103.18 Y81.371 E62.82472
G1 X103.555 Y81.109 E62.86795
G1 X103.97 Y80.916 E62.9112
G1 X104.412 Y80.798 E62.95443
G1 X104.866 Y80.758 E62.9975
G1 X134.866 Y80.758 E65.8325
G1 X135.322 Y80.798 E65.87576
G1 X135.764 Y80.916 E65.91899
G1 X136.179 Y81.11 E65.96228
G1 X136.554 Y81.373 E66.00556
G1 X136.878 Y81.697 E66.04886
G1 X137.14 Y82.072 E66.09209
G1 X137.333 Y82.487 E66.13534
G1 X137.451 Y82.929 E66.17858
G1 X137.491 Y83.383 E66.22165
G1 X137.491 Y105.883 E68.3479
G1 X137.451 Y106.339 E68.39115
G1 X137.333 Y106.781 E68.43439
G1 X137.139 Y107.196 E68.47768
G1 X136.876 Y107.571 E68.52096
G1 X136.552 Y107.895 E68.56426
G1 X136.177 Y108.157 E68.60749
G1 X135.762 Y108.35 E68.65074
G1 X135.32 Y108.468 E68.69397
G1 X134.866 Y108.508 E68.73704
G1 X104.866 Y108.508 E71.57204
G1 X104.41 Y108.468 E71.6153
G1 X103.968 Y108.35 E71.65853
G1 X103.553 Y108.156 E71.70182
G1 X103.178 Y107.893 E71.74511
G1 X102.854 Y107.569 E71.78841
G1 X102.592 Y107.194 E71.83164
G1 X102.399 Y106.779 E71.87489
G1 X102.281 Y106.337 E71.91812
G1 X102.241 Y105.883 E71.96119
G1 X102.241 Y83.383 E74.08744
G0 F4320 X102.591 Y83.383
G1 F2700 X102.631 Y82.959 E74.12769
G1 X102.749 Y82.549 E74.168
G1 X102.942 Y82.169 E74.20828
G1 X103.202 Y81.832 E74.2485
G1 X103.52 Y81.549 E74.28873
G1 X103.886 Y81.33 E74.32904
G1 X104.286 Y81.183 E74.36931
G1 X104.866 Y81.108 E74.42457
G1 X134.866 Y81.108 E77.25957
G1 X135.29 Y81.148 E77.29982
G1 X135.7 Y81.266 E77.34014
G1 X136.08 Y81.459 E77.38041
G1 X136.417 Y81.719 E77.42064
G1 X136.7 Y82.037 E77.46086
G1 X136.919 Y82.403 E77.50117
G1 X137.066 Y82.803 E77.54144
G1 X137.141 Y83.383 E77.59671
G1 X137.141 Y105.883 E79.72296
G1 X137.101 Y106.307 E79.7632
G1 X136.983 Y106.717 E79.80352
G1 X136.79 Y107.097 E79.8438
G1 X136.53 Y107.434 E79.88402
G1 X136.212 Y107.717 E79.92425
G1 X135.846 Y107.936 E79.96456
G1 X135.446 Y108.083 E80.00483
G1 X134.866 Y108.158 E80.06009
G1 X104.866 Y108.158 E82.89509
G1 X104.442 Y108.118 E82.93534
G1 X104.032 Y108 E82.97566
G1 X103.652 Y107.807 E83.01593
G1 X103.315 Y107.547 E83.05616
G1 X103.032 Y107.229 E83.09638
G1 X102.813 Y106.863 E83.13669
G1 X102.666 Y106.463 E83.17696
G1 X102.591 Y105.883 E83.23223
G1 X102.591 Y83.383 E85.35848
G0 F4320 X102.941 Y83.383
G1 F2700 X102.981 Y82.993 E85.39553
G1 X103.099 Y82.619 E85.43259
G1 X103.29 Y82.277 E85.4696
G1 X103.547 Y81.981 E85.50665
G1 X103.858 Y81.743 E85.54366
G1 X104.211 Y81.573 E85.58068
G1 X104.591 Y81.478 E85.6177
G1 X104.866 Y81.458 E85.64375
G1 X134.866 Y81.458 E88.47875
G1 X135.256 Y81.498 E88.5158
G1 X135.63 Y81.616 E88.55286
G1 X135.972 Y81.807 E88.58988
G1 X136.268 Y82.064 E88.62692
G1 X136.506 Y82.375 E88.66393
G1 X136.676 Y82.728 E88.70096
G1 X136.771 Y83.108 E88.73797
G1 X136.791 Y83.383 E88.76403
G1 X136.791 Y105.883 E90.89028
G1 X136.751 Y106.273 E90.92733
G1 X136.633 Y106.647 E90.96439
G1 X136.442 Y106.989 E91.0014
G1 X136.185 Y107.285 E91.03845
G1 X135.874 Y107.523 E91.07546
G1 X135.521 Y107.693 E91.11248
G1 X135.141 Y107.788 E91.1495
G1 X134.866 Y107.808 E91.17555
G1 X104.866 Y107.808 E94.01055
G1 X104.476 Y107.768 E94.0476
G1 X104.102 Y107.65 E94.08466
G1 X103.76 Y107.459 E94.12168
G1 X103.464 Y107.202 E94.15872
G1 X103.226 Y106.891 E94.19573
G1 X103.056 Y106.538 E94.23276
G1 X102.961 Y106.158 E94.26977
G1 X102.941 Y105.883 E94.29583
G1 X102.941 Y83.383 E96.42208
G0 F4320 X103.291 Y83.383
G1 F2700 X103.331 Y83.031 E96.45556
G1 X103.448 Y82.697 E96.489
G1 X103.638 Y82.397 E96.52256
G1 X103.889 Y82.147 E96.55603
G1 X104.19 Y81.96 E96.58952
G1 X104.526 Y81.845 E96.62308
G1 X104.866 Y81.808 E96.6554
G1 X134.866 Y81.808 E99.4904
G1 X135.218 Y81.848 E99.52388
G1 X135.552 Y81.965 E99.55732
G1 X135.852 Y82.155 E99.59088
G1 X136.102 Y82.406 E99.62436
G1 X136.289 Y82.707 E99.65785
G1 X136.404 Y83.043 E99.69141
G1 X136.441 Y83.383 E99.72373
G1 X136.441 Y105.883 E101.84998
G1 X136.401 Y106.235 E101.88345
G1 X136.284 Y106.569 E101.9169
G1 X136.094 Y106.869 E101.95045
G1 X135.843 Y107.119 E101.98393
G1 X135.542 Y107.306 E102.01742
G1 X135.206 Y107.421 E102.05098
G1 X134.866 Y107.458 E102.0833
G1 X104.866 Y107.458 E104.9183
G1 X104.514 Y107.418 E104.95178
G1 X104.18 Y107.301 E104.98522
G1 X103.88 Y107.111 E105.01878
G1 X103.63 Y106.86 E105.05226
G1 X103.443 Y106.559 E105.08574
G1 X103.328 Y106.223 E105.1193
G1 X103.291 Y105.883 E105.15162
G1 X103.291 Y83.383 E107.27787
G0 F4320 X103.641 Y83.383
G1 F2700 X103.681 Y83.073 E107.30741
G1 X103.798 Y82.783 E107.33696
G1 X103.984 Y82.533 E107.36641
G1 X104.228 Y82.337 E107.39598
G1 X104.513 Y82.21 E107.42547
G1 X104.866 Y82.158 E107.45919
G1 X134.866 Y82.158 E110.29419
G1 X135.176 Y82.198 E110.32373
G1 X135.466 Y82.315 E110.35328
G1 X135.716 Y82.501 E110.38272
G1 X135.912 Y82.745 E110.4123
G1 X136.039 Y83.03 E110.44178
G1 X136.091 Y83.383 E110.4755
G1 X136.091 Y105.883 E112.60175
G1 X136.051 Y106.193 E112.63129
G1 X135.934 Y106.483 E112.66084
G1 X135.748 Y106.733 E112.69029
G1 X135.504 Y106.929 E112.71986
G1 X135.219 Y107.056 E112.74935
G1 X134.866 Y107.108 E112.78307
G1 X104.866 Y107.108 E115.61807
G1 X104.556 Y107.068 E115.64761
G1 X104.266 Y106.951 E115.67716
G1 X104.016 Y106.765 E115.7066
G1 X103.82 Y106.521 E115.73618
G1 X103.693 Y106.236 E115.76567
G1 X103.641 Y105.883 E115.79938
G1 X103.641 Y83.383 E117.92563
G0 F4320 X103.991 Y83.383
G1 F2700 X104.031 Y83.122 E117.95059
G1 X104.146 Y82.885 E117.97548
G1 X104.328 Y82.693 E118.00048
G1 X104.558 Y82.564 E118.0254
G1 X104.866 Y82.508 E118.05498
G1 X134.866 Y82.508 E120.88998
G1 X135.127 Y82.548 E120.91494
G1 X135.364 Y82.663 E120.93983
G1 X135.556 Y82.845 E120.96483
G1 X135.685 Y83.075 E120.98975
G1 X135.741 Y83.383 E121.01933
G1 X135.741 Y105.883 E123.14558
G1 X135.701 Y106.144 E123.17054
G1 X135.586 Y106.381 E123.19543
G1 X135.404 Y106.573 E123.22043
G1 X135.174 Y106.702 E123.24535
G1 X134.866 Y106.758 E123.27493
G1 X104.866 Y106.758 E126.10993
G1 X104.605 Y106.718 E126.13489
G1 X104.368 Y106.603 E126.15978
G1 X104.176 Y106.421 E126.18478
G1 X104.047 Y106.191 E126.2097
G1 X103.991 Y105.883 E126.23928
G1 X103.991 Y83.383 E128.36553
G0 F4320 X104.341 Y83.383
G1 F2700 X104.381 Y83.183 E128.38481
G1 X104.493 Y83.013 E128.40405
G1 X104.663 Y82.899 E128.42339
G1 X104.866 Y82.858 E128.44296
G1 X134.866 Y82.858 E131.27796
G1 X135.066 Y82.898 E131.29723
G1 X135.236 Y83.01 E131.31647
G1 X135.35 Y83.18 E131.33582
