;FLAVOR:UltiGCode
;TIME:3250
;MATERIAL:6258
;MATERIAL2:0
;NOZZLE_DIAMETER:0.4
;MINX:85.496
;MINY:97.506
;MINZ:0.27
;MAXX:139.468
;MAXY:155.425
;MAXZ:27.87
;Generated with Cura_SteamEngine 4.8.0
M82 ;absolute extrusion mode
G0 F3000 Y50 ;avoid prime blob
G92 E0
G92 E0
G10
;LAYER_COUNT:185
;LAYER:0
M107
G0 F4500 X87.921 Y99.894 Z0.27
;TYPE:SKIRT
G11
G1 F1800 X88.52 Y99.374 E0.07496
G1 X89.169 Y98.918 E0.14992
G1 X89.861 Y98.529 E0.22493
G1 X90.588 Y98.211 E0.29992
G1 X91.344 Y97.968 E0.37496
G1 X92.12 Y97.803 E0.44993
G1 X92.908 Y97.717 E0.52484
G1 X93.371 Y97.703 E0.56861
G1 X107.371 Y97.703 E1.89161
G1 X108.163 Y97.743 E1.96655
G1 X108.948 Y97.862 E2.04158
G1 X109.716 Y98.06 E2.11653
G1 X110.461 Y98.335 E2.19158
G1 X111.174 Y98.682 E2.26651
G1 X111.85 Y99.101 E2.34167
G1 X112.391 Y98.721 E2.40415
G1 X113.083 Y98.332 E2.47917
G1 X113.81 Y98.014 E2.55415
G1 X114.566 Y97.771 E2.62919
G1 X115.342 Y97.606 E2.70416
G1 X116.13 Y97.52 E2.77907
G1 X116.593 Y97.506 E2.82285
G1 X131.593 Y97.506 E4.24035
G1 X132.385 Y97.546 E4.31529
G1 X133.17 Y97.665 E4.39032
G1 X133.938 Y97.863 E4.46526
G1 X134.683 Y98.138 E4.54031
G1 X135.396 Y98.485 E4.61524
G1 X136.071 Y98.903 E4.69027
G1 X136.7 Y99.386 E4.76522
G1 X137.277 Y99.931 E4.84022
G1 X137.797 Y100.53 E4.91518
G1 X138.253 Y101.179 E4.99014
G1 X138.642 Y101.871 E5.06515
G1 X138.96 Y102.598 E5.14014
G1 X139.203 Y103.354 E5.21518
G1 X139.368 Y104.13 E5.29015
G1 X139.454 Y104.918 E5.36506
G1 X139.468 Y105.381 E5.40883
G1 X139.468 Y115.381 E6.35383
G1 X139.428 Y116.173 E6.42877
G1 X139.309 Y116.958 E6.5038
G1 X139.111 Y117.726 E6.57875
G1 X138.836 Y118.471 E6.6538
G1 X138.489 Y119.184 E6.72873
G1 X138.071 Y119.859 E6.80376
G1 X137.588 Y120.488 E6.8787
G1 X137.043 Y121.065 E6.95371
G1 X136.444 Y121.585 E7.02867
G1 X135.934 Y121.943 E7.08755
G1 X136.076 Y122.267 E7.12098
G1 X136.319 Y123.023 E7.19602
G1 X136.484 Y123.799 E7.27099
G1 X136.57 Y124.587 E7.3459
G1 X136.584 Y125.05 E7.38968
G1 X136.584 Y147.55 E9.51593
G1 X136.544 Y148.342 E9.59087
G1 X136.425 Y149.127 E9.6659
G1 X136.227 Y149.895 E9.74085
G1 X135.952 Y150.64 E9.81589
G1 X135.605 Y151.353 E9.89083
G1 X135.187 Y152.028 E9.96585
G1 X134.704 Y152.657 E10.0408
G1 X134.159 Y153.234 E10.1158
G1 X133.56 Y153.754 E10.19076
G1 X132.911 Y154.21 E10.26572
G1 X132.219 Y154.599 E10.34073
G1 X131.492 Y154.917 E10.41572
G1 X130.736 Y155.16 E10.49076
G1 X129.96 Y155.325 E10.56573
G1 X129.172 Y155.411 E10.64064
G1 X128.709 Y155.425 E10.68442
G1 X98.709 Y155.425 E13.51942
G1 X97.917 Y155.385 E13.59435
G1 X97.132 Y155.266 E13.66938
G1 X96.364 Y155.068 E13.74433
G1 X95.619 Y154.793 E13.81938
G1 X94.906 Y154.446 E13.89431
G1 X94.231 Y154.028 E13.96934
G1 X93.602 Y153.545 E14.04428
G1 X93.025 Y153 E14.11929
G1 X92.505 Y152.401 E14.19425
G1 X92.049 Y151.752 E14.2692
G1 X91.66 Y151.06 E14.34422
G1 X91.342 Y150.333 E14.41921
G1 X91.099 Y149.577 E14.49425
G1 X90.934 Y148.801 E14.56922
G1 X90.848 Y148.013 E14.64413
G1 X90.834 Y147.55 E14.6879
G1 X90.834 Y125.05 E16.81415
G1 X90.874 Y124.258 E16.88909
G1 X90.993 Y123.473 E16.96412
G1 X91.086 Y123.112 E16.99935
G1 X91.026 Y123.096 E17.00522
G1 X90.281 Y122.821 E17.08027
G1 X89.568 Y122.474 E17.1552
G1 X88.893 Y122.056 E17.23023
G1 X88.264 Y121.573 E17.30517
G1 X87.687 Y121.028 E17.38017
G1 X87.167 Y120.429 E17.45513
G1 X86.711 Y119.78 E17.53009
G1 X86.322 Y119.088 E17.60511
G1 X86.004 Y118.361 E17.68009
G1 X85.761 Y117.605 E17.75514
G1 X85.596 Y116.829 E17.83011
G1 X85.51 Y116.041 E17.90502
G1 X85.496 Y115.578 E17.94879
G1 X85.496 Y105.578 E18.89379
G1 X85.536 Y104.786 E18.96873
G1 X85.655 Y104.001 E19.04376
G1 X85.853 Y103.233 E19.11871
G1 X86.128 Y102.488 E19.19375
G1 X86.475 Y101.775 E19.26869
G1 X86.893 Y101.1 E19.34372
G1 X87.376 Y100.471 E19.41866
G1 X87.921 Y99.894 E19.49366
G0 F4500 X88.265 Y100.051
G1 F1800 X88.861 Y99.554 E19.567
G1 X89.505 Y99.122 E19.64028
G1 X90.19 Y98.759 E19.71354
G1 X90.909 Y98.467 E19.78688
G1 X91.654 Y98.252 E19.86015
G1 X92.417 Y98.114 E19.93342
G1 X93.371 Y98.053 E20.02376
G1 X107.371 Y98.053 E21.34676
G1 X108.146 Y98.093 E21.4201
G1 X108.912 Y98.212 E21.49335
G1 X109.662 Y98.41 E21.56666
G1 X110.388 Y98.684 E21.63999
G1 X111.081 Y99.031 E21.71323
G1 X111.735 Y99.448 E21.78652
G1 X111.857 Y99.545 E21.80125
G1 X112.083 Y99.357 E21.82903
G1 X112.727 Y98.925 E21.90231
G1 X113.412 Y98.562 E21.97557
G1 X114.131 Y98.27 E22.04891
G1 X114.876 Y98.055 E22.12218
G1 X115.639 Y97.917 E22.19546
G1 X116.593 Y97.856 E22.2858
G1 X131.593 Y97.856 E23.7033
G1 X132.368 Y97.896 E23.77663
G1 X133.134 Y98.015 E23.84989
G1 X133.884 Y98.213 E23.92319
G1 X134.61 Y98.487 E23.99652
G1 X135.303 Y98.834 E24.06976
G1 X135.957 Y99.251 E24.14306
G1 X136.565 Y99.733 E24.21638
G1 X137.12 Y100.275 E24.28969
G1 X137.617 Y100.871 E24.36302
G1 X138.049 Y101.515 E24.4363
G1 X138.412 Y102.2 E24.50956
G1 X138.704 Y102.919 E24.5829
G1 X138.919 Y103.664 E24.65617
G1 X139.057 Y104.427 E24.72945
G1 X139.118 Y105.381 E24.81978
G1 X139.118 Y115.381 E25.76478
G1 X139.078 Y116.156 E25.83812
G1 X138.959 Y116.922 E25.91137
G1 X138.761 Y117.672 E25.98468
G1 X138.487 Y118.398 E26.05801
G1 X138.14 Y119.091 E26.13125
G1 X137.723 Y119.745 E26.20454
G1 X137.241 Y120.353 E26.27786
G1 X136.699 Y120.908 E26.35117
G1 X136.103 Y121.405 E26.42451
G1 X135.497 Y121.811 E26.49344
G1 X135.528 Y121.869 E26.49965
G1 X135.82 Y122.588 E26.57299
G1 X136.035 Y123.333 E26.64626
G1 X136.173 Y124.096 E26.71954
G1 X136.234 Y125.05 E26.80988
G1 X136.234 Y147.55 E28.93613
G1 X136.194 Y148.325 E29.00946
G1 X136.075 Y149.091 E29.08272
G1 X135.877 Y149.841 E29.15602
G1 X135.603 Y150.567 E29.22935
G1 X135.256 Y151.26 E29.30259
G1 X134.839 Y151.914 E29.37589
G1 X134.357 Y152.522 E29.44921
G1 X133.815 Y153.077 E29.52252
G1 X133.219 Y153.574 E29.59585
G1 X132.575 Y154.006 E29.66913
G1 X131.89 Y154.369 E29.74239
G1 X131.171 Y154.661 E29.81573
G1 X130.426 Y154.876 E29.889
G1 X129.663 Y155.014 E29.96228
G1 X128.709 Y155.075 E30.05261
G1 X98.709 Y155.075 E32.88761
G1 X97.934 Y155.035 E32.96095
G1 X97.168 Y154.916 E33.0342
G1 X96.418 Y154.718 E33.10751
G1 X95.692 Y154.444 E33.18084
G1 X94.999 Y154.097 E33.25408
G1 X94.345 Y153.68 E33.32737
G1 X93.737 Y153.198 E33.40069
G1 X93.182 Y152.656 E33.474
G1 X92.685 Y152.06 E33.54734
G1 X92.253 Y151.416 E33.62062
G1 X91.89 Y150.731 E33.69388
G1 X91.598 Y150.012 E33.76722
G1 X91.383 Y149.267 E33.84049
G1 X91.245 Y148.504 E33.91376
G1 X91.184 Y147.55 E34.0041
G1 X91.184 Y125.05 E36.13035
G1 X91.224 Y124.275 E36.20369
G1 X91.343 Y123.509 E36.27694
G1 X91.514 Y122.861 E36.34027
G1 X91.08 Y122.746 E36.3827
G1 X90.354 Y122.472 E36.45603
G1 X89.661 Y122.125 E36.52927
G1 X89.007 Y121.708 E36.60257
G1 X88.399 Y121.226 E36.67589
G1 X87.844 Y120.684 E36.7492
G1 X87.347 Y120.088 E36.82253
G1 X86.915 Y119.444 E36.89582
G1 X86.552 Y118.759 E36.96908
G1 X86.26 Y118.04 E37.04241
G1 X86.045 Y117.295 E37.11569
G1 X85.907 Y116.532 E37.18896
G1 X85.846 Y115.578 E37.2793
G1 X85.846 Y105.578 E38.2243
G1 X85.886 Y104.803 E38.29763
G1 X86.005 Y104.037 E38.37089
G1 X86.203 Y103.287 E38.44419
G1 X86.477 Y102.561 E38.51752
G1 X86.824 Y101.868 E38.59076
G1 X87.241 Y101.214 E38.66406
G1 X87.723 Y100.606 E38.73738
G1 X88.265 Y100.051 E38.81069
G0 F4500 X88.608 Y100.212
G1 F1800 X89.2 Y99.74 E38.88224
G1 X89.839 Y99.333 E38.95383
G1 X90.517 Y98.995 E39.02542
G1 X91.226 Y98.731 E39.09692
G1 X91.96 Y98.543 E39.16852
G1 X92.709 Y98.434 E39.24004
G1 X93.371 Y98.403 E39.30267
G1 X107.371 Y98.403 E40.62567
G1 X108.127 Y98.443 E40.69721
G1 X108.875 Y98.562 E40.76879
G1 X109.606 Y98.76 E40.84036
G1 X110.313 Y99.034 E40.91201
G1 X110.986 Y99.38 E40.98352
G1 X111.619 Y99.796 E41.0551
G1 X111.859 Y99.992 E41.08438
G1 X112.422 Y99.543 E41.15243
G1 X113.061 Y99.136 E41.22403
G1 X113.739 Y98.798 E41.29562
G1 X114.448 Y98.534 E41.36711
G1 X115.182 Y98.346 E41.43872
G1 X115.931 Y98.237 E41.51024
G1 X116.593 Y98.206 E41.57287
G1 X131.593 Y98.206 E42.99037
G1 X132.349 Y98.246 E43.06191
G1 X133.097 Y98.365 E43.13349
G1 X133.828 Y98.563 E43.20506
G1 X134.535 Y98.837 E43.27671
G1 X135.208 Y99.183 E43.34822
G1 X135.841 Y99.599 E43.4198
G1 X136.427 Y100.079 E43.49138
G1 X136.959 Y100.618 E43.56295
G1 X137.431 Y101.21 E43.6345
G1 X137.838 Y101.849 E43.70609
G1 X138.176 Y102.527 E43.77769
G1 X138.44 Y103.236 E43.84918
G1 X138.628 Y103.97 E43.92078
G1 X138.737 Y104.719 E43.99231
G1 X138.768 Y105.381 E44.05494
G1 X138.768 Y115.381 E44.99994
G1 X138.728 Y116.137 E45.07148
G1 X138.609 Y116.885 E45.14305
G1 X138.411 Y117.616 E45.21462
G1 X138.137 Y118.323 E45.28627
G1 X137.791 Y118.996 E45.35779
G1 X137.375 Y119.629 E45.42937
G1 X136.895 Y120.215 E45.50095
G1 X136.356 Y120.747 E45.57252
G1 X135.764 Y121.219 E45.64407
G1 X135.125 Y121.626 E45.71566
G1 X135.031 Y121.673 E45.72559
G1 X135.292 Y122.196 E45.78083
G1 X135.556 Y122.905 E45.85232
G1 X135.744 Y123.639 E45.92392
G1 X135.853 Y124.388 E45.99545
G1 X135.884 Y125.05 E46.05808
G1 X135.884 Y147.55 E48.18433
G1 X135.844 Y148.306 E48.25587
G1 X135.725 Y149.054 E48.32744
G1 X135.527 Y149.785 E48.39901
G1 X135.253 Y150.492 E48.47067
G1 X134.907 Y151.165 E48.54218
G1 X134.491 Y151.798 E48.61376
G1 X134.011 Y152.384 E48.68534
G1 X133.472 Y152.916 E48.75691
G1 X132.88 Y153.388 E48.82846
G1 X132.241 Y153.795 E48.90005
G1 X131.563 Y154.133 E48.97164
G1 X130.854 Y154.397 E49.04314
G1 X130.12 Y154.585 E49.11474
G1 X129.371 Y154.694 E49.18627
G1 X128.709 Y154.725 E49.24889
G1 X98.709 Y154.725 E52.08389
G1 X97.953 Y154.685 E52.15543
G1 X97.205 Y154.566 E52.22701
G1 X96.474 Y154.368 E52.29858
G1 X95.767 Y154.094 E52.37023
G1 X95.094 Y153.748 E52.44174
G1 X94.461 Y153.332 E52.51332
G1 X93.875 Y152.852 E52.58491
G1 X93.343 Y152.313 E52.65647
G1 X92.871 Y151.721 E52.72802
G1 X92.464 Y151.082 E52.79962
G1 X92.126 Y150.404 E52.87121
G1 X91.862 Y149.695 E52.9427
G1 X91.674 Y148.961 E53.0143
G1 X91.565 Y148.212 E53.08583
G1 X91.534 Y147.55 E53.14846
G1 X91.534 Y125.05 E55.27471
G1 X91.574 Y124.294 E55.34625
G1 X91.693 Y123.546 E55.41782
G1 X91.891 Y122.815 E55.48939
G1 X91.97 Y122.61 E55.51015
G1 X91.867 Y122.594 E55.52
G1 X91.136 Y122.396 E55.59157
G1 X90.429 Y122.122 E55.66323
G1 X89.756 Y121.776 E55.73474
G1 X89.123 Y121.36 E55.80632
G1 X88.537 Y120.88 E55.8779
G1 X88.005 Y120.341 E55.94947
G1 X87.533 Y119.749 E56.02102
G1 X87.126 Y119.11 E56.09261
G1 X86.788 Y118.432 E56.1642
G1 X86.524 Y117.723 E56.2357
G1 X86.336 Y116.989 E56.3073
G1 X86.227 Y116.24 E56.37883
G1 X86.196 Y115.578 E56.44145
G1 X86.196 Y105.578 E57.38645
G1 X86.236 Y104.822 E57.458
G1 X86.355 Y104.074 E57.52957
G1 X86.553 Y103.343 E57.60114
G1 X86.827 Y102.636 E57.67279
G1 X87.173 Y101.963 E57.7443
G1 X87.589 Y101.33 E57.81588
G1 X88.069 Y100.744 E57.88747
G1 X88.608 Y100.212 E57.95903
G0 F4500 X88.414 Y100.886
G1 F1800 X88.95 Y100.378 E58.02882
G1 X89.538 Y99.931 E58.09862
G1 X90.171 Y99.55 E58.16844
G1 X90.841 Y99.239 E58.23824
G1 X91.541 Y99.003 E58.30805
G1 X92.262 Y98.844 E58.37782
G1 X92.997 Y98.763 E58.4477
G1 X93.371 Y98.753 E58.48306
G1 X107.371 Y98.753 E59.80606
G1 X108.109 Y98.793 E59.8759
G1 X108.837 Y98.912 E59.94561
G1 X109.549 Y99.11 E60.01545
G1 X110.235 Y99.383 E60.08522
G1 X110.888 Y99.729 E60.15505
G1 X111.5 Y100.143 E60.22488
G1 X111.876 Y100.462 E60.27147
G1 X112.172 Y100.181 E60.31004
G1 X112.76 Y99.734 E60.37984
G1 X113.393 Y99.353 E60.44966
G1 X114.063 Y99.042 E60.51946
G1 X114.763 Y98.806 E60.58927
G1 X115.484 Y98.647 E60.65904
G1 X116.219 Y98.566 E60.72892
G1 X116.593 Y98.556 E60.76428
G1 X131.593 Y98.556 E62.18178
G1 X132.331 Y98.596 E62.25162
G1 X133.059 Y98.715 E62.32133
G1 X133.771 Y98.913 E62.39117
G1 X134.457 Y99.186 E62.46094
G1 X135.11 Y99.532 E62.53077
G1 X135.722 Y99.946 E62.6006
G1 X136.285 Y100.424 E62.67039
G1 X136.793 Y100.96 E62.74018
G1 X137.24 Y101.548 E62.80998
G1 X137.621 Y102.181 E62.8798
G1 X137.932 Y102.851 E62.9496
G1 X138.168 Y103.551 E63.01941
G1 X138.327 Y104.272 E63.08918
G1 X138.408 Y105.007 E63.15906
G1 X138.418 Y105.381 E63.19441
G1 X138.418 Y115.381 E64.13941
G1 X138.378 Y116.119 E64.20926
G1 X138.259 Y116.847 E64.27896
G1 X138.061 Y117.559 E64.3488
G1 X137.788 Y118.245 E64.41857
G1 X137.442 Y118.898 E64.48841
G1 X137.028 Y119.51 E64.55823
G1 X136.55 Y120.073 E64.62803
G1 X136.014 Y120.581 E64.69781
G1 X135.426 Y121.028 E64.76761
G1 X134.793 Y121.409 E64.83743
G1 X134.542 Y121.526 E64.8636
G1 X134.737 Y121.85 E64.89934
G1 X135.048 Y122.52 E64.96914
G1 X135.284 Y123.22 E65.03895
G1 X135.443 Y123.941 E65.10872
G1 X135.524 Y124.676 E65.1786
G1 X135.534 Y125.05 E65.21395
G1 X135.534 Y147.55 E67.3402
G1 X135.494 Y148.288 E67.41005
G1 X135.375 Y149.016 E67.47976
G1 X135.177 Y149.728 E67.54959
G1 X134.904 Y150.414 E67.61936
G1 X134.558 Y151.067 E67.6892
G1 X134.144 Y151.679 E67.75902
G1 X133.666 Y152.242 E67.82882
G1 X133.13 Y152.75 E67.8986
G1 X132.542 Y153.197 E67.9684
G1 X131.909 Y153.578 E68.03822
G1 X131.239 Y153.889 E68.10802
G1 X130.539 Y154.125 E68.17783
G1 X129.818 Y154.284 E68.2476
G1 X129.083 Y154.365 E68.31748
G1 X128.709 Y154.375 E68.35284
G1 X98.709 Y154.375 E71.18784
G1 X97.971 Y154.335 E71.25768
G1 X97.243 Y154.216 E71.32739
G1 X96.531 Y154.018 E71.39723
G1 X95.845 Y153.745 E71.467
G1 X95.192 Y153.399 E71.53684
G1 X94.58 Y152.985 E71.60666
G1 X94.017 Y152.507 E71.67645
G1 X93.509 Y151.971 E71.74624
G1 X93.062 Y151.383 E71.81604
G1 X92.681 Y150.75 E71.88586
G1 X92.37 Y150.08 E71.95566
G1 X92.134 Y149.38 E72.02547
G1 X91.975 Y148.659 E72.09524
G1 X91.894 Y147.924 E72.16512
G1 X91.884 Y147.55 E72.20047
G1 X91.884 Y125.05 E74.32672
G1 X91.924 Y124.312 E74.39657
G1 X92.043 Y123.584 E74.46628
G1 X92.241 Y122.872 E74.53611
G1 X92.455 Y122.334 E74.59083
G1 X91.905 Y122.244 E74.64349
G1 X91.193 Y122.046 E74.71333
G1 X90.507 Y121.773 E74.7831
G1 X89.854 Y121.427 E74.85294
G1 X89.242 Y121.013 E74.92276
G1 X88.679 Y120.535 E74.99256
G1 X88.171 Y119.999 E75.06234
G1 X87.724 Y119.411 E75.13214
G1 X87.343 Y118.778 E75.20196
G1 X87.032 Y118.108 E75.27176
G1 X86.796 Y117.408 E75.34157
G1 X86.637 Y116.687 E75.41134
G1 X86.556 Y115.952 E75.48122
G1 X86.546 Y115.578 E75.51658
G1 X86.546 Y105.578 E76.46158
G1 X86.586 Y104.84 E76.53142
G1 X86.705 Y104.112 E76.60113
G1 X86.903 Y103.4 E76.67097
G1 X87.176 Y102.714 E76.74074
G1 X87.522 Y102.061 E76.81057
G1 X87.936 Y101.449 E76.8804
G1 X88.414 Y100.886 E76.95019
G0 F4500 X88.76 Y101.033
G1 F1800 X89.292 Y100.549 E77.01816
G1 X89.875 Y100.128 E77.08611
G1 X90.502 Y99.774 E77.15416
G1 X91.163 Y99.491 E77.22211
G1 X91.852 Y99.284 E77.29009
G1 X92.56 Y99.154 E77.35812
G1 X93.371 Y99.103 E77.43491
G1 X107.371 Y99.103 E78.75791
G1 X108.089 Y99.143 E78.82586
G1 X108.799 Y99.262 E78.89389
G1 X109.491 Y99.46 E78.96191
G1 X110.156 Y99.733 E79.02984
G1 X110.788 Y100.078 E79.09789
G1 X111.377 Y100.491 E79.16587
G1 X111.888 Y100.942 E79.23027
G1 X111.982 Y100.836 E79.24366
G1 X112.514 Y100.352 E79.31163
G1 X113.097 Y99.931 E79.37959
G1 X113.724 Y99.577 E79.44763
G1 X114.385 Y99.294 E79.51558
G1 X115.074 Y99.087 E79.58356
G1 X115.782 Y98.957 E79.65159
G1 X116.593 Y98.906 E79.72838
G1 X131.593 Y98.906 E81.14588
G1 X132.311 Y98.946 E81.21383
G1 X133.021 Y99.065 E81.28187
G1 X133.713 Y99.263 E81.34988
G1 X134.378 Y99.536 E81.41782
G1 X135.01 Y99.881 E81.48586
G1 X135.599 Y100.294 E81.55384
G1 X136.138 Y100.77 E81.62179
G1 X136.622 Y101.302 E81.68976
G1 X137.043 Y101.885 E81.75772
G1 X137.397 Y102.512 E81.82576
G1 X137.68 Y103.173 E81.89371
G1 X137.887 Y103.862 E81.96169
G1 X138.017 Y104.57 E82.02972
G1 X138.068 Y105.381 E82.10651
G1 X138.068 Y115.381 E83.05151
G1 X138.028 Y116.099 E83.11947
G1 X137.909 Y116.809 E83.1875
G1 X137.711 Y117.501 E83.25551
G1 X137.438 Y118.166 E83.32345
G1 X137.093 Y118.798 E83.39149
G1 X136.68 Y119.387 E83.45947
G1 X136.204 Y119.926 E83.52742
G1 X135.672 Y120.41 E83.59539
G1 X135.089 Y120.831 E83.66335
G1 X134.462 Y121.185 E83.73139
G1 X134.027 Y121.371 E83.7761
G1 X134.159 Y121.554 E83.79742
G1 X134.513 Y122.181 E83.86546
G1 X134.796 Y122.842 E83.93341
G1 X135.003 Y123.531 E84.0014
G1 X135.133 Y124.239 E84.06942
G1 X135.184 Y125.05 E84.14621
G1 X135.184 Y147.55 E86.27246
G1 X135.144 Y148.268 E86.34042
G1 X135.025 Y148.978 E86.40845
