;FLAVOR:UltiGCode
;TIME:723
;MATERIAL:583
;MATERIAL2:0
;NOZZLE_DIAMETER:0.4
;MINX:104.763
;MINY:106.774
;MINZ:0.27
;MAXX:128.28
;MAXY:119.273
;MAXZ:3.99
;Generated with Cura_SteamEngine 4.8.0
M82 ;absolute extrusion mode
G0 F3000 Y50 ;avoid prime blob
G92 E0
G92 E0
G10
;LAYER_COUNT:63
;LAYER:0
M107
;MESH:SpoilerArmV1.stl
G0 F4320 X107.374 Y110.076 Z0.27
;TYPE:WALL-INNER
G11
G1 F2700 X107.088 Y110.623 E0.05833
G1 X106.965 Y111.227 E0.11658
G1 X107.018 Y111.84 E0.17472
G1 X107.241 Y112.417 E0.23318
G1 X107.621 Y112.906 E0.2917
G1 X108.119 Y113.268 E0.34989
G1 X108.7 Y113.474 E0.40814
G1 X109.314 Y113.508 E0.46625
G1 X109.915 Y113.369 E0.52454
G1 X110.452 Y113.066 E0.58281
G1 X110.882 Y112.623 E0.64115
G1 X111.17 Y112.077 E0.69949
G1 X111.292 Y111.471 E0.7579
G1 X111.239 Y110.858 E0.81605
G1 X111.016 Y110.282 E0.87442
G1 X110.637 Y109.794 E0.93281
G1 X110.138 Y109.431 E0.99112
G1 X109.558 Y109.226 E1.04925
G1 X109.092 Y109.199 E1.09336
G1 X108.943 Y109.191 E1.10747
G1 X108.339 Y109.331 E1.16606
G1 X108.242 Y109.386 E1.17659
G1 X107.806 Y109.634 E1.224
G1 X107.374 Y110.076 E1.2824
G0 F4320 X108.454 Y109.623
G0 X109.495 Y109.534
G0 X122.593 Y115.151
G1 F2700 X122.829 Y116.227 E1.3865
G1 X112.633 Y118.469 E2.37304
G1 X112.396 Y117.395 E2.47698
G1 X107.684 Y118.432 E2.93292
G1 X107.514 Y118.469 E2.94936
G1 X107.477 Y118.299 E2.95995
G1 X105.604 Y109.786 E3.78367
G1 X105.567 Y109.616 E3.80011
G1 X105.737 Y109.579 E3.81071
G1 X108.161 Y109.046 E4.04525
G1 X108.27 Y109.022 E4.05529
G1 X108.876 Y108.889 E4.10764
G1 X109.021 Y108.857 E4.12085
G1 X115.319 Y107.472 E4.73024
G1 X126.837 Y111.172 E5.87347
G1 X127.439 Y113.908 E6.13821
G1 X127.476 Y114.078 E6.15465
G1 X127.306 Y114.115 E6.16524
G1 X122.593 Y115.151 E6.62126
G0 F4320 X123.01 Y115.418
G1 F2700 X123.246 Y116.494 E6.72535
G1 X112.367 Y118.886 E7.77798
G1 X112.13 Y117.812 E7.88191
G1 X107.417 Y118.849 E8.33794
G1 X107.247 Y118.886 E8.35439
G1 X107.21 Y118.716 E8.36498
G1 X105.187 Y109.519 E9.25488
G1 X105.15 Y109.349 E9.27132
G1 X105.32 Y109.312 E9.28191
G1 X115.335 Y107.11 E10.25094
G1 X127.136 Y110.901 E11.42226
G1 X127.856 Y114.175 E11.73905
G1 X127.893 Y114.345 E11.75549
G1 X127.723 Y114.382 E11.76609
G1 X123.01 Y115.418 E12.2221
G0 F4320 X122.926 Y115.365
G0 X109.495 Y109.534
G0 X108.454 Y109.623
G0 X107.58 Y110.226
G0 X107.66 Y110.284
G1 F2700 X107.421 Y110.741 E12.27083
G1 X107.318 Y111.247 E12.31963
G1 X107.362 Y111.76 E12.36829
G1 X107.549 Y112.243 E12.41723
G1 X107.867 Y112.652 E12.46619
G1 X108.284 Y112.955 E12.5149
G1 X108.77 Y113.127 E12.56362
G1 X109.284 Y113.156 E12.61227
G1 X109.787 Y113.039 E12.66107
G1 X110.236 Y112.786 E12.70978
G1 X110.596 Y112.415 E12.75863
G1 X110.837 Y111.958 E12.80745
G1 X110.939 Y111.451 E12.85632
G1 X110.895 Y110.938 E12.90498
G1 X110.708 Y110.456 E12.95384
G1 X110.391 Y110.048 E13.00266
G1 X109.973 Y109.744 E13.0515
G1 X109.488 Y109.573 E13.1001
G1 X108.973 Y109.543 E13.14885
G1 X108.468 Y109.66 E13.19784
G1 X108.022 Y109.914 E13.24634
G1 X107.66 Y110.284 E13.29526
G0 F4320 X107.926 Y110.477
;TYPE:WALL-OUTER
G1 F2700 X107.73 Y110.851 E13.33516
G1 X107.646 Y111.266 E13.37517
G1 X107.682 Y111.686 E13.41501
G1 X107.835 Y112.081 E13.45504
G1 X108.095 Y112.416 E13.49511
G1 X108.437 Y112.664 E13.53503
G1 X108.835 Y112.805 E13.57494
G1 X109.256 Y112.829 E13.61478
G1 X109.668 Y112.733 E13.65476
G1 X110.035 Y112.526 E13.69458
G1 X110.33 Y112.222 E13.73461
G1 X110.528 Y111.848 E13.7746
G1 X110.611 Y111.433 E13.81459
G1 X110.575 Y111.012 E13.85452
G1 X110.422 Y110.618 E13.89447
G1 X110.163 Y110.284 E13.93441
G1 X109.82 Y110.035 E13.97446
G1 X109.423 Y109.895 E14.01424
G1 X109.001 Y109.87 E14.05419
G1 X108.588 Y109.966 E14.09426
G1 X108.222 Y110.174 E14.13404
G1 X107.926 Y110.477 E14.17407
G0 F4320 X107.834 Y110.654
G0 X107.458 Y110.457
G0 X107.998 Y109.883
G0 X108.97 Y109.504
G0 X122.982 Y115.756
G0 X123.397 Y115.666
G1 F2700 X123.633 Y116.741 E14.27808
G1 X112.12 Y119.273 E15.39206
G1 X111.883 Y118.199 E15.49599
G1 X107 Y119.273 E15.96846
G1 X104.8 Y109.272 E16.93616
G1 X104.763 Y109.102 E16.9526
G1 X104.933 Y109.065 E16.96319
G1 X115.351 Y106.774 E17.97122
G1 X127.413 Y110.649 E19.16845
G1 X128.28 Y114.592 E19.54997
G1 X123.397 Y115.666 E20.02244
G0 F4320 X123.439 Y115.861
G0 X122.425 Y115.967
;TYPE:SKIN
G1 F2700 X112.892 Y118.064 E20.94485
G1 X112.655 Y116.99 E21.04878
G1 X107.773 Y118.064 E21.52116
G1 X105.972 Y109.875 E22.31352
G1 X107.403 Y109.56 E22.45199
G1 X107.096 Y109.874 E22.49348
G1 X106.764 Y110.508 E22.56111
G1 X106.622 Y111.208 E22.62861
G1 X106.684 Y111.918 E22.69596
G1 X106.942 Y112.586 E22.76363
G1 X107.382 Y113.153 E22.83146
G1 X107.959 Y113.572 E22.89884
G1 X108.632 Y113.81 E22.9663
G1 X109.343 Y113.85 E23.0336
G1 X110.039 Y113.689 E23.1011
G1 X110.662 Y113.338 E23.16868
G1 X111.16 Y112.825 E23.23624
G1 X111.494 Y112.192 E23.30388
G1 X111.635 Y111.49 E23.37154
G1 X111.573 Y110.78 E23.43889
G1 X111.315 Y110.113 E23.50647
G1 X110.876 Y109.547 E23.57416
G1 X110.298 Y109.126 E23.64174
G1 X109.945 Y109.002 E23.6771
G1 X115.302 Y107.823 E24.19545
G1 X126.547 Y111.436 E25.3116
G1 X127.071 Y113.819 E25.54218
G1 X122.188 Y114.892 E26.01463
G1 X122.425 Y115.967 E26.11866
G0 F4320 X126.553 Y112.198
G1 F2700 X125.674 Y111.32 E26.23606
G1 X125.612 Y111.258
G0 F4320 X124.945 Y111.086
G1 F2700 X126.692 Y112.833 E26.46954
G0 F4320 X126.83 Y113.466
G1 F2700 X124.216 Y110.852 E26.81888
G1 X124.154 Y110.79
G0 F4320 X123.487 Y110.617
G1 F2700 X126.625 Y113.755 E27.23825
G0 F4320 X126.219 Y113.844
G1 F2700 X122.757 Y110.383 E27.70086
G1 X122.695 Y110.321
G0 F4320 X122.028 Y110.148
G1 F2700 X125.814 Y113.934 E28.20683
G0 F4320 X125.408 Y114.023
G1 F2700 X121.299 Y109.914 E28.75597
G1 X121.237 Y109.852
G0 F4320 X120.57 Y109.68
G1 F2700 X125.002 Y114.112 E29.34828
G0 F4320 X124.596 Y114.201
G1 F2700 X119.84 Y109.445 E29.98388
G1 X119.778 Y109.383
G0 F4320 X119.111 Y109.211
G1 F2700 X124.19 Y114.291 E30.66273
G0 F4320 X123.784 Y114.38
G1 F2700 X118.382 Y108.977 E31.38473
G1 X118.32 Y108.915
G0 F4320 X117.652 Y108.743
G1 F2700 X123.379 Y114.469 E32.15004
G0 F4320 X122.973 Y114.559
G1 F2700 X116.923 Y108.509 E32.95858
G1 X116.861 Y108.447
G0 F4320 X116.194 Y108.275
G1 F2700 X122.567 Y114.648 E33.81029
G0 F4320 X122.161 Y114.737
G1 F2700 X115.464 Y108.04 E34.7053
G0 F4320 X114.983 Y108.053
G1 F2700 X122.084 Y115.154 E35.6543
G0 F4320 X122.223 Y115.788
G1 F2700 X114.578 Y108.143 E36.676
G0 F4320 X114.172 Y108.232
G1 F2700 X121.868 Y115.928 E37.70452
G0 F4320 X121.462 Y116.017
G1 F2700 X113.766 Y108.321 E38.73304
G0 F4320 X113.361 Y108.411
G1 F2700 X121.056 Y116.106 E39.76142
G0 F4320 X120.65 Y116.196
G1 F2700 X112.955 Y108.5 E40.78987
G0 F4320 X112.549 Y108.589
G1 F2700 X120.244 Y116.285 E41.81832
G0 F4320 X119.839 Y116.374
G1 F2700 X112.144 Y108.679 E42.84671
G0 F4320 X111.738 Y108.768
G1 F2700 X119.433 Y116.463 E43.87509
G0 F4320 X119.027 Y116.552
G1 F2700 X111.332 Y108.857 E44.90348
G0 F4320 X110.927 Y108.947
G1 F2700 X118.622 Y116.642 E45.93186
G0 F4320 X118.216 Y116.731
G1 F2700 X111.221 Y109.736 E46.86669
G0 F4320 X110.737 Y109.252
G1 F2700 X110.521 Y109.036 E46.89556
G0 F4320 X111.721 Y110.731
G1 F2700 X117.81 Y116.82 E47.70931
G0 F4320 X117.404 Y116.909
G1 F2700 X111.773 Y111.278 E48.46186
G0 F4320 X111.744 Y111.744
G1 F2700 X116.998 Y116.998 E49.16402
G0 F4320 X116.592 Y117.087
G1 F2700 X111.66 Y112.155 E49.82315
G0 F4320 X111.509 Y112.499
G1 F2700 X116.186 Y117.176 E50.4482
G0 F4320 X115.78 Y117.265
G1 F2700 X111.338 Y112.823 E51.04184
G0 F4320 X111.114 Y113.094
G1 F2700 X115.375 Y117.354 E51.61123
G0 F4320 X114.969 Y117.444
G1 F2700 X110.87 Y113.345 E52.15903
G0 F4320 X110.588 Y113.558
G1 F2700 X114.564 Y117.533 E52.69033
G0 F4320 X114.158 Y117.622
G1 F2700 X110.272 Y113.737 E53.2096
G0 F4320 X109.918 Y113.878
G1 F2700 X113.752 Y117.712 E53.72199
G0 F4320 X113.346 Y117.801
G1 F2700 X112.894 Y117.349 E53.78239
G0 F4320 X112.425 Y116.879
G1 F2700 X109.515 Y113.97 E54.17123
G0 F4320 X109.04 Y113.989
G1 F2700 X112.019 Y116.968 E54.56935
G0 F4320 X111.613 Y117.057
G1 F2700 X108.475 Y113.919 E54.98872
G1 X108.413 Y113.857
G0 F4320 X107.472 Y113.412
G1 F2700 X111.207 Y117.147 E55.48788
G0 F4320 X110.801 Y117.236
G1 F2700 X106.892 Y113.327 E56.01029
G0 F4320 X107.078 Y113.018
G1 F2700 X106.753 Y112.693 E56.05373
G0 F4320 X107.031 Y113.961
G1 F2700 X110.395 Y117.325 E56.5033
G0 F4320 X109.989 Y117.414
G1 F2700 X107.171 Y114.595 E56.87998
G0 F4320 X107.31 Y115.23
G1 F2700 X109.583 Y117.503 E57.18375
G0 F4320 X109.177 Y117.592
G1 F2700 X107.45 Y115.865 E57.41455
G0 F4320 X107.589 Y116.499
G1 F2700 X108.772 Y117.681 E57.57258
G0 F4320 X108.366 Y117.77
G1 F2700 X107.729 Y117.133 E57.65771
G0 F4320 X107.868 Y117.767
G1 F2700 X107.96 Y117.859 E57.67001
G0 F4320 X106.51 Y110.965
G1 F2700 X106.334 Y110.788 E57.6936
G0 F4320 X106.594 Y110.554
G1 F2700 X106.194 Y110.154 E57.74705
G0 F4320 X106.461 Y109.926
G1 F2700 X106.743 Y110.208 E57.78474
;MESH:NONMESH
G0 F600 X106.743 Y110.208 Z0.33
G0 F4320 X106.985 Y111.694
;TIME_ELAPSED:20.208738
;LAYER:1
M106 S255
;TYPE:WALL-INNER
;MESH:SpoilerArmV1.stl
G1 F3150 X107.247 Y112.431 E57.80117
G1 X107.645 Y112.928 E57.81454
G1 X108.161 Y113.291 E57.82779
G1 X108.869 Y113.505 E57.84332
G1 X109.547 Y113.475 E57.85757
G1 X110.134 Y113.269 E57.87063
G1 X110.635 Y112.907 E57.88361
G1 X111.011 Y112.42 E57.89654
G1 X111.238 Y111.849 E57.90944
G1 X111.294 Y111.218 E57.92274
G1 X111.126 Y110.497 E57.93829
G1 X110.76 Y109.922 E57.9526
G1 X110.287 Y109.518 E57.96567
G1 X109.725 Y109.267 E57.97859
G1 X109.15 Y109.187 E57.99078
G1 X109.115 Y109.183 E57.99152
G1 X108.504 Y109.273 E58.00449
G1 X108.281 Y109.377 E58.00966
G1 X107.944 Y109.535 E58.01747
G1 X107.481 Y109.942 E58.03042
G1 X107.152 Y110.464 E58.04338
G1 X106.983 Y111.054 E58.05627
G1 X106.985 Y111.694 E58.06971
G0 F5760 X107.86 Y112.699
G0 X108.793 Y113.156
G0 X122.593 Y115.151
G1 F3150 X122.829 Y116.227 E58.09284
G1 X112.633 Y118.469 E58.31207
G1 X112.396 Y117.395 E58.33517
G1 X107.684 Y118.432 E58.43649
G1 X107.514 Y118.469 E58.44014
G1 X107.477 Y118.299 E58.4425
G1 X105.567 Y109.616 E58.6292
G1 X108.199 Y109.037 E58.68579
G1 X108.44 Y108.985 E58.69056
G1 X109.042 Y108.853 E58.70227
G1 X109.077 Y108.846 E58.70301
G1 X115.319 Y107.472 E58.83723
G1 X126.837 Y111.172 E59.09128
G1 X127.439 Y113.908 E59.15011
G1 X127.476 Y114.078 E59.15376
G1 X127.306 Y114.115 E59.15612
G1 X122.593 Y115.151 E59.25746
G0 F5760 X123.01 Y115.418
G1 F3150 X123.246 Y116.494 E59.28059
G1 X112.367 Y118.886 E59.5145
G1 X112.13 Y117.812 E59.5376
G1 X107.417 Y118.849 E59.63894
G1 X107.247 Y118.886 E59.6426
G1 X107.21 Y118.716 E59.64495
G1 X105.187 Y109.519 E59.8427
G1 X105.15 Y109.349 E59.84636
G1 X105.32 Y109.312 E59.84871
G1 X115.335 Y107.11 E60.06405
G1 X127.136 Y110.901 E60.32435
G1 X127.856 Y114.175 E60.39474
G1 X127.893 Y114.345 E60.3984
G1 X127.723 Y114.382 E60.40075
G1 X123.01 Y115.418 E60.50209
G0 F5760 X122.926 Y115.365
G0 X110.891 Y110.596
G0 X110.799 Y110.634
G1 F3150 X110.493 Y110.154 E60.51404
G1 X110.098 Y109.817 E60.52494
G1 X109.628 Y109.607 E60.53576
G1 X109.117 Y109.537 E60.54659
G1 X108.606 Y109.612 E60.55743
G1 X108.138 Y109.831 E60.56828
G1 X107.75 Y110.172 E60.57913
G1 X107.475 Y110.608 E60.58996
G1 X107.333 Y111.103 E60.60077
G1 X107.335 Y111.633 E60.6119
G1 X107.557 Y112.258 E60.62583
G1 X107.887 Y112.67 E60.63691
G1 X108.316 Y112.972 E60.64793
G1 X108.913 Y113.153 E60.66103
G1 X109.48 Y113.128 E60.67295
G1 X109.97 Y112.956 E60.68386
G1 X110.389 Y112.653 E60.69471
G1 X110.704 Y112.245 E60.70554
G1 X110.894 Y111.767 E60.71634
G1 X110.94 Y111.243 E60.72739
G1 X110.799 Y110.634 E60.74051
G0 F5760 X110.891 Y110.596
G0 X110.932 Y111.776
G0 X110.416 Y112.681
G0 X109.583 Y113.133
G0 X108.83 Y113.231
G0 X108.954 Y112.826
;TYPE:WALL-OUTER
G1 F2850 X109.418 Y112.805 E60.75027
G1 X109.818 Y112.665 E60.75917
G1 X110.161 Y112.417 E60.76806
G1 X110.419 Y112.083 E60.77692
G1 X110.574 Y111.691 E60.78577
G1 X110.612 Y111.266 E60.79473
G1 X110.495 Y110.762 E60.8056
G1 X110.245 Y110.37 E60.81536
G1 X109.923 Y110.095 E60.82425
G1 X109.538 Y109.923 E60.83311
G1 X109.119 Y109.865 E60.84199
G1 X108.701 Y109.927 E60.85087
G1 X108.318 Y110.106 E60.85974
G1 X108 Y110.385 E60.86863
G1 X107.775 Y110.742 E60.87749
G1 X107.658 Y111.148 E60.88636
G1 X107.66 Y111.576 E60.89535
G1 X107.845 Y112.098 E60.90698
G1 X108.112 Y112.431 E60.91594
G1 X108.46 Y112.676 E60.92488
G1 X108.954 Y112.826 E60.93572
G0 F5760 X109.154 Y112.817
G0 X109.172 Y113.242
G0 X122.982 Y115.756
G0 X123.397 Y115.666
G1 F2850 X123.633 Y116.741 E60.95884
G1 X112.12 Y119.273 E61.20639
G1 X111.883 Y118.199 E61.22948
G1 X107 Y119.273 E61.33448
G1 X104.8 Y109.272 E61.54952
G1 X104.763 Y109.102 E61.55317
G1 X104.933 Y109.065 E61.55553
G1 X115.351 Y106.774 E61.77953
G1 X127.413 Y110.649 E62.04559
G1 X128.28 Y114.592 E62.13037
G1 X123.397 Y115.666 E62.23536
G0 F5760 X123.439 Y115.861
G0 X122.425 Y115.967
;TYPE:SKIN
G1 F2250 X112.892 Y118.064 E62.44034
G1 X112.655 Y116.99 E62.46344
G1 X107.773 Y118.064 E62.56841
G1 X105.972 Y109.875 E62.74449
G1 X107.399 Y109.561 E62.77517
G1 X107.219 Y109.719 E62.7802
G1 X106.839 Y110.324 E62.79521
G1 X106.643 Y111.007 E62.81013
G1 X106.645 Y111.753 E62.82579
G1 X106.946 Y112.598 E62.84463
G1 X107.41 Y113.178 E62.86023
G1 X108.01 Y113.6 E62.87563
G1 X108.826 Y113.847 E62.89354
G1 X109.613 Y113.813 E62.91008
G1 X110.293 Y113.574 E62.92522
G1 X110.874 Y113.154 E62.94027
G1 X111.31 Y112.589 E62.95526
G1 X111.572 Y111.929 E62.97017
G1 X111.638 Y111.194 E62.98567
G1 X111.444 Y110.363 E63.00359
G1 X111.02 Y109.696 E63.02019
G1 X110.47 Y109.228 E63.03535
G1 X109.958 Y108.999 E63.04713
G1 X115.302 Y107.823 E63.16204
G1 X126.547 Y111.436 E63.41007
G1 X127.071 Y113.819 E63.46131
G1 X122.188 Y114.892 E63.5663
G1 X122.425 Y115.967 E63.58942
G0 F5760 X122.921 Y115.454
G0 X126.788 Y113.274
G1 F2250 X126.216 Y113.846 E63.60641
G0 F5760 X125.581 Y113.986
G1 F2250 X126.699 Y112.868 E63.63961
G0 F5760 X126.61 Y112.462
G1 F2250 X124.947 Y114.125 E63.689
G0 F5760 X124.312 Y114.264
G1 F2250 X126.521 Y112.056 E63.75459
G0 F5760 X126.432 Y111.65
G1 F2250 X123.677 Y114.404 E63.83639
G0 F5760 X123.043 Y114.544
G1 F2250 X126.123 Y111.464 E63.92786
G0 F5760 X125.749 Y111.343
G1 F2250 X122.409 Y114.683 E64.02706
G0 F5760 X122.057 Y115.035
G1 F2250 X120.965 Y116.127 E64.05949
G0 F5760 X120.331 Y116.266
G1 F2250 X125.374 Y111.223 E64.20926
G0 F5760 X124.999 Y111.103
G1 F2250 X119.696 Y116.406 E64.36675
G0 F5760 X119.061 Y116.546
G1 F2250 X124.625 Y110.982 E64.53199
G0 F5760 X124.25 Y110.862
G1 F2250 X118.427 Y116.685 E64.70492
G0 F5760 X117.793 Y116.824
G1 F2250 X123.875 Y110.742 E64.88555
G0 F5760 X123.501 Y110.621
G1 F2250 X117.159 Y116.963 E65.0739
G0 F5760 X116.524 Y117.103
G1 F2250 X123.127 Y110.5 E65.27
G0 F5760 X122.752 Y110.38
G1 F2250 X115.89 Y117.242 E65.47379
G0 F5760 X115.255 Y117.382
G1 F2250 X122.377 Y110.26 E65.6853
G0 F5760 X122.002 Y110.14
G1 F2250 X114.621 Y117.521 E65.9045
G0 F5760 X113.987 Y117.661
G1 F2250 X121.628 Y110.02 E66.13143
G0 F5760 X121.253 Y109.899
G1 F2250 X113.352 Y117.8 E66.36608
G0 F5760 X112.969 Y117.688
G1 F2250 X120.879 Y109.779 E66.60098
G0 F5760 X120.504 Y109.658
G1 F2250 X112.88 Y117.282 E66.8274
G0 F5760 X112.791 Y116.876
G1 F2250 X120.129 Y109.538 E67.04533
G0 F5760 X119.754 Y109.418
G1 F2250 X112.256 Y116.917 E67.26802
G0 F5760 X111.621 Y117.056
G1 F2250 X119.38 Y109.297 E67.49845
G0 F5760 X119.006 Y109.177
G1 F2250 X110.987 Y117.195 E67.73659
G0 F5760 X110.353 Y117.335
G1 F2250 X118.631 Y109.057 E67.98243
G0 F5760 X118.256 Y108.936
G1 F2250 X109.718 Y117.474 E68.236
G0 F5760 X109.084 Y117.613
G1 F2250 X117.882 Y108.815 E68.49729
G0 F5760 X117.507 Y108.695
G1 F2250 X108.45 Y117.753 E68.76628
G0 F5760 X107.881 Y117.826
G1 F2250 X117.132 Y108.575 E69.04102
G0 F5760 X116.758 Y108.455
G1 F2250 X107.792 Y117.42 E69.30728
G0 F5760 X107.703 Y117.014
G1 F2250 X116.383 Y108.335 E69.56505
G0 F5760 X116.009 Y108.214
G1 F2250 X111.081 Y113.142 E69.7114
G0 F5760 X110.883 Y113.34
G1 F2250 X107.614 Y116.608 E69.80847
G0 F5760 X107.525 Y116.203
G1 F2250 X109.822 Y113.905 E69.87671
