;FLAVOR:UltiGCode
;TIME:1737
;MATERIAL:1336
;MATERIAL2:0
;NOZZLE_DIAMETER:0.4
;MINX:96.82
;MINY:96.82
;MINZ:0.27
;MAXX:126.18
;MAXY:126.18
;MAXZ:17.13
;Generated with Cura_SteamEngine 4.8.0
M82 ;absolute extrusion mode
G0 F3000 Y50 ;avoid prime blob
G92 E0
G92 E0
G10
;LAYER_COUNT:288
;LAYER:0
M107
G0 F4320 X101.043 Y101.197 Z0.27
;TYPE:SKIRT
G11
G1 F2700 X101.196 Y101.044 E0.02045
G1 X101.808 Y100.475 E0.09942
G1 X101.963 Y100.341 E0.11878
G1 X102.613 Y99.815 E0.1978
G1 X102.786 Y99.685 E0.21825
G1 X103.472 Y99.208 E0.2972
G1 X103.656 Y99.09 E0.31786
G1 X104.375 Y98.665 E0.39679
G1 X104.561 Y98.564 E0.41679
G1 X105.311 Y98.19 E0.49599
G1 X105.494 Y98.106 E0.51502
G1 X106.264 Y97.785 E0.59385
G1 X106.469 Y97.708 E0.61455
G1 X107.262 Y97.444 E0.69353
G1 X107.469 Y97.384 E0.71389
G1 X108.279 Y97.178 E0.79288
G1 X108.483 Y97.133 E0.81262
G1 X109.307 Y96.984 E0.89175
G1 X109.519 Y96.954 E0.91198
G1 X110.349 Y96.865 E0.99087
G1 X110.559 Y96.85 E1.01076
G1 X111.393 Y96.82 E1.08963
G1 X111.607 Y96.82 E1.10985
G1 X112.441 Y96.85 E1.18871
G1 X112.651 Y96.865 E1.20861
G1 X113.481 Y96.954 E1.28749
G1 X113.69 Y96.984 E1.30745
G1 X114.514 Y97.132 E1.38656
G1 X114.725 Y97.178 E1.40697
G1 X115.535 Y97.385 E1.48597
G1 X115.738 Y97.444 E1.50595
G1 X116.531 Y97.708 E1.58493
G1 X116.736 Y97.785 E1.60563
G1 X117.506 Y98.106 E1.68446
G1 X117.689 Y98.19 E1.70349
G1 X118.439 Y98.564 E1.78269
G1 X118.625 Y98.665 E1.80269
G1 X119.344 Y99.09 E1.88162
G1 X119.532 Y99.211 E1.90274
G1 X120.217 Y99.689 E1.98168
G1 X120.382 Y99.813 E2.00118
G1 X121.032 Y100.337 E2.08008
G1 X121.191 Y100.474 E2.09992
G1 X121.803 Y101.043 E2.17889
G1 X121.956 Y101.196 E2.19933
G1 X122.525 Y101.808 E2.2783
G1 X122.659 Y101.963 E2.29766
G1 X123.185 Y102.613 E2.37668
G1 X123.315 Y102.786 E2.39713
G1 X123.792 Y103.472 E2.47609
G1 X123.91 Y103.656 E2.49675
G1 X124.335 Y104.375 E2.57567
G1 X124.436 Y104.56 E2.59559
G1 X124.81 Y105.309 E2.67471
G1 X124.894 Y105.495 E2.69399
G1 X125.215 Y106.266 E2.77292
G1 X125.291 Y106.468 E2.79331
G1 X125.555 Y107.26 E2.8722
G1 X125.616 Y107.469 E2.89278
G1 X125.822 Y108.28 E2.97185
G1 X125.866 Y108.481 E2.9913
G1 X126.015 Y109.303 E3.07024
G1 X126.046 Y109.517 E3.09067
G1 X126.135 Y110.348 E3.16965
G1 X126.15 Y110.558 E3.18955
G1 X126.18 Y111.392 E3.26841
G1 X126.18 Y111.606 E3.28864
G1 X126.15 Y112.441 E3.36759
G1 X126.135 Y112.651 E3.38749
G1 X126.046 Y113.481 E3.46637
G1 X126.016 Y113.69 E3.48633
G1 X125.868 Y114.514 E3.56544
G1 X125.822 Y114.725 E3.58585
G1 X125.615 Y115.535 E3.66485
G1 X125.556 Y115.737 E3.68474
G1 X125.293 Y116.528 E3.76351
G1 X125.216 Y116.734 E3.7843
G1 X124.894 Y117.506 E3.86334
G1 X124.81 Y117.689 E3.88237
G1 X124.436 Y118.439 E3.96157
G1 X124.336 Y118.624 E3.98144
G1 X123.912 Y119.342 E4.06024
G1 X123.789 Y119.532 E4.08163
G1 X123.31 Y120.218 E4.1607
G1 X123.187 Y120.382 E4.18007
G1 X122.663 Y121.032 E4.25897
G1 X122.526 Y121.191 E4.2788
G1 X121.957 Y121.803 E4.35777
G1 X121.804 Y121.956 E4.37822
G1 X121.192 Y122.525 E4.45718
G1 X121.037 Y122.659 E4.47655
G1 X120.387 Y123.185 E4.55557
G1 X120.214 Y123.315 E4.57601
G1 X119.528 Y123.792 E4.65497
G1 X119.344 Y123.91 E4.67563
G1 X118.625 Y124.335 E4.75456
G1 X118.439 Y124.436 E4.77456
G1 X117.689 Y124.81 E4.85376
G1 X117.506 Y124.894 E4.87279
G1 X116.736 Y125.215 E4.95162
G1 X116.531 Y125.292 E4.97231
G1 X115.738 Y125.556 E5.0513
G1 X115.531 Y125.616 E5.07166
G1 X114.721 Y125.822 E5.15064
G1 X114.517 Y125.867 E5.17039
G1 X113.693 Y126.016 E5.24952
G1 X113.481 Y126.046 E5.26975
G1 X112.651 Y126.135 E5.34864
G1 X112.441 Y126.15 E5.36853
G1 X111.607 Y126.18 E5.44739
G1 X111.393 Y126.18 E5.46762
G1 X110.559 Y126.15 E5.54648
G1 X110.349 Y126.135 E5.56638
G1 X109.519 Y126.046 E5.64526
G1 X109.31 Y126.016 E5.66522
G1 X108.486 Y125.868 E5.74433
G1 X108.275 Y125.822 E5.76474
G1 X107.465 Y125.615 E5.84374
G1 X107.262 Y125.556 E5.86372
G1 X106.469 Y125.292 E5.9427
G1 X106.264 Y125.215 E5.9634
G1 X105.494 Y124.894 E6.04223
G1 X105.311 Y124.81 E6.06126
G1 X104.561 Y124.436 E6.14046
G1 X104.375 Y124.335 E6.16046
G1 X103.656 Y123.91 E6.23939
G1 X103.468 Y123.789 E6.26051
G1 X102.783 Y123.311 E6.33945
G1 X102.617 Y123.187 E6.35903
G1 X101.966 Y122.662 E6.43806
G1 X101.808 Y122.525 E6.45782
G1 X101.196 Y121.956 E6.53679
G1 X101.043 Y121.803 E6.55724
G1 X100.474 Y121.191 E6.63621
G1 X100.34 Y121.036 E6.65557
G1 X99.815 Y120.387 E6.73446
G1 X99.686 Y120.215 E6.75477
G1 X99.208 Y119.528 E6.83386
G1 X99.088 Y119.342 E6.85478
G1 X98.664 Y118.624 E6.93358
G1 X98.564 Y118.439 E6.95345
G1 X98.19 Y117.689 E7.03265
G1 X98.106 Y117.506 E7.05168
G1 X97.784 Y116.734 E7.13072
G1 X97.707 Y116.528 E7.15151
G1 X97.444 Y115.737 E7.23028
G1 X97.384 Y115.531 E7.25056
G1 X97.178 Y114.721 E7.32954
G1 X97.133 Y114.517 E7.34928
G1 X96.984 Y113.693 E7.42841
G1 X96.954 Y113.481 E7.44864
G1 X96.865 Y112.651 E7.52753
G1 X96.85 Y112.441 E7.54742
G1 X96.82 Y111.608 E7.62619
G1 X96.82 Y111.394 E7.64642
G1 X96.85 Y110.559 E7.72537
G1 X96.865 Y110.349 E7.74527
G1 X96.954 Y109.519 E7.82415
G1 X96.984 Y109.31 E7.84411
G1 X97.132 Y108.486 E7.92322
G1 X97.178 Y108.275 E7.94363
G1 X97.385 Y107.465 E8.02263
G1 X97.444 Y107.263 E8.04252
G1 X97.707 Y106.472 E8.12129
G1 X97.784 Y106.266 E8.14208
G1 X98.106 Y105.494 E8.22112
G1 X98.19 Y105.311 E8.24015
G1 X98.564 Y104.561 E8.31935
G1 X98.664 Y104.376 E8.33922
G1 X99.088 Y103.658 E8.41802
G1 X99.211 Y103.468 E8.43941
G1 X99.69 Y102.782 E8.51848
G1 X99.813 Y102.618 E8.53785
G1 X100.337 Y101.968 E8.61675
G1 X100.474 Y101.809 E8.63658
G1 X101.043 Y101.197 E8.71555
G0 F4320 X101.3 Y101.436
G1 F2700 X101.435 Y101.301 E8.73359
G1 X102.047 Y100.732 E8.81256
G1 X102.183 Y100.613 E8.82964
G1 X102.833 Y100.087 E8.90866
G1 X102.985 Y99.973 E8.92661
G1 X103.671 Y99.496 E9.00557
G1 X103.834 Y99.391 E9.02389
G1 X104.553 Y98.966 E9.10282
G1 X104.718 Y98.877 E9.12054
G1 X105.468 Y98.503 E9.19973
G1 X105.629 Y98.429 E9.21648
G1 X106.399 Y98.108 E9.29531
G1 X106.58 Y98.04 E9.31359
G1 X107.373 Y97.776 E9.39257
G1 X107.555 Y97.723 E9.41048
G1 X108.365 Y97.517 E9.48946
G1 X108.545 Y97.478 E9.50687
G1 X109.369 Y97.329 E9.586
G1 X109.556 Y97.302 E9.60385
G1 X110.386 Y97.213 E9.68274
G1 X110.572 Y97.2 E9.70036
G1 X111.406 Y97.17 E9.77922
G1 X111.594 Y97.17 E9.79699
G1 X112.428 Y97.2 E9.87585
G1 X112.614 Y97.213 E9.89347
G1 X113.444 Y97.302 E9.97236
G1 X113.628 Y97.328 E9.98992
G1 X114.452 Y97.476 E10.06903
G1 X114.638 Y97.517 E10.08703
G1 X115.448 Y97.724 E10.16603
G1 X115.627 Y97.776 E10.18365
G1 X116.42 Y98.04 E10.26263
G1 X116.601 Y98.108 E10.2809
G1 X117.371 Y98.429 E10.35974
G1 X117.532 Y98.503 E10.37648
G1 X118.282 Y98.877 E10.45568
G1 X118.447 Y98.966 E10.4734
G1 X119.166 Y99.391 E10.55233
G1 X119.332 Y99.498 E10.57099
G1 X120.017 Y99.976 E10.64992
G1 X120.162 Y100.085 E10.66707
G1 X120.812 Y100.609 E10.74596
G1 X120.952 Y100.731 E10.76351
G1 X121.564 Y101.3 E10.84248
G1 X121.699 Y101.435 E10.86052
G1 X122.268 Y102.047 E10.93949
G1 X122.387 Y102.183 E10.95657
G1 X122.913 Y102.833 E11.03559
G1 X123.027 Y102.985 E11.05354
G1 X123.504 Y103.671 E11.1325
G1 X123.609 Y103.834 E11.15082
G1 X124.034 Y104.553 E11.22975
G1 X124.122 Y104.716 E11.24726
G1 X124.496 Y105.465 E11.32637
G1 X124.571 Y105.629 E11.34341
G1 X124.892 Y106.4 E11.42233
G1 X124.959 Y106.579 E11.4404
G1 X125.223 Y107.371 E11.51929
G1 X125.277 Y107.555 E11.53741
G1 X125.483 Y108.366 E11.61648
G1 X125.522 Y108.544 E11.6337
G1 X125.671 Y109.366 E11.71265
G1 X125.698 Y109.554 E11.7306
G1 X125.787 Y110.385 E11.80957
G1 X125.8 Y110.571 E11.82719
G1 X125.83 Y111.405 E11.90606
G1 X125.83 Y111.593 E11.92382
G1 X125.8 Y112.428 E12.00278
G1 X125.787 Y112.614 E12.0204
G1 X125.698 Y113.444 E12.09929
G1 X125.672 Y113.628 E12.11685
G1 X125.524 Y114.452 E12.19596
G1 X125.483 Y114.638 E12.21396
G1 X125.276 Y115.448 E12.29297
G1 X125.224 Y115.626 E12.31049
G1 X124.961 Y116.417 E12.38926
G1 X124.893 Y116.6 E12.40771
G1 X124.571 Y117.372 E12.48676
G1 X124.497 Y117.532 E12.50342
G1 X124.123 Y118.282 E12.58261
G1 X124.034 Y118.446 E12.60025
G1 X123.61 Y119.164 E12.67905
G1 X123.502 Y119.332 E12.69792
G1 X123.023 Y120.018 E12.77699
G1 X122.915 Y120.162 E12.794
G1 X122.391 Y120.812 E12.8729
G1 X122.269 Y120.952 E12.89044
G1 X121.7 Y121.564 E12.96941
G1 X121.565 Y121.699 E12.98745
G1 X120.953 Y122.268 E13.06642
G1 X120.817 Y122.387 E13.0835
G1 X120.167 Y122.913 E13.16252
G1 X120.015 Y123.027 E13.18047
G1 X119.329 Y123.504 E13.25943
G1 X119.166 Y123.609 E13.27775
G1 X118.447 Y124.034 E13.35668
G1 X118.282 Y124.123 E13.3744
G1 X117.532 Y124.497 E13.4536
G1 X117.371 Y124.571 E13.47034
G1 X116.601 Y124.892 E13.54918
G1 X116.42 Y124.96 E13.56745
G1 X115.627 Y125.224 E13.64643
G1 X115.445 Y125.277 E13.66434
G1 X114.635 Y125.483 E13.74333
G1 X114.455 Y125.522 E13.76073
G1 X113.631 Y125.671 E13.83986
G1 X113.444 Y125.698 E13.85772
G1 X112.614 Y125.787 E13.9366
G1 X112.428 Y125.8 E13.95422
G1 X111.594 Y125.83 E14.03308
G1 X111.406 Y125.83 E14.05085
G1 X110.572 Y125.8 E14.12971
G1 X110.386 Y125.787 E14.14733
G1 X109.556 Y125.698 E14.22622
G1 X109.372 Y125.672 E14.24378
G1 X108.548 Y125.524 E14.32289
G1 X108.362 Y125.483 E14.34089
G1 X107.552 Y125.276 E14.4199
G1 X107.373 Y125.224 E14.43751
G1 X106.58 Y124.96 E14.51649
G1 X106.399 Y124.892 E14.53477
G1 X105.629 Y124.571 E14.6136
G1 X105.468 Y124.497 E14.63035
G1 X104.718 Y124.123 E14.70954
G1 X104.553 Y124.034 E14.72726
G1 X103.834 Y123.609 E14.80619
G1 X103.668 Y123.502 E14.82485
G1 X102.983 Y123.024 E14.90379
G1 X102.837 Y122.914 E14.92106
G1 X102.186 Y122.389 E15.00009
G1 X102.047 Y122.268 E15.01751
G1 X101.435 Y121.699 E15.09648
G1 X101.3 Y121.564 E15.11452
G1 X100.731 Y120.952 E15.19349
G1 X100.612 Y120.816 E15.21056
G1 X100.087 Y120.167 E15.28945
G1 X99.973 Y120.015 E15.3074
G1 X99.495 Y119.328 E15.38649
G1 X99.39 Y119.164 E15.4049
G1 X98.966 Y118.446 E15.4837
G1 X98.877 Y118.282 E15.50133
G1 X98.503 Y117.532 E15.58053
G1 X98.429 Y117.372 E15.59719
G1 X98.107 Y116.6 E15.67623
G1 X98.039 Y116.417 E15.69468
G1 X97.776 Y115.626 E15.77345
G1 X97.723 Y115.445 E15.79128
G1 X97.517 Y114.635 E15.87026
G1 X97.478 Y114.455 E15.88766
G1 X97.329 Y113.631 E15.96679
G1 X97.302 Y113.444 E15.98465
G1 X97.213 Y112.614 E16.06353
G1 X97.2 Y112.428 E16.08115
G1 X97.17 Y111.595 E16.15992
G1 X97.17 Y111.407 E16.17769
G1 X97.2 Y110.572 E16.25665
G1 X97.213 Y110.386 E16.27427
G1 X97.302 Y109.556 E16.35315
G1 X97.328 Y109.372 E16.37071
G1 X97.476 Y108.548 E16.44983
G1 X97.517 Y108.362 E16.46782
G1 X97.724 Y107.552 E16.54683
G1 X97.776 Y107.374 E16.56435
G1 X98.039 Y106.583 E16.64313
G1 X98.107 Y106.4 E16.66158
G1 X98.429 Y105.628 E16.74062
G1 X98.503 Y105.468 E16.75728
G1 X98.877 Y104.718 E16.83648
G1 X98.966 Y104.554 E16.85411
G1 X99.39 Y103.836 E16.93291
G1 X99.498 Y103.668 E16.95178
G1 X99.977 Y102.982 E17.03085
G1 X100.085 Y102.838 E17.04786
G1 X100.609 Y102.188 E17.12676
G1 X100.731 Y102.048 E17.14431
G1 X101.3 Y101.436 E17.22328
G0 F4320 X101.556 Y101.674
G1 F2700 X101.673 Y101.557 E17.23891
G1 X102.285 Y100.988 E17.31788
G1 X102.403 Y100.886 E17.33262
G1 X103.053 Y100.36 E17.41164
G1 X103.185 Y100.26 E17.42729
G1 X103.871 Y99.783 E17.50625
G1 X104.012 Y99.693 E17.52205
G1 X104.731 Y99.268 E17.60098
G1 X104.874 Y99.19 E17.61637
G1 X105.624 Y98.816 E17.69557
G1 X105.764 Y98.752 E17.71012
G1 X106.534 Y98.431 E17.78895
G1 X106.69 Y98.372 E17.80472
G1 X107.483 Y98.108 E17.8837
G1 X107.641 Y98.062 E17.89925
G1 X108.451 Y97.856 E17.97823
G1 X108.607 Y97.822 E17.99332
G1 X109.431 Y97.673 E18.07245
G1 X109.593 Y97.65 E18.08791
G1 X110.423 Y97.561 E18.1668
G1 X110.584 Y97.549 E18.18205
G1 X111.418 Y97.519 E18.26092
G1 X111.582 Y97.519 E18.27641
G1 X112.416 Y97.549 E18.35528
G1 X112.577 Y97.561 E18.37054
G1 X113.407 Y97.65 E18.44942
G1 X113.566 Y97.673 E18.4646
G1 X114.39 Y97.821 E18.54372
G1 X114.551 Y97.856 E18.55929
G1 X115.361 Y98.063 E18.63829
G1 X115.517 Y98.108 E18.65363
G1 X116.31 Y98.372 E18.73262
G1 X116.466 Y98.431 E18.74838
G1 X117.236 Y98.752 E18.82721
G1 X117.376 Y98.816 E18.84176
G1 X118.126 Y99.19 E18.92096
G1 X118.269 Y99.268 E18.93635
G1 X118.988 Y99.693 E19.01528
G1 X119.132 Y99.785 E19.03143
G1 X119.817 Y100.263 E19.11036
G1 X119.943 Y100.358 E19.12527
G1 X120.593 Y100.882 E19.20417
G1 X120.714 Y100.987 E19.21931
G1 X121.326 Y101.556 E19.29828
G1 X121.443 Y101.673 E19.31392
G1 X122.012 Y102.285 E19.39289
G1 X122.114 Y102.403 E19.40763
G1 X122.64 Y103.053 E19.48664
G1 X122.74 Y103.185 E19.50229
G1 X123.217 Y103.871 E19.58125
G1 X123.307 Y104.012 E19.59706
G1 X123.732 Y104.731 E19.67599
G1 X123.809 Y104.873 E19.69125
G1 X124.183 Y105.622 E19.77037
G1 X124.248 Y105.764 E19.78512
G1 X124.569 Y106.535 E19.86405
G1 X124.627 Y106.69 E19.87968
G1 X124.891 Y107.482 E19.95858
G1 X124.938 Y107.641 E19.97425
G1 X125.144 Y108.452 E20.05332
G1 X125.178 Y108.606 E20.06822
G1 X125.327 Y109.428 E20.14717
G1 X125.35 Y109.592 E20.16282
G1 X125.439 Y110.423 E20.2418
G1 X125.451 Y110.583 E20.25696
G1 X125.481 Y111.417 E20.33582
G1 X125.481 Y111.581 E20.35132
G1 X125.451 Y112.416 E20.43028
G1 X125.439 Y112.577 E20.44553
G1 X125.35 Y113.407 E20.52442
G1 X125.327 Y113.566 E20.5396
G1 X125.179 Y114.39 E20.61872
G1 X125.144 Y114.551 E20.63429
G1 X124.937 Y115.361 E20.71329
G1 X124.892 Y115.516 E20.72854
G1 X124.629 Y116.307 E20.80732
G1 X124.57 Y116.465 E20.82325
G1 X124.248 Y117.237 E20.9023
G1 X124.184 Y117.376 E20.91676
G1 X123.81 Y118.126 E20.99596
G1 X123.733 Y118.268 E21.01122
G1 X123.309 Y118.986 E21.09002
G1 X123.215 Y119.131 E21.10635
G1 X122.736 Y119.817 E21.18542
G1 X122.642 Y119.943 E21.20027
G1 X122.118 Y120.593 E21.27917
G1 X122.013 Y120.714 E21.29431
G1 X121.444 Y121.326 E21.37328
G1 X121.327 Y121.443 E21.38892
G1 X120.715 Y122.012 E21.46789
G1 X120.597 Y122.114 E21.48263
G1 X119.947 Y122.64 E21.56164
G1 X119.815 Y122.74 E21.57729
G1 X119.129 Y123.217 E21.65625
G1 X118.988 Y123.307 E21.67206
G1 X118.269 Y123.732 E21.75099
G1 X118.126 Y123.81 E21.76638
G1 X117.376 Y124.184 E21.84558
G1 X117.236 Y124.248 E21.86012
G1 X116.466 Y124.569 E21.93896
G1 X116.31 Y124.628 E21.95472
G1 X115.517 Y124.892 E22.0337
G1 X115.359 Y124.938 E22.04925
G1 X114.549 Y125.144 E22.12824
G1 X114.393 Y125.178 E22.14332
G1 X113.569 Y125.327 E22.22245
G1 X113.407 Y125.35 E22.23792
G1 X112.577 Y125.439 E22.3168
G1 X112.416 Y125.451 E22.33206
G1 X111.582 Y125.481 E22.41092
G1 X111.418 Y125.481 E22.42642
G1 X110.584 Y125.451 E22.50528
G1 X110.423 Y125.439 E22.52054
G1 X109.593 Y125.35 E22.59943
G1 X109.434 Y125.327 E22.61461
G1 X108.61 Y125.179 E22.69372
G1 X108.449 Y125.144 E22.70929
G1 X107.639 Y124.937 E22.7883
G1 X107.483 Y124.892 E22.80364
G1 X106.69 Y124.628 E22.88262
G1 X106.534 Y124.569 E22.89838
G1 X105.764 Y124.248 E22.97722
G1 X105.624 Y124.184 E22.99176
G1 X104.874 Y123.81 E23.07096
G1 X104.731 Y123.732 E23.08636
G1 X104.012 Y123.307 E23.16528
G1 X103.868 Y123.215 E23.18143
G1 X103.183 Y122.737 E23.26037
G1 X103.057 Y122.642 E23.27528
G1 X102.406 Y122.117 E23.35431
G1 X102.285 Y122.012 E23.36945
G1 X101.673 Y121.443 E23.44842
G1 X101.556 Y121.326 E23.46406
G1 X100.987 Y120.714 E23.54302
G1 X100.884 Y120.596 E23.55783
G1 X100.359 Y119.947 E23.63671
G1 X100.261 Y119.815 E23.65225
G1 X99.783 Y119.128 E23.73134
G1 X99.691 Y118.986 E23.74733
G1 X99.267 Y118.268 E23.82612
G1 X99.19 Y118.126 E23.84139
G1 X98.816 Y117.376 E23.92059
G1 X98.752 Y117.237 E23.93505
G1 X98.43 Y116.465 E24.01409
G1 X98.371 Y116.307 E24.03003
G1 X98.108 Y115.516 E24.1088
G1 X98.062 Y115.359 E24.12426
G1 X97.856 Y114.549 E24.20325
G1 X97.822 Y114.393 E24.21833
G1 X97.673 Y113.569 E24.29747
G1 X97.65 Y113.407 E24.31293
G1 X97.561 Y112.577 E24.39181
G1 X97.549 Y112.416 E24.40707
G1 X97.519 Y111.583 E24.48584
G1 X97.519 Y111.419 E24.50134
G1 X97.549 Y110.584 E24.5803
G1 X97.561 Y110.423 E24.59555
G1 X97.65 Y109.593 E24.67444
G1 X97.673 Y109.434 E24.68962
G1 X97.821 Y108.61 E24.76873
G1 X97.856 Y108.449 E24.7843
G1 X98.063 Y107.639 E24.86331
G1 X98.108 Y107.484 E24.87856
G1 X98.371 Y106.693 E24.95733
G1 X98.43 Y106.535 E24.97327
G1 X98.752 Y105.763 E25.05232
G1 X98.816 Y105.624 E25.06678
G1 X99.19 Y104.874 E25.14598
G1 X99.267 Y104.732 E25.16124
