;FLAVOR:UltiGCode
;TIME:907
;MATERIAL:2772
;MATERIAL2:0
;NOZZLE_DIAMETER:0.4
;MINX:36.692
;MINY:108.976
;MINZ:0.27
;MAXX:186.308
;MAXY:132.1
;MAXZ:0.87
;Generated with Cura_SteamEngine 4.8.0
M82 ;absolute extrusion mode
G0 F3000 Y50 ;avoid prime blob
G92 E0
G92 E0
G10
;LAYER_COUNT:4
;LAYER:0
M107
;MESH:SpoilerPieceV1.stl
G0 F4447.1 X41.643 Y113.251 Z0.27
;TYPE:WALL-INNER
G11
G1 F2520 X41.643 Y126.489 E1.25099
G1 X46.693 Y126.489 E1.72822
G1 X46.693 Y113.251 E2.97921
G1 X41.643 Y113.251 E3.45643
G0 F4447.1 X41.573 Y113.181
G0 X51.103 Y113.181
G0 X51.115 Y114.497
G0 X77.721 Y114.497
G0 X141.573 Y113.181
G0 X141.643 Y113.251
G1 F2520 X141.643 Y126.489 E4.70742
G1 X146.693 Y126.489 E5.18465
G1 X146.693 Y113.251 E6.43564
G1 X141.643 Y113.251 E6.91286
G0 F4447.1 X141.573 Y113.181
G0 X146.721 Y113.223
G0 X151.073 Y114.539
G0 X151.143 Y114.469
G1 F2520 X177.693 Y114.469 E9.42184
G1 X177.693 Y109.301 E9.91021
G1 X185.983 Y109.301 E10.69362
G1 X185.983 Y131.775 E12.81741
G1 X37.017 Y131.775 E26.8947
G1 X37.017 Y109.301 E29.01849
G1 X46.643 Y109.301 E29.92815
G1 X46.643 Y110.126 E30.00611
G1 X51.143 Y110.127 E30.43136
G1 X51.143 Y114.469 E30.84168
G1 X77.693 Y114.469 E33.35066
G1 X77.693 Y109.301 E33.83903
G1 X146.643 Y109.301 E40.35481
G1 X146.643 Y110.002 E40.42105
G1 X147.135 Y110.126 E40.469
G1 X151.143 Y110.127 E40.84776
G1 X151.143 Y114.469 E41.25807
G0 F4447.1 X151.468 Y114.144
;TYPE:WALL-OUTER
G1 F2520 X177.368 Y114.144 E43.70562
G1 X177.368 Y108.976 E44.194
G1 X186.308 Y108.976 E45.03883
G1 X186.308 Y132.1 E47.22405
G1 X36.692 Y132.1 E61.36276
G1 X36.692 Y108.976 E63.54798
G1 X46.968 Y108.976 E64.51906
G1 X46.968 Y109.801 E64.59702
G1 X51.468 Y109.802 E65.02227
G1 X51.468 Y114.144 E65.43259
G1 X77.368 Y114.144 E67.88014
G1 X77.368 Y108.976 E68.36852
G1 X146.968 Y108.976 E74.94572
G1 X146.968 Y109.749 E75.01877
G1 X147.175 Y109.801 E75.03894
G1 X151.468 Y109.802 E75.44462
G1 X151.468 Y114.144 E75.85494
G0 F4447.1 X151.668 Y114.144
G0 X151.668 Y114.569
G0 X146.729 Y113.727
G0 X141.968 Y113.151
G0 X141.968 Y113.576
G1 F2520 X141.968 Y126.164 E77.04451
G1 X146.368 Y126.164 E77.46031
G1 X146.368 Y113.576 E78.64988
G1 X141.968 Y113.576 E79.06568
G0 F4447.1 X141.968 Y113.776
G0 X141.543 Y113.776
G0 X77.721 Y114.497
G0 X51.115 Y114.497
G0 X51.104 Y113.336
G0 X41.968 Y113.151
G0 X41.968 Y113.576
G1 F2520 X41.968 Y126.164 E80.25524
G1 X46.368 Y126.164 E80.67104
G1 X46.368 Y113.576 E81.86061
G1 X41.968 Y113.576 E82.27641
G0 F4447.1 X41.968 Y113.776
G0 X41.543 Y113.776
G0 X41.303 Y112.911
;TYPE:SKIN
G1 F2520 X41.303 Y126.829 E83.59166
G1 X47.033 Y126.829 E84.13314
G1 X47.033 Y112.911 E85.44839
G1 X41.303 Y112.911 E85.98988
G0 F4447.1 X46.303 Y110.466
G1 F2520 X50.803 Y110.467 E86.41513
G1 X50.803 Y114.809 E86.82545
G1 X78.033 Y114.809 E89.39868
G1 X78.033 Y109.641 E89.88706
G1 X146.303 Y109.641 E96.33857
G1 X146.303 Y110.266 E96.39764
G1 X147.092 Y110.466 E96.47456
G1 X150.803 Y110.467 E96.82525
G1 X150.803 Y114.809 E97.23556
G1 X178.033 Y114.809 E99.8088
G1 X178.033 Y109.641 E100.29718
G1 X185.643 Y109.641 E101.01632
G1 X185.643 Y131.435 E103.07585
G1 X37.357 Y131.435 E117.08888
G1 X37.357 Y109.641 E119.14841
G1 X46.303 Y109.641 E119.99381
G1 X46.303 Y110.466 E120.07177
G0 F4447.1 X51.115 Y114.497
G0 X77.721 Y114.497
G0 X141.303 Y112.911
G1 F2520 X141.303 Y126.829 E121.38702
G1 X147.033 Y126.829 E121.92851
G1 X147.033 Y112.911 E123.24376
G1 X141.303 Y112.911 E123.78524
G0 F4447.1 X151.109 Y113.263
G0 X151.115 Y114.497
G0 X177.721 Y114.497
G0 X185.485 Y110.249
G1 F2520 X185.034 Y109.798 E123.84552
G0 F4447.1 X184.539 Y109.798
G1 F2520 X185.485 Y110.744 E123.97194
G0 F4447.1 X185.485 Y111.239
G1 F2520 X184.044 Y109.798 E124.16452
G0 F4447.1 X183.549 Y109.798
G1 F2520 X185.485 Y111.734 E124.42326
G0 F4447.1 X185.485 Y112.229
G1 F2520 X183.054 Y109.798 E124.74814
G0 F4447.1 X182.559 Y109.798
G1 F2520 X185.485 Y112.724 E125.13918
G0 F4447.1 X185.485 Y113.219
G1 F2520 X182.064 Y109.798 E125.59638
G0 F4447.1 X181.569 Y109.798
G1 F2520 X185.485 Y113.714 E126.11972
G0 F4447.1 X185.485 Y114.209
G1 F2520 X181.074 Y109.798 E126.70922
G0 F4447.1 X180.579 Y109.798
G1 F2520 X185.485 Y114.704 E127.36488
G0 F4447.1 X185.485 Y115.199
G1 F2520 X180.084 Y109.798 E128.08668
G0 F4447.1 X179.589 Y109.798
G1 F2520 X185.485 Y115.693 E128.87458
G0 F4447.1 X185.485 Y116.188
G1 F2520 X179.094 Y109.798 E129.72862
G0 F4447.1 X178.599 Y109.798
G1 F2520 X185.485 Y116.683 E130.64882
G0 F4447.1 X185.485 Y117.178
G1 F2520 X178.189 Y109.882 E131.62389
G0 F4447.1 X178.189 Y110.377
G1 F2520 X185.485 Y117.673 E132.59895
G0 F4447.1 X185.485 Y118.168
G1 F2520 X178.189 Y110.872 E133.57401
G0 F4447.1 X178.189 Y111.367
G1 F2520 X185.485 Y118.663 E134.54907
G0 F4447.1 X185.485 Y119.158
G1 F2520 X178.189 Y111.862 E135.52413
G0 F4447.1 X178.189 Y112.357
G1 F2520 X185.485 Y119.653 E136.49919
G0 F4447.1 X185.485 Y120.148
G1 F2520 X178.189 Y112.852 E137.47425
G0 F4447.1 X178.189 Y113.347
G1 F2520 X185.485 Y120.643 E138.44931
G0 F4447.1 X185.485 Y121.138
G1 F2520 X178.189 Y113.842 E139.42437
G0 F4447.1 X178.189 Y114.337
G1 F2520 X185.485 Y121.633 E140.39943
G0 F4447.1 X185.485 Y122.128
G1 F2520 X178.189 Y114.832 E141.37449
G0 F4447.1 X177.828 Y114.966
G1 F2520 X185.485 Y122.623 E142.3978
G0 F4447.1 X185.485 Y123.118
G1 F2520 X177.333 Y114.966 E143.48726
G0 F4447.1 X176.838 Y114.966
G1 F2520 X185.485 Y123.613 E144.64287
G0 F4447.1 X185.485 Y124.108
G1 F2520 X176.343 Y114.966 E145.86464
G0 F4447.1 X175.848 Y114.966
G1 F2520 X185.485 Y124.603 E147.15255
G0 F4447.1 X185.485 Y125.098
G1 F2520 X175.353 Y114.966 E148.50663
G0 F4447.1 X174.858 Y114.966
G1 F2520 X185.485 Y125.593 E149.92685
G0 F4447.1 X185.485 Y126.088
G1 F2520 X174.363 Y114.966 E151.41323
G0 F4447.1 X173.868 Y114.966
G1 F2520 X185.485 Y126.583 E152.96577
G0 F4447.1 X185.485 Y127.078
G1 F2520 X173.373 Y114.966 E154.58445
G0 F4447.1 X172.878 Y114.966
G1 F2520 X185.485 Y127.573 E156.26929
G0 F4447.1 X185.485 Y128.068
G1 F2520 X172.383 Y114.966 E158.02028
G0 F4447.1 X171.888 Y114.966
G1 F2520 X185.485 Y128.563 E159.83743
G0 F4447.1 X185.485 Y129.058
G1 F2520 X171.393 Y114.966 E161.72073
G0 F4447.1 X170.898 Y114.966
G1 F2520 X185.485 Y129.553 E163.67018
G0 F4447.1 X185.485 Y130.048
G1 F2520 X170.403 Y114.966 E165.68579
G0 F4447.1 X169.908 Y114.966
G1 F2520 X185.485 Y130.543 E167.76755
G0 F4447.1 X185.485 Y131.038
G1 F2520 X169.413 Y114.966 E169.91546
G0 F4447.1 X168.918 Y114.966
G1 F2520 X185.229 Y131.277 E172.09532
G0 F4447.1 X184.734 Y131.277
G1 F2520 X168.423 Y114.966 E174.27517
G0 F4447.1 X167.928 Y114.966
G1 F2520 X184.239 Y131.277 E176.45503
G0 F4447.1 X183.744 Y131.277
G1 F2520 X167.433 Y114.966 E178.63488
G0 F4447.1 X166.938 Y114.966
G1 F2520 X183.249 Y131.277 E180.81473
G0 F4447.1 X182.754 Y131.277
G1 F2520 X166.443 Y114.966 E182.99459
G0 F4447.1 X165.948 Y114.966
G1 F2520 X182.259 Y131.277 E185.17444
G0 F4447.1 X181.764 Y131.277
G1 F2520 X165.453 Y114.966 E187.35429
G0 F4447.1 X164.958 Y114.966
G1 F2520 X181.269 Y131.277 E189.53415
G0 F4447.1 X180.774 Y131.277
G1 F2520 X164.463 Y114.966 E191.714
G0 F4447.1 X163.968 Y114.966
G1 F2520 X180.279 Y131.277 E193.89386
G0 F4447.1 X179.784 Y131.277
G1 F2520 X163.473 Y114.966 E196.07371
G0 F4447.1 X162.978 Y114.966
G1 F2520 X179.289 Y131.277 E198.25356
G0 F4447.1 X178.794 Y131.277
G1 F2520 X162.483 Y114.966 E200.43342
G0 F4447.1 X161.988 Y114.966
G1 F2520 X178.299 Y131.277 E202.61327
G0 F4447.1 X177.804 Y131.277
G1 F2520 X161.493 Y114.966 E204.79313
G0 F4447.1 X160.999 Y114.966
G1 F2520 X177.309 Y131.277 E206.97291
G0 F4447.1 X176.814 Y131.277
G1 F2520 X160.504 Y114.966 E209.1527
G0 F4447.1 X160.009 Y114.966
G1 F2520 X176.319 Y131.277 E211.33249
G0 F4447.1 X175.824 Y131.277
G1 F2520 X159.514 Y114.966 E213.51227
G0 F4447.1 X159.019 Y114.966
G1 F2520 X175.329 Y131.277 E215.69206
G0 F4447.1 X174.834 Y131.277
G1 F2520 X158.524 Y114.966 E217.87185
G0 F4447.1 X158.029 Y114.966
G1 F2520 X174.34 Y131.277 E220.0517
G0 F4447.1 X173.845 Y131.277
G1 F2520 X157.534 Y114.966 E222.23156
G0 F4447.1 X157.039 Y114.966
G1 F2520 X173.35 Y131.277 E224.41141
G0 F4447.1 X172.855 Y131.277
G1 F2520 X156.544 Y114.966 E226.59126
G0 F4447.1 X156.049 Y114.966
G1 F2520 X172.36 Y131.277 E228.77112
G0 F4447.1 X171.865 Y131.277
G1 F2520 X155.554 Y114.966 E230.95097
G0 F4447.1 X155.059 Y114.966
G1 F2520 X171.37 Y131.277 E233.13083
G0 F4447.1 X170.875 Y131.277
G1 F2520 X154.564 Y114.966 E235.31068
G0 F4447.1 X154.069 Y114.966
G1 F2520 X170.38 Y131.277 E237.49053
G0 F4447.1 X169.885 Y131.277
G1 F2520 X153.574 Y114.966 E239.67039
G0 F4447.1 X153.079 Y114.966
G1 F2520 X169.39 Y131.277 E241.85024
G0 F4447.1 X168.895 Y131.277
G1 F2520 X152.584 Y114.966 E244.0301
G0 F4447.1 X152.089 Y114.966
G1 F2520 X168.4 Y131.277 E246.20995
G0 F4447.1 X167.905 Y131.277
G1 F2520 X151.594 Y114.966 E248.3898
G0 F4447.1 X151.099 Y114.966
G1 F2520 X167.41 Y131.277 E250.56966
G0 F4447.1 X166.915 Y131.277
G1 F2520 X145.436 Y109.798 E253.44018
G0 F4447.1 X145.931 Y109.798
G1 F2520 X146.145 Y110.012 E253.46878
G0 F4447.1 X146.65 Y110.517
G1 F2520 X150.645 Y114.512 E254.00268
G0 F4447.1 X150.645 Y114.017
G1 F2520 X147.252 Y110.624 E254.45614
G0 F4447.1 X147.747 Y110.624
G1 F2520 X150.645 Y113.522 E254.84343
G0 F4447.1 X150.645 Y113.027
G1 F2520 X148.242 Y110.624 E255.16458
G0 F4447.1 X148.737 Y110.624
G1 F2520 X150.645 Y112.532 E255.41957
G0 F4447.1 X150.645 Y112.037
G1 F2520 X149.232 Y110.624 E255.60841
G0 F4447.1 X149.727 Y110.624
G1 F2520 X150.645 Y111.542 E255.73109
G0 F4447.1 X150.645 Y111.047
G1 F2520 X150.222 Y110.624 E255.78762
G0 F4447.1 X147.189 Y113.035
G1 F2520 X165.43 Y131.277 E258.22547
G0 F4447.1 X165.925 Y131.277
G1 F2520 X144.446 Y109.798 E261.096
G0 F4447.1 X143.951 Y109.798
G1 F2520 X146.907 Y112.753 E261.49098
G0 F4447.1 X146.412 Y112.753
G1 F2520 X143.456 Y109.798 E261.88596
G0 F4447.1 X142.961 Y109.798
G1 F2520 X145.917 Y112.753 E262.28094
G0 F4447.1 X145.422 Y112.753
G1 F2520 X142.466 Y109.798 E262.67593
G0 F4447.1 X141.971 Y109.798
G1 F2520 X144.927 Y112.753 E263.07091
G0 F4447.1 X144.432 Y112.753
G1 F2520 X141.476 Y109.798 E263.46589
G0 F4447.1 X140.981 Y109.798
G1 F2520 X143.937 Y112.753 E263.86087
G0 F4447.1 X143.442 Y112.753
G1 F2520 X140.486 Y109.798 E264.25586
G0 F4447.1 X139.991 Y109.798
G1 F2520 X142.947 Y112.753 E264.65084
G0 F4447.1 X142.452 Y112.753
G1 F2520 X139.496 Y109.798 E265.04582
G0 F4447.1 X139.001 Y109.798
G1 F2520 X141.957 Y112.753 E265.4408
G0 F4447.1 X141.462 Y112.753
G1 F2520 X138.506 Y109.798 E265.83579
G0 F4447.1 X138.011 Y109.798
G1 F2520 X141.145 Y112.932 E266.25462
G0 F4447.1 X141.145 Y113.426
G1 F2520 X137.516 Y109.798 E266.73955
G0 F4447.1 X137.021 Y109.798
G1 F2520 X141.145 Y113.921 E267.29063
G0 F4447.1 X141.145 Y114.416
G1 F2520 X136.526 Y109.798 E267.90786
G0 F4447.1 X136.031 Y109.798
G1 F2520 X141.145 Y114.911 E268.59124
G0 F4447.1 X141.145 Y115.406
G1 F2520 X135.536 Y109.798 E269.34078
G0 F4447.1 X135.041 Y109.798
G1 F2520 X141.145 Y115.901 E270.15647
G0 F4447.1 X141.145 Y116.396
G1 F2520 X134.546 Y109.798 E271.03831
G0 F4447.1 X134.051 Y109.798
G1 F2520 X141.145 Y116.891 E271.98631
G0 F4447.1 X141.145 Y117.386
G1 F2520 X133.556 Y109.798 E273.00046
G0 F4447.1 X133.061 Y109.798
G1 F2520 X141.145 Y117.881 E274.08077
G0 F4447.1 X141.145 Y118.376
G1 F2520 X132.566 Y109.798 E275.22723
G0 F4447.1 X132.071 Y109.798
G1 F2520 X141.145 Y118.871 E276.43984
G0 F4447.1 X141.145 Y119.366
G1 F2520 X131.577 Y109.798 E277.71854
G0 F4447.1 X131.082 Y109.798
G1 F2520 X141.145 Y119.861 E279.06339
G0 F4447.1 X141.145 Y120.356
G1 F2520 X130.587 Y109.798 E280.47439
G0 F4447.1 X130.092 Y109.798
G1 F2520 X141.145 Y120.851 E281.95155
G0 F4447.1 X141.145 Y121.346
G1 F2520 X129.597 Y109.798 E283.49486
G0 F4447.1 X129.102 Y109.798
G1 F2520 X141.145 Y121.841 E285.10433
G0 F4447.1 X141.145 Y122.336
G1 F2520 X128.607 Y109.798 E286.77994
G0 F4447.1 X128.112 Y109.798
G1 F2520 X141.145 Y122.831 E288.52172
G0 F4447.1 X141.145 Y123.326
G1 F2520 X127.617 Y109.798 E290.32964
G0 F4447.1 X127.122 Y109.798
G1 F2520 X141.145 Y123.821 E292.20372
G0 F4447.1 X141.145 Y124.316
G1 F2520 X126.627 Y109.798 E294.14395
G0 F4447.1 X126.132 Y109.798
G1 F2520 X141.145 Y124.811 E296.15034
G0 F4447.1 X141.145 Y125.306
G1 F2520 X125.637 Y109.798 E298.22287
G0 F4447.1 X125.142 Y109.798
G1 F2520 X141.145 Y125.801 E300.36157
G0 F4447.1 X141.145 Y126.296
G1 F2520 X124.647 Y109.798 E302.56641
G0 F4447.1 X124.152 Y109.798
G1 F2520 X141.145 Y126.791 E304.83741
G0 F4447.1 X141.34 Y126.985
G1 F2520 X145.631 Y131.277 E305.41094
G0 F4447.1 X146.126 Y131.277
G1 F2520 X141.835 Y126.985 E305.98447
G0 F4447.1 X142.329 Y126.985
G1 F2520 X146.621 Y131.277 E306.55807
G0 F4447.1 X147.116 Y131.277
G1 F2520 X142.824 Y126.985 E307.13166
G0 F4447.1 X143.319 Y126.985
G1 F2520 X147.611 Y131.277 E307.70526
G0 F4447.1 X148.106 Y131.277
G1 F2520 X143.814 Y126.985 E308.27886
G0 F4447.1 X144.309 Y126.985
G1 F2520 X148.601 Y131.277 E308.85245
G0 F4447.1 X149.096 Y131.277
G1 F2520 X144.804 Y126.985 E309.42605
G0 F4447.1 X145.299 Y126.985
G1 F2520 X149.591 Y131.277 E309.99965
G0 F4447.1 X150.086 Y131.277
G1 F2520 X145.794 Y126.985 E310.57324
G0 F4447.1 X146.289 Y126.985
G1 F2520 X150.581 Y131.277 E311.14684
G0 F4447.1 X151.076 Y131.277
G1 F2520 X146.784 Y126.985 E311.72043
G0 F4447.1 X147.189 Y126.895
G1 F2520 X151.571 Y131.277 E312.30606
G0 F4447.1 X152.066 Y131.277
G1 F2520 X147.189 Y126.4 E312.95784
G0 F4447.1 X147.189 Y125.905
G1 F2520 X152.561 Y131.277 E313.67577
G0 F4447.1 X153.056 Y131.277
G1 F2520 X147.189 Y125.41 E314.45985
G0 F4447.1 X147.189 Y124.915
G1 F2520 X153.551 Y131.277 E315.31009
G0 F4447.1 X154.046 Y131.277
G1 F2520 X147.189 Y124.42 E316.22648
G0 F4447.1 X147.189 Y123.925
G1 F2520 X154.541 Y131.277 E317.20903
G0 F4447.1 X155.035 Y131.277
G1 F2520 X147.189 Y123.43 E318.25766
G0 F4447.1 X147.189 Y122.935
G1 F2520 X155.53 Y131.277 E319.37244
G0 F4447.1 X156.025 Y131.277
G1 F2520 X147.189 Y122.44 E320.55338
G0 F4447.1 X147.189 Y121.945
G1 F2520 X156.52 Y131.277 E321.80047
G0 F4447.1 X157.015 Y131.277
G1 F2520 X147.189 Y121.45 E323.11372
G0 F4447.1 X147.189 Y120.955
G1 F2520 X157.51 Y131.277 E324.49311
G0 F4447.1 X158.005 Y131.277
G1 F2520 X147.189 Y120.46 E325.93867
G0 F4447.1 X147.189 Y119.965
G1 F2520 X158.5 Y131.277 E327.45037
G0 F4447.1 X158.995 Y131.277
G1 F2520 X147.189 Y119.47 E329.02823
G0 F4447.1 X147.189 Y118.975
G1 F2520 X159.49 Y131.277 E330.67224
G0 F4447.1 X159.985 Y131.277
G1 F2520 X147.189 Y118.48 E332.38241
G0 F4447.1 X147.189 Y117.985
G1 F2520 X160.48 Y131.277 E334.15872
G0 F4447.1 X160.975 Y131.277
G1 F2520 X147.189 Y117.49 E336.0012
G0 F4447.1 X147.189 Y116.995
G1 F2520 X161.47 Y131.277 E337.90982
G0 F4447.1 X161.965 Y131.277
G1 F2520 X147.189 Y116.5 E339.8846
G0 F4447.1 X147.189 Y116.005
G1 F2520 X162.46 Y131.277 E341.92553
G0 F4447.1 X162.955 Y131.277
G1 F2520 X147.189 Y115.51 E344.03262
G0 F4447.1 X147.189 Y115.015
G1 F2520 X163.45 Y131.277 E346.20585
G0 F4447.1 X163.945 Y131.277
G1 F2520 X147.189 Y114.52 E348.44525
G0 F4447.1 X147.189 Y114.025
G1 F2520 X164.44 Y131.277 E350.75079
G0 F4447.1 X164.935 Y131.277
G1 F2520 X147.189 Y113.53 E353.12249
G1 X147.127 Y113.468
G0 F4447.1 X144.941 Y109.798
G1 F2520 X166.42 Y131.277 E355.99301
G1 X166.482 Y131.339
G0 F4447.1 X145.136 Y131.277
G1 F2520 X123.657 Y109.798 E358.86353
G0 F4447.1 X123.162 Y109.798
G1 F2520 X144.641 Y131.277 E361.73406
G0 F4447.1 X144.146 Y131.277
G1 F2520 X122.667 Y109.798 E364.60458
G0 F4447.1 X122.172 Y109.798
G1 F2520 X143.651 Y131.277 E367.4751
G0 F4447.1 X143.156 Y131.277
G1 F2520 X121.677 Y109.798 E370.34562
G0 F4447.1 X121.182 Y109.798
G1 F2520 X142.661 Y131.277 E373.21614
G0 F4447.1 X142.166 Y131.277
G1 F2520 X120.687 Y109.798 E376.08667
G0 F4447.1 X120.192 Y109.798
G1 F2520 X141.671 Y131.277 E378.95719
G0 F4447.1 X141.176 Y131.277
G1 F2520 X119.697 Y109.798 E381.82771
G0 F4447.1 X119.202 Y109.798
G1 F2520 X140.681 Y131.277 E384.69823
G0 F4447.1 X140.186 Y131.277
G1 F2520 X118.707 Y109.798 E387.56875
G0 F4447.1 X118.212 Y109.798
G1 F2520 X139.691 Y131.277 E390.43928
G0 F4447.1 X139.196 Y131.277
G1 F2520 X117.717 Y109.798 E393.3098
