;FLAVOR:UltiGCode
;TIME:1771
;MATERIAL:1480
;MATERIAL2:0
;NOZZLE_DIAMETER:0.4
;MINX:91.923
;MINY:91.923
;MINZ:0.27
;MAXX:131.077
;MAXY:131.077
;MAXZ:17.13
;Generated with Cura_SteamEngine 4.8.0
M82 ;absolute extrusion mode
G0 F3000 Y50 ;avoid prime blob
G92 E0
G92 E0
G10
;LAYER_COUNT:288
;LAYER:0
M107
G0 F4320 X97.455 Y97.861 Z0.27
;TYPE:SKIRT
G11
G1 F2700 X97.86 Y97.456 E0.05413
G1 X98.472 Y96.887 E0.13309
G1 X98.88 Y96.532 E0.1842
G1 X99.53 Y96.006 E0.26322
G1 X99.988 Y95.662 E0.31735
G1 X100.674 Y95.185 E0.39631
G1 X101.163 Y94.872 E0.45117
G1 X101.882 Y94.447 E0.5301
G1 X102.375 Y94.179 E0.58313
G1 X103.125 Y93.805 E0.66233
G1 X103.609 Y93.583 E0.71265
G1 X104.379 Y93.262 E0.79148
G1 X104.922 Y93.059 E0.84626
G1 X105.715 Y92.795 E0.92525
G1 X106.261 Y92.635 E0.97901
G1 X107.071 Y92.429 E1.05799
G1 X107.611 Y92.312 E1.11021
G1 X108.435 Y92.163 E1.18934
G1 X108.996 Y92.082 E1.2429
G1 X109.826 Y91.993 E1.32179
G1 X110.383 Y91.953 E1.37456
G1 X111.217 Y91.923 E1.45342
G1 X111.783 Y91.923 E1.50691
G1 X112.617 Y91.953 E1.58578
G1 X113.174 Y91.993 E1.63855
G1 X114.004 Y92.082 E1.71743
G1 X114.556 Y92.161 E1.77013
G1 X115.38 Y92.309 E1.84924
G1 X115.938 Y92.43 E1.9032
G1 X116.748 Y92.637 E1.9822
G1 X117.285 Y92.795 E2.0351
G1 X118.078 Y93.059 E2.11408
G1 X118.621 Y93.262 E2.16887
G1 X119.391 Y93.583 E2.2477
G1 X119.875 Y93.805 E2.29802
G1 X120.625 Y94.179 E2.37722
G1 X121.118 Y94.447 E2.43025
G1 X121.837 Y94.872 E2.50917
G1 X122.337 Y95.193 E2.56532
G1 X123.022 Y95.671 E2.64426
G1 X123.457 Y95.998 E2.69568
G1 X124.107 Y96.522 E2.77458
G1 X124.527 Y96.886 E2.82711
G1 X125.139 Y97.455 E2.90607
G1 X125.544 Y97.86 E2.9602
G1 X126.113 Y98.472 E3.03917
G1 X126.468 Y98.88 E3.09028
G1 X126.994 Y99.53 E3.16929
G1 X127.338 Y99.988 E3.22342
G1 X127.815 Y100.674 E3.30238
G1 X128.128 Y101.163 E3.35725
G1 X128.553 Y101.882 E3.43618
G1 X128.819 Y102.371 E3.48878
G1 X129.193 Y103.12 E3.56789
G1 X129.418 Y103.611 E3.61893
G1 X129.739 Y104.382 E3.69786
G1 X129.94 Y104.919 E3.75204
G1 X130.204 Y105.711 E3.83093
G1 X130.366 Y106.262 E3.88521
G1 X130.572 Y107.073 E3.96428
G1 X130.688 Y107.607 E4.01592
G1 X130.837 Y108.429 E4.09486
G1 X130.918 Y108.995 E4.1489
G1 X131.007 Y109.826 E4.22787
G1 X131.047 Y110.382 E4.28055
G1 X131.077 Y111.216 E4.35942
G1 X131.077 Y111.782 E4.4129
G1 X131.047 Y112.617 E4.49186
G1 X131.007 Y113.174 E4.54463
G1 X130.918 Y114.004 E4.62352
G1 X130.839 Y114.556 E4.67621
G1 X130.691 Y115.38 E4.75533
G1 X130.57 Y115.938 E4.80928
G1 X130.363 Y116.748 E4.88829
G1 X130.206 Y117.283 E4.94098
G1 X129.943 Y118.074 E5.01975
G1 X129.738 Y118.621 E5.07495
G1 X129.416 Y119.393 E5.154
G1 X129.195 Y119.875 E5.20411
G1 X128.821 Y120.625 E5.28331
G1 X128.555 Y121.115 E5.336
G1 X128.131 Y121.833 E5.41479
G1 X127.807 Y122.337 E5.47141
G1 X127.328 Y123.023 E5.55048
G1 X127.002 Y123.457 E5.60178
G1 X126.478 Y124.107 E5.68067
G1 X126.114 Y124.527 E5.7332
G1 X125.545 Y125.139 E5.81216
G1 X125.14 Y125.544 E5.86629
G1 X124.528 Y126.113 E5.94526
G1 X124.12 Y126.468 E5.99637
G1 X123.47 Y126.994 E6.07538
G1 X123.012 Y127.338 E6.12951
G1 X122.326 Y127.815 E6.20847
G1 X121.837 Y128.128 E6.26334
G1 X121.118 Y128.553 E6.34227
G1 X120.625 Y128.821 E6.39529
G1 X119.875 Y129.195 E6.47449
G1 X119.391 Y129.417 E6.52481
G1 X118.621 Y129.738 E6.60365
G1 X118.078 Y129.941 E6.65843
G1 X117.285 Y130.205 E6.73741
G1 X116.739 Y130.365 E6.79118
G1 X115.929 Y130.571 E6.87016
G1 X115.389 Y130.688 E6.92237
G1 X114.565 Y130.837 E7.0015
G1 X114.004 Y130.918 E7.05507
G1 X113.174 Y131.007 E7.13395
G1 X112.617 Y131.047 E7.18673
G1 X111.783 Y131.077 E7.26559
G1 X111.217 Y131.077 E7.31908
G1 X110.383 Y131.047 E7.39794
G1 X109.826 Y131.007 E7.45071
G1 X108.996 Y130.918 E7.5296
G1 X108.444 Y130.839 E7.58229
G1 X107.62 Y130.691 E7.66141
G1 X107.062 Y130.57 E7.71536
G1 X106.252 Y130.363 E7.79437
G1 X105.715 Y130.205 E7.84727
G1 X104.922 Y129.941 E7.92625
G1 X104.379 Y129.738 E7.98103
G1 X103.609 Y129.417 E8.05986
G1 X103.125 Y129.195 E8.11018
G1 X102.375 Y128.821 E8.18938
G1 X101.882 Y128.553 E8.24241
G1 X101.163 Y128.128 E8.32134
G1 X100.663 Y127.807 E8.37749
G1 X99.978 Y127.329 E8.45642
G1 X99.541 Y127.001 E8.50806
G1 X98.89 Y126.476 E8.58709
G1 X98.472 Y126.113 E8.63941
G1 X97.86 Y125.544 E8.71837
G1 X97.455 Y125.139 E8.7725
G1 X96.886 Y124.527 E8.85147
G1 X96.53 Y124.118 E8.90271
G1 X96.005 Y123.469 E8.98159
G1 X95.664 Y123.014 E9.03533
G1 X95.186 Y122.327 E9.11442
G1 X94.869 Y121.833 E9.16989
G1 X94.445 Y121.115 E9.24868
G1 X94.179 Y120.625 E9.30137
G1 X93.805 Y119.875 E9.38057
G1 X93.584 Y119.393 E9.43068
G1 X93.262 Y118.621 E9.50972
G1 X93.057 Y118.074 E9.56493
G1 X92.794 Y117.283 E9.6437
G1 X92.635 Y116.739 E9.69726
G1 X92.429 Y115.929 E9.77624
G1 X92.312 Y115.389 E9.82845
G1 X92.163 Y114.565 E9.90759
G1 X92.082 Y114.004 E9.96115
G1 X91.993 Y113.174 E10.04003
G1 X91.953 Y112.617 E10.09281
G1 X91.923 Y111.784 E10.17158
G1 X91.923 Y111.218 E10.22506
G1 X91.953 Y110.383 E10.30402
G1 X91.993 Y109.826 E10.35679
G1 X92.082 Y108.996 E10.43568
G1 X92.161 Y108.444 E10.48837
G1 X92.309 Y107.62 E10.56749
G1 X92.43 Y107.062 E10.62144
G1 X92.637 Y106.252 E10.70045
G1 X92.794 Y105.717 E10.75314
G1 X93.057 Y104.926 E10.83191
G1 X93.262 Y104.379 E10.88711
G1 X93.584 Y103.607 E10.96616
G1 X93.805 Y103.125 E11.01627
G1 X94.179 Y102.375 E11.09547
G1 X94.445 Y101.885 E11.14815
G1 X94.869 Y101.167 E11.22695
G1 X95.193 Y100.663 E11.28357
G1 X95.672 Y99.977 E11.36264
G1 X95.998 Y99.543 E11.41393
G1 X96.522 Y98.893 E11.49283
G1 X96.886 Y98.473 E11.54536
G1 X97.455 Y97.861 E11.62432
G0 F4320 X97.711 Y98.099
G1 F2700 X98.098 Y97.712 E11.67604
G1 X98.71 Y97.143 E11.75501
G1 X99.1 Y96.804 E11.80384
G1 X99.75 Y96.278 E11.88286
G1 X100.188 Y95.95 E11.93457
G1 X100.874 Y95.473 E12.01353
G1 X101.341 Y95.173 E12.06598
G1 X102.06 Y94.748 E12.14491
G1 X102.531 Y94.492 E12.19557
G1 X103.281 Y94.118 E12.27477
G1 X103.743 Y93.906 E12.32281
G1 X104.513 Y93.585 E12.40164
G1 X105.032 Y93.391 E12.454
G1 X105.825 Y93.127 E12.53298
G1 X106.347 Y92.974 E12.58439
G1 X107.157 Y92.768 E12.66337
G1 X107.673 Y92.656 E12.71327
G1 X108.497 Y92.507 E12.7924
G1 X109.034 Y92.43 E12.84366
G1 X109.864 Y92.341 E12.92255
G1 X110.395 Y92.303 E12.97285
G1 X111.229 Y92.273 E13.05172
G1 X111.771 Y92.273 E13.10294
G1 X112.605 Y92.303 E13.1818
G1 X113.136 Y92.341 E13.23211
G1 X113.966 Y92.43 E13.31099
G1 X114.494 Y92.506 E13.3614
G1 X115.318 Y92.654 E13.44052
G1 X115.851 Y92.769 E13.49205
G1 X116.661 Y92.976 E13.57105
G1 X117.175 Y93.127 E13.62168
G1 X117.968 Y93.391 E13.70066
G1 X118.487 Y93.585 E13.75302
G1 X119.257 Y93.906 E13.83185
G1 X119.719 Y94.118 E13.87989
G1 X120.469 Y94.492 E13.95909
G1 X120.94 Y94.748 E14.00975
G1 X121.659 Y95.173 E14.08867
G1 X122.136 Y95.48 E14.14228
G1 X122.821 Y95.958 E14.22122
G1 X123.238 Y96.271 E14.27049
G1 X123.888 Y96.795 E14.34939
G1 X124.289 Y97.142 E14.3995
G1 X124.901 Y97.711 E14.47847
G1 X125.288 Y98.098 E14.53019
G1 X125.857 Y98.71 E14.60916
G1 X126.196 Y99.1 E14.65799
G1 X126.722 Y99.75 E14.73701
G1 X127.05 Y100.188 E14.78872
G1 X127.527 Y100.874 E14.86768
G1 X127.827 Y101.341 E14.92013
G1 X128.252 Y102.06 E14.99906
G1 X128.506 Y102.527 E15.04929
G1 X128.88 Y103.276 E15.12841
G1 X129.095 Y103.746 E15.17725
G1 X129.416 Y104.517 E15.25617
G1 X129.608 Y105.029 E15.30784
G1 X129.872 Y105.821 E15.38674
G1 X130.026 Y106.348 E15.43862
G1 X130.232 Y107.159 E15.51769
G1 X130.343 Y107.67 E15.56711
G1 X130.492 Y108.492 E15.64605
G1 X130.57 Y109.033 E15.69771
G1 X130.659 Y109.864 E15.77669
G1 X130.697 Y110.394 E15.8269
G1 X130.727 Y111.228 E15.90576
G1 X130.727 Y111.769 E15.95689
G1 X130.697 Y112.604 E16.03585
G1 X130.659 Y113.136 E16.08625
G1 X130.57 Y113.966 E16.16513
G1 X130.494 Y114.494 E16.21554
G1 X130.346 Y115.318 E16.29466
G1 X130.231 Y115.851 E16.34619
G1 X130.024 Y116.661 E16.42519
G1 X129.874 Y117.172 E16.47552
G1 X129.611 Y117.963 E16.55429
G1 X129.415 Y118.486 E16.60707
G1 X129.093 Y119.258 E16.68612
G1 X128.882 Y119.719 E16.73403
G1 X128.508 Y120.469 E16.81323
G1 X128.254 Y120.937 E16.86355
G1 X127.83 Y121.655 E16.94234
G1 X127.52 Y122.137 E16.9965
G1 X127.041 Y122.823 E17.07557
G1 X126.729 Y123.238 E17.12463
G1 X126.205 Y123.888 E17.20353
G1 X125.858 Y124.289 E17.25364
G1 X125.289 Y124.901 E17.33261
G1 X124.902 Y125.288 E17.38433
G1 X124.29 Y125.857 E17.4633
G1 X123.9 Y126.196 E17.51213
G1 X123.25 Y126.722 E17.59115
G1 X122.812 Y127.05 E17.64286
G1 X122.126 Y127.527 E17.72182
G1 X121.659 Y127.827 E17.77427
G1 X120.94 Y128.252 E17.8532
G1 X120.469 Y128.508 E17.90386
G1 X119.719 Y128.882 E17.98306
G1 X119.257 Y129.094 E18.03109
G1 X118.487 Y129.415 E18.10993
G1 X117.968 Y129.609 E18.16229
G1 X117.175 Y129.873 E18.24127
G1 X116.653 Y130.026 E18.29267
G1 X115.843 Y130.232 E18.37166
G1 X115.327 Y130.344 E18.42155
G1 X114.503 Y130.493 E18.50068
G1 X113.966 Y130.57 E18.55195
G1 X113.136 Y130.659 E18.63083
G1 X112.605 Y130.697 E18.68114
G1 X111.771 Y130.727 E18.76001
G1 X111.229 Y130.727 E18.81123
G1 X110.395 Y130.697 E18.89009
G1 X109.864 Y130.659 E18.9404
G1 X109.034 Y130.57 E19.01928
G1 X108.506 Y130.494 E19.06969
G1 X107.682 Y130.346 E19.14881
G1 X107.149 Y130.231 E19.20033
G1 X106.339 Y130.024 E19.27934
G1 X105.825 Y129.873 E19.32996
G1 X105.032 Y129.609 E19.40895
G1 X104.513 Y129.415 E19.46131
G1 X103.743 Y129.094 E19.54014
G1 X103.281 Y128.882 E19.58818
G1 X102.531 Y128.508 E19.66738
G1 X102.06 Y128.252 E19.71803
G1 X101.341 Y127.827 E19.79696
G1 X100.864 Y127.52 E19.85057
G1 X100.179 Y127.042 E19.9295
G1 X99.761 Y126.729 E19.97885
G1 X99.11 Y126.204 E20.05788
G1 X98.71 Y125.857 E20.10792
G1 X98.098 Y125.288 E20.18689
G1 X97.711 Y124.901 E20.23861
G1 X97.142 Y124.289 E20.31758
G1 X96.803 Y123.898 E20.36648
G1 X96.278 Y123.249 E20.44537
G1 X95.951 Y122.814 E20.4968
G1 X95.473 Y122.127 E20.57589
G1 X95.17 Y121.655 E20.62889
G1 X94.746 Y120.937 E20.70769
G1 X94.492 Y120.469 E20.75801
G1 X94.118 Y119.719 E20.83721
G1 X93.907 Y119.258 E20.88512
G1 X93.585 Y118.486 E20.96416
G1 X93.389 Y117.963 E21.01694
G1 X93.126 Y117.172 E21.09572
G1 X92.974 Y116.653 E21.14682
G1 X92.768 Y115.843 E21.2258
G1 X92.656 Y115.327 E21.2757
G1 X92.507 Y114.503 E21.35483
G1 X92.43 Y113.966 E21.4061
G1 X92.341 Y113.136 E21.48498
G1 X92.303 Y112.605 E21.53529
G1 X92.273 Y111.772 E21.61406
G1 X92.273 Y111.231 E21.66518
G1 X92.303 Y110.396 E21.74414
G1 X92.341 Y109.864 E21.79454
G1 X92.43 Y109.034 E21.87343
G1 X92.506 Y108.506 E21.92384
G1 X92.654 Y107.682 E22.00295
G1 X92.769 Y107.149 E22.05448
G1 X92.976 Y106.339 E22.13349
G1 X93.126 Y105.828 E22.18381
G1 X93.389 Y105.037 E22.26259
G1 X93.585 Y104.514 E22.31537
G1 X93.907 Y103.742 E22.39441
G1 X94.118 Y103.281 E22.44232
G1 X94.492 Y102.531 E22.52152
G1 X94.746 Y102.063 E22.57184
G1 X95.17 Y101.345 E22.65064
G1 X95.48 Y100.863 E22.7048
G1 X95.959 Y100.177 E22.78386
G1 X96.271 Y99.762 E22.83293
G1 X96.795 Y99.112 E22.91183
G1 X97.142 Y98.711 E22.96194
G1 X97.711 Y98.099 E23.04091
G0 F4320 X97.967 Y98.337
G1 F2700 X98.336 Y97.968 E23.09022
G1 X98.948 Y97.399 E23.16919
G1 X99.32 Y97.076 E23.21575
G1 X99.97 Y96.55 E23.29476
G1 X100.388 Y96.237 E23.34411
G1 X101.074 Y95.76 E23.42307
G1 X101.519 Y95.474 E23.47306
G1 X102.238 Y95.049 E23.55199
G1 X102.687 Y94.805 E23.60028
G1 X103.437 Y94.431 E23.67948
G1 X103.878 Y94.229 E23.72531
G1 X104.648 Y93.908 E23.80415
G1 X105.143 Y93.723 E23.85409
G1 X105.936 Y93.459 E23.93307
G1 X106.434 Y93.313 E23.98211
G1 X107.244 Y93.107 E24.06109
G1 X107.735 Y93.001 E24.10856
G1 X108.559 Y92.852 E24.18769
G1 X109.071 Y92.778 E24.23658
G1 X109.901 Y92.689 E24.31546
G1 X110.408 Y92.653 E24.3635
G1 X111.242 Y92.623 E24.44236
G1 X111.758 Y92.623 E24.49112
G1 X112.592 Y92.653 E24.56999
G1 X113.099 Y92.689 E24.61802
G1 X113.929 Y92.778 E24.6969
G1 X114.432 Y92.85 E24.74492
G1 X115.256 Y92.998 E24.82403
G1 X115.765 Y93.108 E24.87325
G1 X116.575 Y93.315 E24.95225
G1 X117.064 Y93.459 E25.00042
G1 X117.857 Y93.723 E25.0794
G1 X118.352 Y93.908 E25.12934
G1 X119.122 Y94.229 E25.20818
G1 X119.563 Y94.431 E25.25402
G1 X120.313 Y94.805 E25.33321
G1 X120.762 Y95.049 E25.38151
G1 X121.481 Y95.474 E25.46043
G1 X121.936 Y95.767 E25.51157
G1 X122.621 Y96.245 E25.59051
G1 X123.018 Y96.543 E25.63742
G1 X123.668 Y97.067 E25.71632
G1 X124.051 Y97.398 E25.76416
G1 X124.663 Y97.967 E25.84312
G1 X125.032 Y98.336 E25.89244
G1 X125.601 Y98.948 E25.97141
G1 X125.924 Y99.32 E26.01796
G1 X126.45 Y99.97 E26.09698
G1 X126.763 Y100.388 E26.14633
G1 X127.24 Y101.074 E26.22529
G1 X127.526 Y101.519 E26.27528
G1 X127.951 Y102.238 E26.3542
G1 X128.193 Y102.684 E26.40216
G1 X128.567 Y103.433 E26.48127
G1 X128.772 Y103.88 E26.52774
G1 X129.093 Y104.651 E26.60666
G1 X129.276 Y105.14 E26.656
G1 X129.54 Y105.932 E26.7349
G1 X129.687 Y106.435 E26.78442
G1 X129.893 Y107.246 E26.86349
G1 X129.999 Y107.732 E26.9105
G1 X130.148 Y108.554 E26.98944
G1 X130.222 Y109.07 E27.0387
G1 X130.311 Y109.901 E27.11768
G1 X130.347 Y110.407 E27.16562
G1 X130.377 Y111.241 E27.24448
G1 X130.377 Y111.757 E27.29325
G1 X130.347 Y112.592 E27.3722
G1 X130.311 Y113.099 E27.42024
G1 X130.222 Y113.929 E27.49912
G1 X130.15 Y114.432 E27.54714
G1 X130.002 Y115.256 E27.62625
G1 X129.892 Y115.765 E27.67546
G1 X129.685 Y116.575 E27.75447
G1 X129.542 Y117.062 E27.80243
G1 X129.279 Y117.853 E27.88121
G1 X129.092 Y118.351 E27.93148
G1 X128.77 Y119.123 E28.01052
G1 X128.569 Y119.563 E28.05623
G1 X128.195 Y120.313 E28.13543
G1 X127.952 Y120.759 E28.18343
G1 X127.528 Y121.477 E28.26223
G1 X127.233 Y121.937 E28.31387
G1 X126.754 Y122.623 E28.39294
G1 X126.457 Y123.018 E28.43964
G1 X125.933 Y123.668 E28.51854
G1 X125.602 Y124.051 E28.56637
G1 X125.033 Y124.663 E28.64534
G1 X124.664 Y125.032 E28.69466
G1 X124.052 Y125.601 E28.77363
G1 X123.68 Y125.924 E28.82018
G1 X123.03 Y126.45 E28.8992
G1 X122.612 Y126.763 E28.94855
G1 X121.926 Y127.24 E29.02751
G1 X121.481 Y127.526 E29.07749
G1 X120.762 Y127.951 E29.15642
G1 X120.313 Y128.195 E29.20471
G1 X119.563 Y128.569 E29.28391
G1 X119.122 Y128.771 E29.32975
G1 X118.352 Y129.092 E29.40859
G1 X117.857 Y129.277 E29.45852
G1 X117.064 Y129.541 E29.5375
G1 X116.566 Y129.687 E29.58655
G1 X115.756 Y129.893 E29.66553
G1 X115.265 Y129.999 E29.713
G1 X114.441 Y130.148 E29.79213
G1 X113.929 Y130.222 E29.84101
G1 X113.099 Y130.311 E29.9199
G1 X112.592 Y130.347 E29.96793
G1 X111.758 Y130.377 E30.0468
G1 X111.242 Y130.377 E30.09556
G1 X110.408 Y130.347 E30.17442
G1 X109.901 Y130.311 E30.22245
G1 X109.071 Y130.222 E30.30134
G1 X108.568 Y130.15 E30.34936
G1 X107.744 Y130.002 E30.42847
G1 X107.235 Y129.892 E30.47768
G1 X106.425 Y129.685 E30.55669
G1 X105.936 Y129.541 E30.60486
G1 X105.143 Y129.277 E30.68384
G1 X104.648 Y129.092 E30.73378
G1 X103.878 Y128.771 E30.81261
G1 X103.437 Y128.569 E30.85845
G1 X102.687 Y128.195 E30.93765
G1 X102.238 Y127.951 E30.98594
G1 X101.519 Y127.526 E31.06487
G1 X101.064 Y127.233 E31.11601
G1 X100.379 Y126.755 E31.19494
G1 X99.981 Y126.456 E31.24199
G1 X99.33 Y125.931 E31.32102
G1 X98.948 Y125.601 E31.36872
G1 X98.336 Y125.032 E31.44769
G1 X97.967 Y124.663 E31.49701
G1 X97.398 Y124.051 E31.57597
G1 X97.075 Y123.678 E31.6226
G1 X96.55 Y123.029 E31.70149
G1 X96.238 Y122.614 E31.75055
G1 X95.76 Y121.927 E31.82964
G1 X95.472 Y121.477 E31.88013
G1 X95.048 Y120.759 E31.95893
G1 X94.805 Y120.313 E32.00692
G1 X94.431 Y119.563 E32.08612
G1 X94.23 Y119.123 E32.13184
G1 X93.908 Y118.351 E32.21088
G1 X93.721 Y117.853 E32.26115
G1 X93.458 Y117.062 E32.33992
G1 X93.313 Y116.566 E32.38876
G1 X93.107 Y115.756 E32.46774
G1 X93.001 Y115.265 E32.51521
G1 X92.852 Y114.441 E32.59434
G1 X92.778 Y113.929 E32.64323
G1 X92.689 Y113.099 E32.72211
G1 X92.653 Y112.592 E32.77014
G1 X92.623 Y111.759 E32.84891
G1 X92.623 Y111.243 E32.89767
G1 X92.653 Y110.408 E32.97663
G1 X92.689 Y109.901 E33.02466
G1 X92.778 Y109.071 E33.10355
G1 X92.85 Y108.568 E33.15157
G1 X92.998 Y107.744 E33.23068
G1 X93.108 Y107.235 E33.27989
G1 X93.315 Y106.425 E33.3589
G1 X93.458 Y105.938 E33.40686
G1 X93.721 Y105.147 E33.48563
G1 X93.908 Y104.649 E33.5359
G1 X94.23 Y103.877 E33.61495
G1 X94.431 Y103.437 E33.66066
G1 X94.805 Y102.687 E33.73986
G1 X95.048 Y102.241 E33.78786
