;FLAVOR:UltiGCode
;TIME:445
;MATERIAL:610
;MATERIAL2:0
;NOZZLE_DIAMETER:0.4
;MINX:101.525
;MINY:103.525
;MINZ:0.27
;MAXX:121.475
;MAXY:119.475
;MAXZ:5.97
;Generated with Cura_SteamEngine 4.8.0
M82 ;absolute extrusion mode
G0 F3000 Y50 ;avoid prime blob
G92 E0
G92 E0
G10
;LAYER_COUNT:58
;LAYER:0
M107
G0 F4320 X102.471 Y104.325 Z0.27
;TYPE:SKIRT
G11
G1 F2700 X102.853 Y104.022 E0.04608
G1 X103.28 Y103.787 E0.09214
G1 X103.739 Y103.624 E0.13816
G1 X104.5 Y103.525 E0.21068
G1 X118.5 Y103.525 E1.53368
G1 X118.986 Y103.565 E1.57977
G1 X119.459 Y103.684 E1.62586
G1 X119.906 Y103.878 E1.67191
G1 X120.315 Y104.143 E1.71796
G1 X120.675 Y104.471 E1.76398
G1 X120.978 Y104.853 E1.81006
G1 X121.213 Y105.28 E1.85612
G1 X121.376 Y105.739 E1.90215
G1 X121.475 Y106.5 E1.97467
G1 X121.475 Y116.5 E2.91967
G1 X121.435 Y116.986 E2.96575
G1 X121.316 Y117.459 E3.01184
G1 X121.122 Y117.906 E3.05789
G1 X120.857 Y118.315 E3.10394
G1 X120.529 Y118.675 E3.14997
G1 X120.147 Y118.978 E3.19604
G1 X119.72 Y119.213 E3.2421
G1 X119.261 Y119.376 E3.28813
G1 X118.5 Y119.475 E3.36065
G1 X104.5 Y119.475 E4.68365
G1 X104.014 Y119.435 E4.72974
G1 X103.541 Y119.316 E4.77583
G1 X103.094 Y119.122 E4.82187
G1 X102.685 Y118.857 E4.86793
G1 X102.325 Y118.529 E4.91395
G1 X102.022 Y118.147 E4.96003
G1 X101.787 Y117.72 E5.00609
G1 X101.624 Y117.261 E5.05212
G1 X101.525 Y116.5 E5.12464
G1 X101.525 Y106.5 E6.06964
G1 X101.565 Y106.014 E6.11572
G1 X101.684 Y105.541 E6.16181
G1 X101.878 Y105.094 E6.20786
G1 X102.143 Y104.685 E6.25391
G1 X102.471 Y104.325 E6.29994
G0 F4320 X102.814 Y104.488
G1 F2700 X103.189 Y104.226 E6.34317
G1 X103.604 Y104.033 E6.38642
G1 X104.046 Y103.915 E6.42965
G1 X104.5 Y103.875 E6.47272
G1 X118.5 Y103.875 E7.79572
G1 X118.956 Y103.915 E7.83898
G1 X119.398 Y104.033 E7.88221
G1 X119.813 Y104.227 E7.9255
G1 X120.188 Y104.49 E7.96878
G1 X120.512 Y104.814 E8.01208
G1 X120.774 Y105.189 E8.05531
G1 X120.967 Y105.604 E8.09856
G1 X121.085 Y106.046 E8.1418
G1 X121.125 Y106.5 E8.18486
G1 X121.125 Y116.5 E9.12986
G1 X121.085 Y116.956 E9.17312
G1 X120.967 Y117.398 E9.21635
G1 X120.773 Y117.813 E9.25965
G1 X120.51 Y118.188 E9.30293
G1 X120.186 Y118.512 E9.34623
G1 X119.811 Y118.774 E9.38946
G1 X119.396 Y118.967 E9.43271
G1 X118.954 Y119.085 E9.47594
G1 X118.5 Y119.125 E9.51901
G1 X104.5 Y119.125 E10.84201
G1 X104.044 Y119.085 E10.88527
G1 X103.602 Y118.967 E10.9285
G1 X103.187 Y118.773 E10.97179
G1 X102.812 Y118.51 E11.01508
G1 X102.488 Y118.186 E11.05838
G1 X102.226 Y117.811 E11.10161
G1 X102.033 Y117.396 E11.14486
G1 X101.915 Y116.954 E11.18809
G1 X101.875 Y116.5 E11.23116
G1 X101.875 Y106.5 E12.17616
G1 X101.915 Y106.044 E12.21942
G1 X102.033 Y105.602 E12.26265
G1 X102.227 Y105.187 E12.30594
G1 X102.49 Y104.812 E12.34922
G1 X102.814 Y104.488 E12.39252
G0 F4320 X102.836 Y104.949
G1 F2700 X103.154 Y104.666 E12.43275
G1 X103.52 Y104.447 E12.47306
G1 X103.92 Y104.3 E12.51333
G1 X104.5 Y104.225 E12.5686
G1 X118.5 Y104.225 E13.8916
G1 X118.924 Y104.265 E13.93184
G1 X119.334 Y104.383 E13.97216
G1 X119.714 Y104.576 E14.01243
G1 X120.051 Y104.836 E14.05266
G1 X120.334 Y105.154 E14.09289
G1 X120.553 Y105.52 E14.13319
G1 X120.7 Y105.92 E14.17346
G1 X120.775 Y106.5 E14.22873
G1 X120.775 Y116.5 E15.17373
G1 X120.735 Y116.924 E15.21398
G1 X120.617 Y117.334 E15.25429
G1 X120.424 Y117.714 E15.29457
G1 X120.164 Y118.051 E15.33479
G1 X119.846 Y118.334 E15.37502
G1 X119.48 Y118.553 E15.41533
G1 X119.08 Y118.7 E15.4556
G1 X118.5 Y118.775 E15.51086
G1 X104.5 Y118.775 E16.83386
G1 X104.076 Y118.735 E16.87411
G1 X103.666 Y118.617 E16.91443
G1 X103.286 Y118.424 E16.9547
G1 X102.949 Y118.164 E16.99493
G1 X102.666 Y117.846 E17.03515
G1 X102.447 Y117.48 E17.07546
G1 X102.3 Y117.08 E17.11573
G1 X102.225 Y116.5 E17.171
G1 X102.225 Y106.5 E18.116
G1 X102.265 Y106.076 E18.15624
G1 X102.383 Y105.666 E18.19656
G1 X102.576 Y105.286 E18.23684
G1 X102.836 Y104.949 E18.27706
G0 F4320 X103.181 Y105.098
G1 F2700 X103.492 Y104.86 E18.31407
G1 X103.845 Y104.69 E18.35109
G1 X104.225 Y104.595 E18.38811
G1 X104.5 Y104.575 E18.41417
G1 X118.5 Y104.575 E19.73717
G1 X118.89 Y104.615 E19.77421
G1 X119.264 Y104.733 E19.81127
G1 X119.606 Y104.924 E19.84829
G1 X119.902 Y105.181 E19.88534
G1 X120.14 Y105.492 E19.92234
G1 X120.31 Y105.845 E19.95937
G1 X120.405 Y106.225 E19.99639
G1 X120.425 Y106.5 E20.02244
G1 X120.425 Y116.5 E20.96744
G1 X120.385 Y116.89 E21.00449
G1 X120.267 Y117.264 E21.04155
G1 X120.076 Y117.606 E21.07857
G1 X119.819 Y117.902 E21.11561
G1 X119.508 Y118.14 E21.15262
G1 X119.155 Y118.31 E21.18964
G1 X118.775 Y118.405 E21.22666
G1 X118.5 Y118.425 E21.25272
G1 X104.5 Y118.425 E22.57572
G1 X104.11 Y118.385 E22.61276
G1 X103.736 Y118.267 E22.64982
G1 X103.394 Y118.076 E22.68684
G1 X103.098 Y117.819 E22.72389
G1 X102.86 Y117.508 E22.76089
G1 X102.69 Y117.155 E22.79792
G1 X102.595 Y116.775 E22.83494
G1 X102.575 Y116.5 E22.86099
G1 X102.575 Y106.5 E23.80599
G1 X102.615 Y106.11 E23.84304
G1 X102.733 Y105.736 E23.8801
G1 X102.924 Y105.394 E23.91712
G1 X103.181 Y105.098 E23.95416
G0 F4320 X103.523 Y105.264
G1 F2700 X103.824 Y105.077 E23.98765
G1 X104.16 Y104.962 E24.02121
G1 X104.5 Y104.925 E24.05353
G1 X118.5 Y104.925 E25.37653
G1 X118.852 Y104.965 E25.41001
G1 X119.186 Y105.082 E25.44345
G1 X119.486 Y105.272 E25.47701
G1 X119.736 Y105.523 E25.51049
G1 X119.923 Y105.824 E25.54397
G1 X120.038 Y106.16 E25.57753
G1 X120.075 Y106.5 E25.60985
G1 X120.075 Y116.5 E26.55485
G1 X120.035 Y116.852 E26.58833
G1 X119.918 Y117.186 E26.62177
G1 X119.728 Y117.486 E26.65533
G1 X119.477 Y117.736 E26.68881
G1 X119.176 Y117.923 E26.7223
G1 X118.84 Y118.038 E26.75586
G1 X118.5 Y118.075 E26.78818
G1 X104.5 Y118.075 E28.11118
G1 X104.148 Y118.035 E28.14465
G1 X103.814 Y117.918 E28.1781
G1 X103.514 Y117.728 E28.21165
G1 X103.264 Y117.477 E28.24513
G1 X103.077 Y117.176 E28.27862
G1 X102.962 Y116.84 E28.31218
G1 X102.925 Y116.5 E28.3445
G1 X102.925 Y106.5 E29.2895
G1 X102.965 Y106.148 E29.32298
G1 X103.082 Y105.814 E29.35642
G1 X103.272 Y105.514 E29.38998
G1 X103.523 Y105.264 E29.42346
G0 F4320 X103.618 Y105.65
G1 F2700 X103.862 Y105.454 E29.45303
G1 X104.147 Y105.327 E29.48252
G1 X104.5 Y105.275 E29.51624
G1 X118.5 Y105.275 E30.83924
G1 X118.81 Y105.315 E30.86877
G1 X119.1 Y105.432 E30.89833
G1 X119.35 Y105.618 E30.92777
G1 X119.546 Y105.862 E30.95735
G1 X119.673 Y106.147 E30.98683
G1 X119.725 Y106.5 E31.02055
G1 X119.725 Y116.5 E31.96555
G1 X119.685 Y116.81 E31.99509
G1 X119.568 Y117.1 E32.02464
G1 X119.382 Y117.35 E32.05409
G1 X119.138 Y117.546 E32.08366
G1 X118.853 Y117.673 E32.11315
G1 X118.5 Y117.725 E32.14687
G1 X104.5 Y117.725 E33.46987
G1 X104.19 Y117.685 E33.49941
G1 X103.9 Y117.568 E33.52896
G1 X103.65 Y117.382 E33.5584
G1 X103.454 Y117.138 E33.58798
G1 X103.327 Y116.853 E33.61746
G1 X103.275 Y116.5 E33.65118
G1 X103.275 Y106.5 E34.59618
G1 X103.315 Y106.19 E34.62572
G1 X103.432 Y105.9 E34.65527
G1 X103.618 Y105.65 E34.68472
G0 F4320 X103.962 Y105.81
G1 F2700 X104.192 Y105.681 E34.70964
G1 X104.5 Y105.625 E34.73922
G1 X118.5 Y105.625 E36.06222
G1 X118.761 Y105.665 E36.08717
G1 X118.998 Y105.78 E36.11207
G1 X119.19 Y105.962 E36.13707
G1 X119.319 Y106.192 E36.16199
G1 X119.375 Y106.5 E36.19157
G1 X119.375 Y116.5 E37.13657
G1 X119.335 Y116.761 E37.16152
G1 X119.22 Y116.998 E37.18642
G1 X119.038 Y117.19 E37.21142
G1 X118.808 Y117.319 E37.23634
G1 X118.5 Y117.375 E37.26592
G1 X104.5 Y117.375 E38.58892
G1 X104.239 Y117.335 E38.61387
G1 X104.002 Y117.22 E38.63877
G1 X103.81 Y117.038 E38.66377
G1 X103.681 Y116.808 E38.68869
G1 X103.625 Y116.5 E38.71827
G1 X103.625 Y106.5 E39.66327
G1 X103.665 Y106.239 E39.68822
G1 X103.78 Y106.002 E39.71312
G1 X103.962 Y105.81 E39.73812
G0 F4320 X104.127 Y106.13
G1 F2700 X104.297 Y106.016 E39.75746
G1 X104.5 Y105.975 E39.77703
G1 X118.5 Y105.975 E41.10003
G1 X118.7 Y106.015 E41.11931
G1 X118.87 Y106.127 E41.13854
G1 X118.984 Y106.297 E41.15789
G1 X119.025 Y106.5 E41.17746
G1 X119.025 Y116.5 E42.12246
G1 X118.985 Y116.7 E42.14173
G1 X118.873 Y116.87 E42.16097
G1 X118.703 Y116.984 E42.18031
G1 X118.5 Y117.025 E42.19988
G1 X104.5 Y117.025 E43.52288
G1 X104.3 Y116.985 E43.54216
G1 X104.13 Y116.873 E43.5614
G1 X104.016 Y116.703 E43.58074
G1 X103.975 Y116.5 E43.60031
G1 X103.975 Y106.5 E44.54531
G1 X104.015 Y106.3 E44.56458
G1 X104.127 Y106.13 E44.58382
G0 F4320 X104.364 Y106.39
G1 F2700 X104.5 Y106.325 E44.59807
G1 X118.5 Y106.325 E45.92107
G1 X118.61 Y106.364 E45.9321
G1 X118.675 Y106.5 E45.94634
G1 X118.675 Y116.5 E46.89134
G1 X118.636 Y116.61 E46.90237
G1 X118.5 Y116.675 E46.91661
G1 X104.5 Y116.675 E48.23961
G1 X104.39 Y116.636 E48.25064
G1 X104.325 Y116.5 E48.26489
G1 X104.325 Y106.5 E49.20989
G1 X104.364 Y106.39 E49.22092
G10
;MESH:RudderPotentiometerTestFit.stl
G0 F4320 X111.223 Y108.341
G0 X111.2 Y108.529
;TYPE:WALL-OUTER
G11
G1 F2700 X110.977 Y108.594 E49.24287
G1 X110.382 Y108.769 E49.30148
G1 X109.848 Y109.054 E49.35868
G1 X109.384 Y109.443 E49.41589
G1 X109.008 Y109.919 E49.47322
G1 X108.738 Y110.461 E49.53044
G1 X108.584 Y111.047 E49.5877
G1 X108.553 Y111.651 E49.64485
G1 X108.646 Y112.25 E49.70213
G1 X108.859 Y112.817 E49.75937
G1 X109.184 Y113.329 E49.81668
G1 X109.606 Y113.763 E49.87388
G1 X110.108 Y114.102 E49.93113
G1 X110.664 Y114.33 E49.98792
G1 X110.985 Y114.406 E50.01909
G1 X111.2 Y114.457 E50.03997
G1 X111.2 Y114.237 E50.05261
G1 X111.2 Y114.236 E50.0527
G1 X111.2 Y108.762 E50.57
G1 X111.2 Y108.761 E50.57009
G1 X111.2 Y108.529 E50.58325
G0 F4320 X111.008 Y108.585
G0 X110.938 Y108.345
G0 X111.7 Y114.471
G0 X111.8 Y114.471
G1 F2700 X112.023 Y114.406 E50.6052
G1 X112.618 Y114.231 E50.66381
G1 X113.152 Y113.946 E50.72101
G1 X113.616 Y113.557 E50.77823
G1 X113.992 Y113.081 E50.83555
G1 X114.262 Y112.539 E50.89277
G1 X114.416 Y111.953 E50.95003
G1 X114.447 Y111.349 E51.00719
G1 X114.354 Y110.75 E51.06447
G1 X114.141 Y110.183 E51.12171
G1 X113.816 Y109.671 E51.17901
G1 X113.394 Y109.237 E51.23622
G1 X112.892 Y108.898 E51.29346
G1 X112.336 Y108.67 E51.35025
G1 X112.015 Y108.594 E51.38142
G1 X111.8 Y108.543 E51.40231
G1 X111.8 Y108.763 E51.41494
G1 X111.8 Y108.764 E51.41504
G1 X111.8 Y114.238 E51.93233
G1 X111.8 Y114.239 E51.93243
G1 X111.8 Y114.471 E51.94559
G0 F4320 X111.992 Y114.415
G0 X112.062 Y114.655
G0 X118.08 Y116.08
G0 X118.3 Y116.3
G1 F2700 X104.7 Y116.3 E53.23079
G1 X104.7 Y106.7 E54.13799
G1 X118.3 Y106.7 E55.42319
G1 X118.3 Y116.3 E56.33039
G0 F4320 X118.1 Y116.3
G0 X117.975 Y115.975
;TYPE:WALL-INNER
G1 F2700 X105.025 Y115.975 E57.55416
G1 X105.025 Y107.025 E58.39994
G1 X117.975 Y107.025 E59.62371
G1 X117.975 Y115.975 E60.46949
G0 F4320 X111.475 Y114.905
G1 F2700 X111.488 Y114.902 E60.47075
G1 X112.742 Y114.533 E60.59427
G1 X113.335 Y114.217 E60.65777
G1 X113.85 Y113.785 E60.72129
G1 X114.268 Y113.256 E60.78501
G1 X114.568 Y112.654 E60.84857
G1 X114.739 Y112.003 E60.91218
G1 X114.773 Y111.332 E60.97567
G1 X114.67 Y110.667 E61.03926
G1 X114.433 Y110.037 E61.10287
G1 X114.072 Y109.468 E61.16655
G1 X113.604 Y108.986 E61.23003
G1 X113.046 Y108.61 E61.29362
G1 X112.436 Y108.36 E61.35592
G1 X111.525 Y108.144 E61.44439
G1 X111.525 Y108.095 E61.44902
G1 X111.512 Y108.098
G1 X110.258 Y108.467 E61.57255
G1 X109.665 Y108.783 E61.63605
G1 X109.15 Y109.215 E61.69957
G1 X108.732 Y109.744 E61.76329
G1 X108.432 Y110.346 E61.82685
G1 X108.261 Y110.997 E61.89045
G1 X108.227 Y111.668 E61.95394
G1 X108.33 Y112.333 E62.01754
G1 X108.567 Y112.963 E62.08114
G1 X108.928 Y113.532 E62.14482
G1 X109.396 Y114.014 E62.20831
G1 X109.954 Y114.39 E62.2719
G1 X110.564 Y114.64 E62.33419
G1 X111.475 Y114.856 E62.42267
G1 X111.475 Y114.905 E62.42497
G0 F4320 X111.125 Y115.373
G1 F2700 X111.189 Y115.354 E62.43127
G1 X111.428 Y115.284 E62.45481
G1 X112.875 Y114.859 E62.59733
G1 X113.532 Y114.509 E62.66767
G1 X114.102 Y114.03 E62.73803
G1 X114.565 Y113.445 E62.80853
G1 X114.897 Y112.778 E62.87894
G1 X115.087 Y112.057 E62.9494
G1 X115.124 Y111.314 E63.0197
G1 X115.01 Y110.578 E63.09008
G1 X114.748 Y109.88 E63.16054
G1 X114.348 Y109.25 E63.23106
G1 X113.83 Y108.716 E63.30137
G1 X113.212 Y108.3 E63.37177
G1 X112.543 Y108.026 E63.44008
G1 X111.875 Y107.867 E63.50497
G1 X111.875 Y107.627 E63.52765
G1 X111.811 Y107.646
G1 X111.572 Y107.716 E63.55119
G1 X110.125 Y108.141 E63.6937
G1 X109.468 Y108.491 E63.76405
G1 X108.898 Y108.97 E63.83441
G1 X108.435 Y109.555 E63.90491
G1 X108.103 Y110.222 E63.97532
G1 X107.913 Y110.943 E64.04578
G1 X107.876 Y111.686 E64.11608
G1 X107.99 Y112.422 E64.18646
G1 X108.252 Y113.12 E64.25692
G1 X108.652 Y113.75 E64.32744
G1 X109.17 Y114.284 E64.39774
G1 X109.788 Y114.7 E64.46814
G1 X110.457 Y114.974 E64.53646
G1 X111.125 Y115.133 E64.60135
G1 X111.125 Y115.373 E64.61559
G0 F4320 X117.625 Y115.625
G1 F2700 X111.375 Y115.625 E65.20622
G1 X111.125 Y115.625 E65.22844
G1 X105.375 Y115.625 E65.77182
G1 X105.375 Y107.375 E66.55144
G1 X111.625 Y107.375 E67.14207
G1 X111.875 Y107.375 E67.16429
G1 X117.625 Y107.375 E67.70767
G1 X117.625 Y115.625 E68.48729
G0 F4320 X117.285 Y115.285
;TYPE:SKIN
G1 F2700 X112.632 Y115.285 E68.927
G1 X113.004 Y115.176 E68.96363
G1 X113.724 Y114.792 E69.04074
G1 X114.347 Y114.269 E69.11761
G1 X114.854 Y113.628 E69.19484
G1 X115.217 Y112.898 E69.27189
G1 X115.425 Y112.109 E69.349
G1 X115.466 Y111.296 E69.42592
G1 X115.34 Y110.491 E69.50292
G1 X115.053 Y109.728 E69.57996
G1 X114.616 Y109.038 E69.65714
G1 X114.049 Y108.454 E69.73406
G1 X113.373 Y107.999 E69.81106
G1 X112.682 Y107.715 E69.88166
G1 X117.285 Y107.715 E70.31665
G1 X117.285 Y115.285 E71.03201
G0 F4320 X113.568 Y115.053
G1 F2700 X113.642 Y115.127 E71.0419
G0 F4320 X113.878 Y114.868
G1 F2700 X114.137 Y115.127 E71.07651
G0 F4320 X114.146 Y114.641
G1 F2700 X114.632 Y115.127 E71.14146
G0 F4320 X115.127 Y115.127
G1 F2700 X114.415 Y114.415 E71.23662
G0 F4320 X114.642 Y114.147
G1 F2700 X115.622 Y115.127 E71.36759
G0 F4320 X116.117 Y115.127
G1 F2700 X114.861 Y113.871 E71.53544
G0 F4320 X115.056 Y113.571
G1 F2700 X116.612 Y115.127 E71.74339
G0 F4320 X117.107 Y115.127
G1 F2700 X115.221 Y113.241 E71.99544
G0 F4320 X115.377 Y112.903
G1 F2700 X117.127 Y114.652 E72.22925
G0 F4320 X117.127 Y114.157
G1 F2700 X115.481 Y112.511 E72.44923
G0 F4320 X115.58 Y112.116
G1 F2700 X117.127 Y113.662 E72.65591
G0 F4320 X117.127 Y113.167
G1 F2700 X115.604 Y111.645 E72.85938
G0 F4320 X115.599 Y111.145
G1 F2700 X117.127 Y112.672 E73.06352
G0 F4320 X117.127 Y112.177
G1 F2700 X115.508 Y110.558 E73.27989
G1 X115.446 Y110.496
G0 F4320 X115.247 Y109.803
G1 F2700 X117.127 Y111.682 E73.53107
G0 F4320 X117.127 Y111.187
G1 F2700 X113.812 Y107.872 E73.9741
G0 F4320 X114.307 Y107.872
G1 F2700 X117.127 Y110.692 E74.35097
G0 F4320 X117.127 Y110.197
G1 F2700 X114.802 Y107.872 E74.66169
G0 F4320 X115.297 Y107.872
G1 F2700 X117.127 Y109.702 E74.90626
G0 F4320 X117.127 Y109.207
G1 F2700 X115.792 Y107.872 E75.08467
G0 F4320 X116.287 Y107.872
G1 F2700 X117.127 Y108.712 E75.19693
G0 F4320 X117.127 Y108.217
G1 F2700 X116.782 Y107.872 E75.24304
G0 F4320 X110.368 Y107.715
G1 F2700 X109.996 Y107.824 E75.27967
G1 X109.276 Y108.208 E75.35678
G1 X108.653 Y108.731 E75.43365
G1 X108.146 Y109.372 E75.51089
G1 X107.783 Y110.102 E75.58793
G1 X107.575 Y110.891 E75.66504
G1 X107.534 Y111.704 E75.74196
G1 X107.66 Y112.509 E75.81896
G1 X107.947 Y113.272 E75.896
G1 X108.384 Y113.962 E75.97318
G1 X108.951 Y114.546 E76.0501
G1 X109.627 Y115.001 E76.1271
G1 X110.318 Y115.285 E76.1977
G1 X105.715 Y115.285 E76.63269
G1 X105.715 Y107.715 E77.34805
G1 X110.368 Y107.715 E77.78776
G0 F4320 X109.431 Y107.946
G1 F2700 X109.356 Y107.871 E77.79778
G0 F4320 X109.121 Y108.131
G1 F2700 X108.861 Y107.871 E77.83253
G0 F4320 X108.852 Y108.357
G1 F2700 X108.366 Y107.871 E77.89748
G0 F4320 X107.871 Y107.871
G1 F2700 X108.584 Y108.584 E77.99277
G0 F4320 X108.357 Y108.852
G1 F2700 X107.376 Y107.871 E78.12387
G0 F4320 X106.882 Y107.871
G1 F2700 X108.137 Y109.127 E78.29166
G0 F4320 X107.942 Y109.427
G1 F2700 X106.387 Y107.871 E78.49954
G0 F4320 X105.892 Y107.871
G1 F2700 X107.778 Y109.758 E78.75166
G0 F4320 X107.621 Y110.096
G1 F2700 X105.871 Y108.346 E78.98554
G0 F4320 X105.871 Y108.841
G1 F2700 X107.518 Y110.488 E79.20565
G0 F4320 X107.418 Y110.883
