;FLAVOR:UltiGCode
;TIME:2698
;MATERIAL:5148
;MATERIAL2:0
;NOZZLE_DIAMETER:0.4
;MINX:81.376
;MINY:81.378
;MINZ:0.27
;MAXX:141.624
;MAXY:141.622
;MAXZ:9.87
;Generated with Cura_SteamEngine 4.8.0
M82 ;absolute extrusion mode
G0 F3000 Y50 ;avoid prime blob
G92 E0
G92 E0
G10
;LAYER_COUNT:65
;LAYER:0
M107
G0 F4500 X90.12 Y90.278 Z0.27
;TYPE:SKIRT
G11
G1 F1800 X90.656 Y89.751 E0.07103
G1 X90.855 Y89.561 E0.09703
G1 X91.408 Y89.054 E0.16793
G1 X91.607 Y88.878 E0.19304
G1 X92.179 Y88.388 E0.26421
G1 X92.375 Y88.226 E0.28824
G1 X92.961 Y87.756 E0.35923
G1 X93.178 Y87.588 E0.38516
G1 X93.781 Y87.138 E0.45627
G1 X94.01 Y86.973 E0.48294
G1 X94.627 Y86.546 E0.55385
G1 X94.825 Y86.414 E0.57633
G1 X95.456 Y86.005 E0.64739
G1 X95.692 Y85.857 E0.67372
G1 X96.338 Y85.47 E0.74488
G1 X96.564 Y85.34 E0.76952
G1 X97.22 Y84.976 E0.84042
G1 X97.456 Y84.85 E0.8657
G1 X98.125 Y84.508 E0.9367
G1 X98.357 Y84.395 E0.96109
G1 X99.037 Y84.075 E1.03211
G1 X99.303 Y83.955 E1.05968
G1 X99.993 Y83.661 E1.13056
G1 X100.213 Y83.571 E1.15302
G1 X100.914 Y83.297 E1.22415
G1 X101.175 Y83.201 E1.25043
G1 X101.885 Y82.952 E1.32153
G1 X102.146 Y82.865 E1.34753
G1 X102.864 Y82.641 E1.4186
G1 X103.105 Y82.57 E1.44235
G1 X103.83 Y82.369 E1.51344
G1 X104.088 Y82.302 E1.53863
G1 X104.818 Y82.126 E1.6096
G1 X105.089 Y82.066 E1.63582
G1 X105.824 Y81.916 E1.70671
G1 X106.081 Y81.868 E1.73142
G1 X106.823 Y81.742 E1.80254
G1 X107.071 Y81.704 E1.82625
G1 X107.815 Y81.602 E1.89722
G1 X108.099 Y81.568 E1.92425
G1 X108.847 Y81.493 E1.99529
G1 X109.11 Y81.471 E2.02023
G1 X109.861 Y81.421 E2.09136
G1 X110.111 Y81.409 E2.11501
G1 X110.861 Y81.383 E2.18593
G1 X111.134 Y81.378 E2.21173
G1 X111.885 Y81.378 E2.2827
G1 X112.157 Y81.383 E2.30841
G1 X112.909 Y81.409 E2.37951
G1 X113.172 Y81.422 E2.4044
G1 X113.921 Y81.473 E2.47534
G1 X114.181 Y81.495 E2.5
G1 X114.93 Y81.571 E2.57114
G1 X115.205 Y81.604 E2.59732
G1 X115.949 Y81.706 E2.66828
G1 X116.209 Y81.746 E2.69314
G1 X116.95 Y81.873 E2.76419
G1 X117.201 Y81.92 E2.78832
G1 X117.938 Y82.071 E2.85941
G1 X118.203 Y82.13 E2.88507
G1 X118.933 Y82.306 E2.95603
G1 X119.209 Y82.378 E2.98298
G1 X119.931 Y82.58 E3.05383
G1 X120.164 Y82.649 E3.0768
G1 X120.882 Y82.874 E3.1479
G1 X121.133 Y82.958 E3.17291
G1 X121.843 Y83.207 E3.24402
G1 X122.107 Y83.305 E3.27063
G1 X122.807 Y83.579 E3.34166
G1 X123.042 Y83.675 E3.36565
G1 X123.732 Y83.971 E3.4366
G1 X123.976 Y84.081 E3.4619
G1 X124.657 Y84.401 E3.533
G1 X124.901 Y84.52 E3.55866
G1 X125.57 Y84.863 E3.6297
G1 X125.806 Y84.989 E3.65498
G1 X126.462 Y85.354 E3.72593
G1 X126.694 Y85.489 E3.75129
G1 X127.337 Y85.876 E3.82221
G1 X127.555 Y86.012 E3.84649
G1 X128.187 Y86.421 E3.91763
G1 X128.409 Y86.57 E3.9429
G1 X129.025 Y86.999 E4.01384
G1 X129.234 Y87.15 E4.0382
G1 X129.837 Y87.6 E4.1093
G1 X130.048 Y87.763 E4.1345
G1 X130.634 Y88.232 E4.20543
G1 X130.859 Y88.419 E4.23308
G1 X131.429 Y88.911 E4.30423
G1 X131.6 Y89.063 E4.32585
G1 X132.154 Y89.57 E4.39682
G1 X132.369 Y89.774 E4.42483
G1 X132.904 Y90.302 E4.49586
G1 X133.08 Y90.482 E4.51965
G1 X133.597 Y91.026 E4.59057
G1 X133.787 Y91.233 E4.61712
G1 X134.286 Y91.797 E4.68829
G1 X134.447 Y91.985 E4.71168
G1 X134.926 Y92.562 E4.78255
G1 X135.096 Y92.774 E4.80822
G1 X135.557 Y93.37 E4.87943
G1 X135.718 Y93.585 E4.90481
G1 X136.156 Y94.193 E4.97562
G1 X136.302 Y94.404 E4.99987
G1 X136.722 Y95.029 E5.07103
G1 X136.875 Y95.265 E5.09761
G1 X137.272 Y95.904 E5.1687
G1 X137.402 Y96.121 E5.19261
G1 X137.778 Y96.772 E5.26365
G1 X137.91 Y97.01 E5.28937
G1 X138.263 Y97.673 E5.36035
G1 X138.383 Y97.907 E5.3852
G1 X138.714 Y98.582 E5.45624
G1 X138.831 Y98.832 E5.48233
G1 X139.138 Y99.518 E5.55335
G1 X139.24 Y99.756 E5.57782
G1 X139.524 Y100.451 E5.64877
G1 X139.614 Y100.681 E5.67211
G1 X139.877 Y101.387 E5.7433
G1 X139.972 Y101.658 E5.77044
G1 X140.208 Y102.37 E5.84133
G1 X140.291 Y102.636 E5.86766
G1 X140.502 Y103.357 E5.93865
G1 X140.567 Y103.593 E5.96178
G1 X140.756 Y104.322 E6.03295
G1 X140.818 Y104.579 E6.05793
G1 X140.982 Y105.312 E6.12892
G1 X141.04 Y105.596 E6.15631
G1 X141.177 Y106.335 E6.22733
G1 X141.218 Y106.574 E6.25025
G1 X141.332 Y107.316 E6.32119
G1 X141.368 Y107.58 E6.34637
G1 X141.457 Y108.327 E6.41746
G1 X141.485 Y108.608 E6.44415
G1 X141.547 Y109.356 E6.51507
G1 X141.564 Y109.61 E6.53913
G1 X141.602 Y110.362 E6.61029
G1 X141.611 Y110.623 E6.63496
G1 X141.624 Y111.374 E6.70594
G1 X141.624 Y111.646 E6.73165
G1 X141.611 Y112.397 E6.80263
G1 X141.601 Y112.67 E6.82844
G1 X141.562 Y113.42 E6.89941
G1 X141.545 Y113.67 E6.92309
G1 X141.482 Y114.42 E6.99422
G1 X141.454 Y114.695 E7.02034
G1 X141.365 Y115.44 E7.09124
G1 X141.329 Y115.709 E7.11689
G1 X141.214 Y116.453 E7.18803
G1 X141.172 Y116.696 E7.21134
G1 X141.034 Y117.435 E7.28238
G1 X140.978 Y117.708 E7.30872
G1 X140.814 Y118.441 E7.3797
G1 X140.747 Y118.716 E7.40645
G1 X140.557 Y119.442 E7.47736
G1 X140.495 Y119.667 E7.49942
G1 X140.283 Y120.389 E7.57053
G1 X140.199 Y120.657 E7.59707
G1 X139.962 Y121.369 E7.66798
G1 X139.87 Y121.631 E7.69422
G1 X139.607 Y122.337 E7.76542
G1 X139.518 Y122.563 E7.78837
G1 X139.234 Y123.259 E7.85941
G1 X139.125 Y123.513 E7.88553
G1 X138.817 Y124.198 E7.9565
G1 X138.701 Y124.445 E7.98229
G1 X138.369 Y125.12 E8.05338
G1 X138.25 Y125.353 E8.0781
G1 X137.896 Y126.016 E8.14913
G1 X137.763 Y126.255 E8.17497
G1 X137.387 Y126.904 E8.24585
G1 X137.262 Y127.112 E8.26879
G1 X136.865 Y127.751 E8.33988
G1 X136.711 Y127.99 E8.36674
G1 X136.292 Y128.613 E8.43769
G1 X136.139 Y128.832 E8.46294
G1 X135.698 Y129.442 E8.53407
G1 X135.547 Y129.643 E8.55783
G1 X135.088 Y130.237 E8.62877
G1 X134.91 Y130.459 E8.65566
G1 X134.429 Y131.037 E8.72672
G1 X134.26 Y131.234 E8.75125
G1 X133.761 Y131.795 E8.8222
G1 X133.585 Y131.987 E8.84681
G1 X133.066 Y132.533 E8.918
G1 X132.879 Y132.722 E8.94312
G1 X132.344 Y133.248 E9.01403
G1 X132.145 Y133.437 E9.03996
G1 X131.591 Y133.945 E9.11099
G1 X131.391 Y134.122 E9.13623
G1 X130.82 Y134.611 E9.20727
G1 X130.626 Y134.772 E9.2311
G1 X130.039 Y135.243 E9.30222
G1 X129.833 Y135.404 E9.32692
G1 X129.231 Y135.855 E9.39801
G1 X128.99 Y136.028 E9.42604
G1 X128.373 Y136.455 E9.49695
G1 X128.173 Y136.589 E9.5197
G1 X127.543 Y136.997 E9.59063
G1 X127.309 Y137.143 E9.61669
G1 X126.663 Y137.53 E9.68786
G1 X126.429 Y137.664 E9.71334
G1 X125.773 Y138.027 E9.78419
G1 X125.549 Y138.147 E9.8082
G1 X124.879 Y138.49 E9.87933
G1 X124.639 Y138.607 E9.90456
G1 X123.958 Y138.927 E9.97567
G1 X123.705 Y139.041 E10.00189
G1 X123.015 Y139.336 E10.07281
G1 X122.78 Y139.432 E10.0968
G1 X122.08 Y139.705 E10.1678
G1 X121.825 Y139.799 E10.19348
G1 X121.115 Y140.048 E10.26458
G1 X120.861 Y140.133 E10.28989
G1 X120.142 Y140.358 E10.36109
G1 X119.89 Y140.432 E10.38591
G1 X119.167 Y140.632 E10.4568
G1 X118.903 Y140.7 E10.48256
G1 X118.173 Y140.875 E10.5535
G1 X117.918 Y140.932 E10.57819
G1 X117.181 Y141.083 E10.64929
G1 X116.918 Y141.132 E10.67457
G1 X116.176 Y141.258 E10.74569
G1 X115.929 Y141.296 E10.76931
G1 X115.186 Y141.398 E10.84018
G1 X114.9 Y141.432 E10.8674
G1 X114.151 Y141.507 E10.93853
G1 X113.891 Y141.529 E10.96319
G1 X113.142 Y141.579 E11.03413
G1 X112.889 Y141.591 E11.05806
G1 X112.138 Y141.617 E11.12907
G1 X111.866 Y141.622 E11.15478
G1 X111.114 Y141.622 E11.22585
G1 X110.842 Y141.617 E11.25155
G1 X110.091 Y141.591 E11.32257
G1 X109.829 Y141.578 E11.34736
G1 X109.079 Y141.527 E11.41839
G1 X108.816 Y141.505 E11.44333
G1 X108.069 Y141.429 E11.51429
G1 X107.798 Y141.396 E11.54009
G1 X107.053 Y141.294 E11.61115
G1 X106.789 Y141.254 E11.63638
G1 X106.049 Y141.127 E11.70733
G1 X105.8 Y141.08 E11.73128
G1 X105.063 Y140.929 E11.80237
G1 X104.803 Y140.871 E11.82755
G1 X104.071 Y140.695 E11.89869
G1 X103.79 Y140.622 E11.92613
G1 X103.068 Y140.42 E11.99698
G1 X102.829 Y140.349 E12.02054
G1 X102.113 Y140.124 E12.09146
G1 X101.871 Y140.043 E12.11558
G1 X101.16 Y139.794 E12.18677
G1 X100.893 Y139.695 E12.21368
G1 X100.193 Y139.421 E12.28472
G1 X99.962 Y139.327 E12.30828
G1 X99.271 Y139.031 E12.37932
G1 X99.019 Y138.917 E12.40546
G1 X98.339 Y138.597 E12.47648
G1 X98.099 Y138.48 E12.50171
G1 X97.43 Y138.137 E12.57276
G1 X97.191 Y138.009 E12.59838
G1 X96.534 Y137.643 E12.66945
G1 X96.313 Y137.515 E12.69358
G1 X95.67 Y137.129 E12.76445
G1 X95.444 Y136.988 E12.78963
G1 X94.812 Y136.579 E12.86077
G1 X94.59 Y136.43 E12.88603
G1 X93.974 Y136.001 E12.95697
G1 X93.755 Y135.843 E12.98249
G1 X93.154 Y135.393 E13.05344
G1 X92.952 Y135.236 E13.07762
G1 X92.365 Y134.766 E13.14868
G1 X92.141 Y134.58 E13.17619
G1 X91.571 Y134.088 E13.24735
G1 X91.4 Y133.936 E13.26897
G1 X90.846 Y133.429 E13.33994
G1 X90.637 Y133.23 E13.36721
G1 X90.102 Y132.703 E13.43817
G1 X89.92 Y132.518 E13.4627
G1 X89.402 Y131.973 E13.53375
G1 X89.212 Y131.766 E13.5603
G1 X88.713 Y131.202 E13.63147
G1 X88.552 Y131.014 E13.65486
G1 X88.073 Y130.437 E13.72573
G1 X87.903 Y130.225 E13.75141
G1 X87.442 Y129.629 E13.82261
G1 X87.281 Y129.414 E13.84799
G1 X86.843 Y128.806 E13.9188
G1 X86.697 Y128.595 E13.94305
G1 X86.277 Y127.97 E14.01421
G1 X86.122 Y127.731 E14.04113
G1 X85.726 Y127.093 E14.11209
G1 X85.595 Y126.874 E14.13621
G1 X85.219 Y126.222 E14.20733
G1 X85.092 Y125.993 E14.23208
G1 X84.739 Y125.331 E14.30298
G1 X84.617 Y125.093 E14.32825
G1 X84.286 Y124.418 E14.39929
G1 X84.173 Y124.177 E14.42445
G1 X83.865 Y123.491 E14.49551
G1 X83.757 Y123.239 E14.52142
G1 X83.474 Y122.545 E14.59224
G1 X83.383 Y122.311 E14.61597
G1 X83.121 Y121.605 E14.68713
G1 X83.03 Y121.346 E14.71307
G1 X82.793 Y120.632 E14.78417
G1 X82.709 Y120.363 E14.8108
G1 X82.498 Y119.642 E14.88179
G1 X82.432 Y119.402 E14.90531
G1 X82.244 Y118.675 E14.97627
G1 X82.185 Y118.43 E15.00009
G1 X82.02 Y117.696 E15.07118
G1 X81.96 Y117.404 E15.09935
G1 X81.823 Y116.665 E15.17038
G1 X81.782 Y116.424 E15.19348
G1 X81.668 Y115.681 E15.26452
G1 X81.632 Y115.419 E15.28951
G1 X81.543 Y114.672 E15.3606
G1 X81.515 Y114.391 E15.38728
G1 X81.453 Y113.643 E15.45821
G1 X81.436 Y113.396 E15.48161
G1 X81.398 Y112.656 E15.55163
G1 X81.389 Y112.386 E15.57716
G1 X81.376 Y111.624 E15.64918
G1 X81.376 Y111.354 E15.67469
G1 X81.389 Y110.604 E15.74558
G1 X81.399 Y110.332 E15.7713
G1 X81.438 Y109.58 E15.84246
G1 X81.455 Y109.328 E15.86633
G1 X81.518 Y108.579 E15.93736
G1 X81.545 Y108.306 E15.96328
G1 X81.634 Y107.56 E16.03428
G1 X81.672 Y107.287 E16.06033
G1 X81.787 Y106.545 E16.13128
G1 X81.827 Y106.307 E16.15409
G1 X81.965 Y105.567 E16.22523
G1 X82.02 Y105.302 E16.2508
G1 X82.183 Y104.569 E16.32176
G1 X82.253 Y104.277 E16.35014
G1 X82.444 Y103.55 E16.42117
G1 X82.506 Y103.33 E16.44277
G1 X82.718 Y102.609 E16.51379
G1 X82.8 Y102.346 E16.53982
G1 X83.037 Y101.633 E16.61083
G1 X83.133 Y101.361 E16.63809
G1 X83.396 Y100.657 E16.7091
G1 X83.482 Y100.438 E16.73134
G1 X83.766 Y99.742 E16.80238
G1 X83.877 Y99.483 E16.829
G1 X84.186 Y98.797 E16.9001
G1 X84.295 Y98.564 E16.92441
G1 X84.626 Y97.889 E16.99546
G1 X84.748 Y97.651 E17.02073
G1 X85.101 Y96.989 E17.09163
G1 X85.235 Y96.748 E17.11769
G1 X85.612 Y96.097 E17.18878
G1 X85.741 Y95.882 E17.21247
G1 X86.138 Y95.244 E17.28348
G1 X86.291 Y95.008 E17.31006
G1 X86.711 Y94.384 E17.38114
G1 X86.861 Y94.169 E17.40591
G1 X87.301 Y93.56 E17.47691
G1 X87.454 Y93.355 E17.50109
G1 X87.914 Y92.76 E17.57216
G1 X88.09 Y92.541 E17.59871
G1 X88.57 Y91.964 E17.66964
G1 X88.74 Y91.766 E17.6943
G1 X89.24 Y91.204 E17.76538
G1 X89.411 Y91.018 E17.78926
G1 X89.928 Y90.473 E17.86025
G1 X90.12 Y90.278 E17.88611
G0 F4500 X90.365 Y90.527
G1 F1800 X90.901 Y90 E17.95714
G1 X91.092 Y89.819 E17.98201
G1 X91.645 Y89.312 E18.05291
G1 X91.834 Y89.144 E18.0768
G1 X92.406 Y88.654 E18.14798
G1 X92.594 Y88.499 E18.17101
G1 X93.18 Y88.029 E18.24199
G1 X93.387 Y87.868 E18.26678
G1 X93.99 Y87.418 E18.33788
G1 X94.209 Y87.261 E18.36334
G1 X94.826 Y86.834 E18.43425
G1 X95.015 Y86.707 E18.45577
G1 X95.646 Y86.298 E18.52683
G1 X95.872 Y86.158 E18.55195
G1 X96.518 Y85.771 E18.62311
G1 X96.734 Y85.646 E18.6467
G1 X97.39 Y85.282 E18.71759
G1 X97.616 Y85.162 E18.74177
G1 X98.285 Y84.82 E18.81278
G1 X98.506 Y84.711 E18.83606
G1 X99.186 Y84.391 E18.90708
G1 X99.44 Y84.277 E18.93339
G1 X100.13 Y83.983 E19.00427
G1 X100.341 Y83.897 E19.0258
G1 X101.042 Y83.623 E19.09693
G1 X101.291 Y83.531 E19.12201
G1 X102.001 Y83.282 E19.19311
G1 X102.25 Y83.199 E19.21792
G1 X102.968 Y82.975 E19.28899
G1 X103.199 Y82.908 E19.31172
G1 X103.924 Y82.707 E19.38282
G1 X104.17 Y82.643 E19.40684
G1 X104.9 Y82.467 E19.4778
G1 X105.159 Y82.409 E19.50288
G1 X105.894 Y82.259 E19.57377
G1 X106.139 Y82.213 E19.59733
G1 X106.881 Y82.087 E19.66845
G1 X107.119 Y82.051 E19.6912
G1 X107.863 Y81.949 E19.76216
G1 X108.134 Y81.917 E19.78795
G1 X108.882 Y81.842 E19.85899
G1 X109.133 Y81.821 E19.8828
G1 X109.884 Y81.771 E19.95392
G1 X110.123 Y81.759 E19.97654
G1 X110.873 Y81.733 E20.04745
G1 X111.134 Y81.728 E20.07212
G1 X111.885 Y81.728 E20.14309
G1 X112.145 Y81.732 E20.16766
G1 X112.897 Y81.758 E20.23877
G1 X113.148 Y81.771 E20.26252
G1 X113.897 Y81.822 E20.33347
G1 X114.146 Y81.843 E20.35708
G1 X114.895 Y81.919 E20.42822
G1 X115.157 Y81.951 E20.45317
G1 X115.901 Y82.053 E20.52413
G1 X116.15 Y82.091 E20.54794
G1 X116.891 Y82.218 E20.61898
G1 X117.13 Y82.263 E20.64196
G1 X117.867 Y82.414 E20.71306
G1 X118.121 Y82.471 E20.73766
G1 X118.851 Y82.647 E20.80862
G1 X119.114 Y82.715 E20.83429
G1 X119.836 Y82.917 E20.90514
G1 X120.059 Y82.983 E20.92712
G1 X120.777 Y83.208 E20.99822
G1 X121.017 Y83.288 E21.02213
G1 X121.727 Y83.537 E21.09323
G1 X121.98 Y83.631 E21.11873
G1 X122.68 Y83.905 E21.18977
G1 X122.904 Y83.996 E21.21262
G1 X123.594 Y84.292 E21.28357
G1 X123.827 Y84.397 E21.30772
G1 X124.508 Y84.717 E21.37883
G1 X124.741 Y84.832 E21.40338
G1 X125.41 Y85.175 E21.47443
G1 X125.636 Y85.295 E21.49861
G1 X126.292 Y85.66 E21.56955
G1 X126.513 Y85.789 E21.59373
G1 X127.156 Y86.176 E21.66465
G1 X127.364 Y86.306 E21.68783
G1 X127.996 Y86.715 E21.75897
G1 X128.208 Y86.857 E21.78308
G1 X128.824 Y87.286 E21.85402
G1 X129.025 Y87.43 E21.87739
G1 X129.628 Y87.88 E21.94849
G1 X129.829 Y88.036 E21.97253
G1 X130.415 Y88.505 E22.04346
G1 X130.63 Y88.684 E22.0699
G1 X131.2 Y89.176 E22.14106
G1 X131.363 Y89.321 E22.16167
G1 X131.917 Y89.828 E22.23264
G1 X132.123 Y90.023 E22.25944
G1 X132.658 Y90.551 E22.33048
G1 X132.827 Y90.723 E22.35326
G1 X133.344 Y91.267 E22.42419
G1 X133.525 Y91.465 E22.44954
G1 X134.024 Y92.029 E22.5207
G1 X134.178 Y92.208 E22.54301
G1 X134.657 Y92.785 E22.61388
G1 X134.819 Y92.988 E22.63842
G1 X135.28 Y93.584 E22.70963
G1 X135.434 Y93.79 E22.73393
G1 X135.872 Y94.398 E22.80475
G1 X136.012 Y94.599 E22.82789
G1 X136.432 Y95.224 E22.89905
G1 X136.578 Y95.45 E22.92448
G1 X136.975 Y96.089 E22.99557
G1 X137.099 Y96.296 E23.01837
G1 X137.475 Y96.947 E23.08942
G1 X137.601 Y97.175 E23.11403
G1 X137.954 Y97.838 E23.18501
G1 X138.068 Y98.061 E23.20868
G1 X138.399 Y98.736 E23.27973
G1 X138.512 Y98.975 E23.30471
G1 X138.819 Y99.661 E23.37573
G1 X138.916 Y99.889 E23.39915
G1 X139.2 Y100.584 E23.4701
G1 X139.286 Y100.803 E23.49233
G1 X139.549 Y101.509 E23.56353
G1 X139.64 Y101.768 E23.58947
G1 X139.876 Y102.48 E23.66035
G1 X139.955 Y102.734 E23.68549
G1 X140.166 Y103.455 E23.75648
G1 X140.228 Y103.681 E23.77863
G1 X140.417 Y104.41 E23.8498
G1 X140.476 Y104.655 E23.87361
G1 X140.64 Y105.388 E23.94459
G1 X140.696 Y105.659 E23.97074
G1 X140.833 Y106.398 E24.04177
G1 X140.872 Y106.627 E24.06372
G1 X140.986 Y107.369 E24.13466
G1 X141.02 Y107.622 E24.15878
G1 X141.109 Y108.369 E24.22987
G1 X141.136 Y108.637 E24.25533
G1 X141.198 Y109.385 E24.32626
G1 X141.214 Y109.627 E24.34918
G1 X141.252 Y110.379 E24.42033
G1 X141.261 Y110.629 E24.44397
G1 X141.274 Y111.38 E24.51495
G1 X141.274 Y111.64 E24.53952
G1 X141.261 Y112.391 E24.6105
G1 X141.252 Y112.652 E24.63518
G1 X141.213 Y113.402 E24.70615
G1 X141.197 Y113.641 E24.72879
G1 X141.134 Y114.391 E24.79991
G1 X141.107 Y114.654 E24.8249
G1 X141.018 Y115.399 E24.8958
G1 X140.983 Y115.655 E24.92022
G1 X140.868 Y116.399 E24.99136
G1 X140.828 Y116.631 E25.01361
G1 X140.69 Y117.37 E25.08465
G1 X140.636 Y117.632 E25.10993
G1 X140.472 Y118.365 E25.18091
G1 X140.409 Y118.627 E25.20637
G1 X140.219 Y119.353 E25.27729
G1 X140.159 Y119.568 E25.29839
G1 X139.947 Y120.29 E25.3695
G1 X139.867 Y120.547 E25.39493
