;FLAVOR:UltiGCode
;TIME:464
;MATERIAL:643
;MATERIAL2:0
;NOZZLE_DIAMETER:0.4
;MINX:101.025
;MINY:103.525
;MINZ:0.27
;MAXX:121.975
;MAXY:119.475
;MAXZ:5.97
;Generated with Cura_SteamEngine 4.8.0
M82 ;absolute extrusion mode
G0 F3000 Y50 ;avoid prime blob
G92 E0
G92 E0
G10
;LAYER_COUNT:58
;LAYER:0
M107
G0 F4320 X101.971 Y104.325 Z0.27
;TYPE:SKIRT
G11
G1 F2700 X102.353 Y104.022 E0.04608
G1 X102.78 Y103.787 E0.09214
G1 X103.239 Y103.624 E0.13816
G1 X104 Y103.525 E0.21068
G1 X119 Y103.525 E1.62818
G1 X119.486 Y103.565 E1.67427
G1 X119.959 Y103.684 E1.72036
G1 X120.406 Y103.878 E1.76641
G1 X120.815 Y104.143 E1.81246
G1 X121.175 Y104.471 E1.85848
G1 X121.478 Y104.853 E1.90456
G1 X121.713 Y105.28 E1.95062
G1 X121.876 Y105.739 E1.99665
G1 X121.975 Y106.5 E2.06917
G1 X121.975 Y116.5 E3.01417
G1 X121.935 Y116.986 E3.06025
G1 X121.816 Y117.459 E3.10634
G1 X121.622 Y117.906 E3.15239
G1 X121.357 Y118.315 E3.19844
G1 X121.029 Y118.675 E3.24447
G1 X120.647 Y118.978 E3.29054
G1 X120.22 Y119.213 E3.3366
G1 X119.761 Y119.376 E3.38263
G1 X119 Y119.475 E3.45515
G1 X104 Y119.475 E4.87265
G1 X103.514 Y119.435 E4.91874
G1 X103.041 Y119.316 E4.96483
G1 X102.594 Y119.122 E5.01087
G1 X102.185 Y118.857 E5.05693
G1 X101.825 Y118.529 E5.10295
G1 X101.522 Y118.147 E5.14903
G1 X101.287 Y117.72 E5.19509
G1 X101.124 Y117.261 E5.24112
G1 X101.025 Y116.5 E5.31364
G1 X101.025 Y106.5 E6.25864
G1 X101.065 Y106.014 E6.30472
G1 X101.184 Y105.541 E6.35081
G1 X101.378 Y105.094 E6.39686
G1 X101.643 Y104.685 E6.44291
G1 X101.971 Y104.325 E6.48894
G0 F4320 X102.314 Y104.488
G1 F2700 X102.689 Y104.226 E6.53217
G1 X103.104 Y104.033 E6.57542
G1 X103.546 Y103.915 E6.61865
G1 X104 Y103.875 E6.66172
G1 X119 Y103.875 E8.07922
G1 X119.456 Y103.915 E8.12248
G1 X119.898 Y104.033 E8.16571
G1 X120.313 Y104.227 E8.209
G1 X120.688 Y104.49 E8.25228
G1 X121.012 Y104.814 E8.29558
G1 X121.274 Y105.189 E8.33881
G1 X121.467 Y105.604 E8.38206
G1 X121.585 Y106.046 E8.4253
G1 X121.625 Y106.5 E8.46836
G1 X121.625 Y116.5 E9.41336
G1 X121.585 Y116.956 E9.45662
G1 X121.467 Y117.398 E9.49985
G1 X121.273 Y117.813 E9.54315
G1 X121.01 Y118.188 E9.58643
G1 X120.686 Y118.512 E9.62973
G1 X120.311 Y118.774 E9.67296
G1 X119.896 Y118.967 E9.71621
G1 X119.454 Y119.085 E9.75944
G1 X119 Y119.125 E9.80251
G1 X104 Y119.125 E11.22001
G1 X103.544 Y119.085 E11.26327
G1 X103.102 Y118.967 E11.3065
G1 X102.687 Y118.773 E11.34979
G1 X102.312 Y118.51 E11.39308
G1 X101.988 Y118.186 E11.43638
G1 X101.726 Y117.811 E11.47961
G1 X101.533 Y117.396 E11.52286
G1 X101.415 Y116.954 E11.56609
G1 X101.375 Y116.5 E11.60916
G1 X101.375 Y106.5 E12.55416
G1 X101.415 Y106.044 E12.59742
G1 X101.533 Y105.602 E12.64065
G1 X101.727 Y105.187 E12.68394
G1 X101.99 Y104.812 E12.72722
G1 X102.314 Y104.488 E12.77052
G0 F4320 X102.336 Y104.949
G1 F2700 X102.654 Y104.666 E12.81075
G1 X103.02 Y104.447 E12.85106
G1 X103.42 Y104.3 E12.89133
G1 X104 Y104.225 E12.9466
G1 X119 Y104.225 E14.3641
G1 X119.424 Y104.265 E14.40434
G1 X119.834 Y104.383 E14.44466
G1 X120.214 Y104.576 E14.48493
G1 X120.551 Y104.836 E14.52516
G1 X120.834 Y105.154 E14.56539
G1 X121.053 Y105.52 E14.60569
G1 X121.2 Y105.92 E14.64596
G1 X121.275 Y106.5 E14.70123
G1 X121.275 Y116.5 E15.64623
G1 X121.235 Y116.924 E15.68648
G1 X121.117 Y117.334 E15.72679
G1 X120.924 Y117.714 E15.76707
G1 X120.664 Y118.051 E15.80729
G1 X120.346 Y118.334 E15.84752
G1 X119.98 Y118.553 E15.88783
G1 X119.58 Y118.7 E15.9281
G1 X119 Y118.775 E15.98336
G1 X104 Y118.775 E17.40086
G1 X103.576 Y118.735 E17.44111
G1 X103.166 Y118.617 E17.48143
G1 X102.786 Y118.424 E17.5217
G1 X102.449 Y118.164 E17.56193
G1 X102.166 Y117.846 E17.60215
G1 X101.947 Y117.48 E17.64246
G1 X101.8 Y117.08 E17.68273
G1 X101.725 Y116.5 E17.738
G1 X101.725 Y106.5 E18.683
G1 X101.765 Y106.076 E18.72324
G1 X101.883 Y105.666 E18.76356
G1 X102.076 Y105.286 E18.80384
G1 X102.336 Y104.949 E18.84406
G0 F4320 X102.681 Y105.098
G1 F2700 X102.992 Y104.86 E18.88107
G1 X103.345 Y104.69 E18.91809
G1 X103.725 Y104.595 E18.95511
G1 X104 Y104.575 E18.98117
G1 X119 Y104.575 E20.39867
G1 X119.39 Y104.615 E20.43571
G1 X119.764 Y104.733 E20.47277
G1 X120.106 Y104.924 E20.50979
G1 X120.402 Y105.181 E20.54684
G1 X120.64 Y105.492 E20.58384
G1 X120.81 Y105.845 E20.62087
G1 X120.905 Y106.225 E20.65789
G1 X120.925 Y106.5 E20.68394
G1 X120.925 Y116.5 E21.62894
G1 X120.885 Y116.89 E21.66599
G1 X120.767 Y117.264 E21.70305
G1 X120.576 Y117.606 E21.74007
G1 X120.319 Y117.902 E21.77711
G1 X120.008 Y118.14 E21.81412
G1 X119.655 Y118.31 E21.85114
G1 X119.275 Y118.405 E21.88816
G1 X119 Y118.425 E21.91422
G1 X104 Y118.425 E23.33172
G1 X103.61 Y118.385 E23.36876
G1 X103.236 Y118.267 E23.40582
G1 X102.894 Y118.076 E23.44284
G1 X102.598 Y117.819 E23.47989
G1 X102.36 Y117.508 E23.51689
G1 X102.19 Y117.155 E23.55392
G1 X102.095 Y116.775 E23.59094
G1 X102.075 Y116.5 E23.61699
G1 X102.075 Y106.5 E24.56199
G1 X102.115 Y106.11 E24.59904
G1 X102.233 Y105.736 E24.6361
G1 X102.424 Y105.394 E24.67312
G1 X102.681 Y105.098 E24.71016
G0 F4320 X103.023 Y105.264
G1 F2700 X103.324 Y105.077 E24.74365
G1 X103.66 Y104.962 E24.77721
G1 X104 Y104.925 E24.80953
G1 X119 Y104.925 E26.22703
G1 X119.352 Y104.965 E26.26051
G1 X119.686 Y105.082 E26.29395
G1 X119.986 Y105.272 E26.32751
G1 X120.236 Y105.523 E26.36099
G1 X120.423 Y105.824 E26.39447
G1 X120.538 Y106.16 E26.42803
G1 X120.575 Y106.5 E26.46035
G1 X120.575 Y116.5 E27.40535
G1 X120.535 Y116.852 E27.43883
G1 X120.418 Y117.186 E27.47227
G1 X120.228 Y117.486 E27.50583
G1 X119.977 Y117.736 E27.53931
G1 X119.676 Y117.923 E27.5728
G1 X119.34 Y118.038 E27.60636
G1 X119 Y118.075 E27.63868
G1 X104 Y118.075 E29.05618
G1 X103.648 Y118.035 E29.08965
G1 X103.314 Y117.918 E29.1231
G1 X103.014 Y117.728 E29.15665
G1 X102.764 Y117.477 E29.19013
G1 X102.577 Y117.176 E29.22362
G1 X102.462 Y116.84 E29.25718
G1 X102.425 Y116.5 E29.2895
G1 X102.425 Y106.5 E30.2345
G1 X102.465 Y106.148 E30.26798
G1 X102.582 Y105.814 E30.30142
G1 X102.772 Y105.514 E30.33498
G1 X103.023 Y105.264 E30.36846
G0 F4320 X103.118 Y105.65
G1 F2700 X103.362 Y105.454 E30.39803
G1 X103.647 Y105.327 E30.42752
G1 X104 Y105.275 E30.46124
G1 X119 Y105.275 E31.87874
G1 X119.31 Y105.315 E31.90827
G1 X119.6 Y105.432 E31.93783
G1 X119.85 Y105.618 E31.96727
G1 X120.046 Y105.862 E31.99685
G1 X120.173 Y106.147 E32.02633
G1 X120.225 Y106.5 E32.06005
G1 X120.225 Y116.5 E33.00505
G1 X120.185 Y116.81 E33.03459
G1 X120.068 Y117.1 E33.06414
G1 X119.882 Y117.35 E33.09359
G1 X119.638 Y117.546 E33.12316
G1 X119.353 Y117.673 E33.15265
G1 X119 Y117.725 E33.18637
G1 X104 Y117.725 E34.60387
G1 X103.69 Y117.685 E34.63341
G1 X103.4 Y117.568 E34.66296
G1 X103.15 Y117.382 E34.6924
G1 X102.954 Y117.138 E34.72198
G1 X102.827 Y116.853 E34.75146
G1 X102.775 Y116.5 E34.78518
G1 X102.775 Y106.5 E35.73018
G1 X102.815 Y106.19 E35.75972
G1 X102.932 Y105.9 E35.78927
G1 X103.118 Y105.65 E35.81872
G0 F4320 X103.462 Y105.81
G1 F2700 X103.692 Y105.681 E35.84364
G1 X104 Y105.625 E35.87322
G1 X119 Y105.625 E37.29072
G1 X119.261 Y105.665 E37.31567
G1 X119.498 Y105.78 E37.34057
G1 X119.69 Y105.962 E37.36557
G1 X119.819 Y106.192 E37.39049
G1 X119.875 Y106.5 E37.42007
G1 X119.875 Y116.5 E38.36507
G1 X119.835 Y116.761 E38.39002
G1 X119.72 Y116.998 E38.41492
G1 X119.538 Y117.19 E38.43992
G1 X119.308 Y117.319 E38.46484
G1 X119 Y117.375 E38.49442
G1 X104 Y117.375 E39.91192
G1 X103.739 Y117.335 E39.93687
G1 X103.502 Y117.22 E39.96177
G1 X103.31 Y117.038 E39.98677
G1 X103.181 Y116.808 E40.01169
G1 X103.125 Y116.5 E40.04127
G1 X103.125 Y106.5 E40.98627
G1 X103.165 Y106.239 E41.01122
G1 X103.28 Y106.002 E41.03612
G1 X103.462 Y105.81 E41.06112
G0 F4320 X103.627 Y106.13
G1 F2700 X103.797 Y106.016 E41.08046
G1 X104 Y105.975 E41.10003
G1 X119 Y105.975 E42.51753
G1 X119.2 Y106.015 E42.53681
G1 X119.37 Y106.127 E42.55604
G1 X119.484 Y106.297 E42.57539
G1 X119.525 Y106.5 E42.59496
G1 X119.525 Y116.5 E43.53996
G1 X119.485 Y116.7 E43.55923
G1 X119.373 Y116.87 E43.57847
G1 X119.203 Y116.984 E43.59781
G1 X119 Y117.025 E43.61738
G1 X104 Y117.025 E45.03488
G1 X103.8 Y116.985 E45.05416
G1 X103.63 Y116.873 E45.0734
G1 X103.516 Y116.703 E45.09274
G1 X103.475 Y116.5 E45.11231
G1 X103.475 Y106.5 E46.05731
G1 X103.515 Y106.3 E46.07658
G1 X103.627 Y106.13 E46.09582
G0 F4320 X103.864 Y106.39
G1 F2700 X104 Y106.325 E46.11007
G1 X119 Y106.325 E47.52757
G1 X119.11 Y106.364 E47.5386
G1 X119.175 Y106.5 E47.55284
G1 X119.175 Y116.5 E48.49784
G1 X119.136 Y116.61 E48.50887
G1 X119 Y116.675 E48.52311
G1 X104 Y116.675 E49.94061
G1 X103.89 Y116.636 E49.95164
G1 X103.825 Y116.5 E49.96589
G1 X103.825 Y106.5 E50.91089
G1 X103.864 Y106.39 E50.92192
G10
;MESH:RudderPotentiometerTestFit0.9mm.stl
G0 F4320 X111.224 Y108.337
G0 X111.2 Y108.524
;TYPE:WALL-OUTER
G11
G1 F2700 X110.98 Y108.585 E50.94349
G1 X110.376 Y108.752 E51.00271
G1 X109.83 Y109.033 E51.06074
G1 X109.355 Y109.421 E51.1187
G1 X108.97 Y109.9 E51.17677
G1 X108.693 Y110.447 E51.23471
G1 X108.535 Y111.041 E51.2928
G1 X108.503 Y111.653 E51.35071
G1 X108.599 Y112.26 E51.40879
G1 X108.818 Y112.834 E51.46684
G1 X109.15 Y113.349 E51.52475
G1 X109.583 Y113.785 E51.58282
G1 X110.096 Y114.122 E51.64082
G1 X110.662 Y114.343 E51.69824
G1 X110.989 Y114.416 E51.7299
G1 X111.2 Y114.462 E51.75031
G1 X111.2 Y114.247 E51.76271
G1 X111.2 Y114.245 E51.7629
G1 X111.2 Y108.753 E52.2819
G1 X111.2 Y108.752 E52.28199
G1 X111.2 Y108.524 E52.29496
G0 F4320 X111.008 Y108.577
G0 X110.942 Y108.336
G0 X111.6 Y114.476
G0 X111.7 Y114.476
G1 F2700 X111.92 Y114.415 E52.31653
G1 X112.524 Y114.248 E52.37575
G1 X113.07 Y113.967 E52.43378
G1 X113.545 Y113.579 E52.49174
G1 X113.93 Y113.1 E52.54982
G1 X114.207 Y112.553 E52.60776
G1 X114.365 Y111.959 E52.66584
G1 X114.397 Y111.347 E52.72376
G1 X114.301 Y110.74 E52.78183
G1 X114.082 Y110.166 E52.83989
G1 X113.75 Y109.651 E52.89779
G1 X113.317 Y109.215 E52.95586
G1 X112.804 Y108.878 E53.01386
G1 X112.238 Y108.657 E53.07128
G1 X111.911 Y108.584 E53.10294
G1 X111.7 Y108.538 E53.12335
G1 X111.7 Y108.753 E53.13576
G1 X111.7 Y108.755 E53.13594
G1 X111.7 Y114.247 E53.65494
G1 X111.7 Y114.248 E53.65503
G1 X111.7 Y114.476 E53.668
G0 F4320 X111.892 Y114.423
G0 X111.958 Y114.664
G0 X118.58 Y116.08
G0 X118.8 Y116.3
G1 F2700 X104.2 Y116.3 E55.0477
G1 X104.2 Y106.7 E55.9549
G1 X118.8 Y106.7 E57.3346
G1 X118.8 Y116.3 E58.2418
G0 F4320 X118.6 Y116.3
G0 X118.475 Y115.975
;TYPE:WALL-INNER
G1 F2700 X104.525 Y115.975 E59.56008
G1 X104.525 Y107.025 E60.40585
G1 X118.475 Y107.025 E61.72413
G1 X118.475 Y115.975 E62.5699
G0 F4320 X111.375 Y114.903
G1 F2700 X111.392 Y114.899 E62.57155
G1 X112.643 Y114.552 E62.69424
G1 X113.249 Y114.24 E62.75865
G1 X113.777 Y113.809 E62.82306
G1 X114.205 Y113.277 E62.88758
G1 X114.512 Y112.669 E62.95195
G1 X114.688 Y112.01 E63.0164
G1 X114.723 Y111.33 E63.08075
G1 X114.617 Y110.656 E63.14523
G1 X114.374 Y110.018 E63.20974
G1 X114.005 Y109.446 E63.27407
G1 X113.524 Y108.962 E63.33855
G1 X112.954 Y108.588 E63.40298
G1 X112.333 Y108.345 E63.46599
G1 X111.525 Y108.166 E63.5442
G1 X111.525 Y108.097 E63.55072
G1 X111.508 Y108.101
G1 X110.257 Y108.448 E63.6734
G1 X109.651 Y108.76 E63.73781
G1 X109.123 Y109.191 E63.80222
G1 X108.695 Y109.723 E63.86675
G1 X108.388 Y110.331 E63.93111
G1 X108.212 Y110.99 E63.99557
G1 X108.177 Y111.67 E64.05992
G1 X108.283 Y112.344 E64.12439
G1 X108.526 Y112.982 E64.18891
G1 X108.895 Y113.554 E64.25323
G1 X109.376 Y114.038 E64.31772
G1 X109.946 Y114.412 E64.38214
G1 X110.567 Y114.655 E64.44516
G1 X111.375 Y114.834 E64.52337
G1 X111.375 Y114.903 E64.52673
G0 F4320 X111.025 Y115.363
G1 F2700 X111.088 Y115.346 E64.53289
G1 X111.314 Y115.284 E64.55504
G1 X112.771 Y114.88 E64.69792
G1 X113.442 Y114.534 E64.76926
G1 X114.027 Y114.057 E64.84059
G1 X114.501 Y113.468 E64.91204
G1 X114.841 Y112.794 E64.98338
G1 X115.036 Y112.065 E65.05469
G1 X115.074 Y111.312 E65.12594
G1 X114.957 Y110.566 E65.1973
G1 X114.688 Y109.859 E65.26878
G1 X114.279 Y109.225 E65.34008
G1 X113.747 Y108.689 E65.41145
G1 X113.116 Y108.275 E65.48276
G1 X112.435 Y108.009 E65.55185
G1 X111.875 Y107.885 E65.60606
G1 X111.875 Y107.637 E65.62949
G1 X111.812 Y107.654
G1 X111.586 Y107.716 E65.65164
G1 X110.129 Y108.12 E65.79452
G1 X109.458 Y108.466 E65.86586
G1 X108.873 Y108.943 E65.93719
G1 X108.399 Y109.532 E66.00864
G1 X108.059 Y110.206 E66.07998
G1 X107.864 Y110.935 E66.15129
G1 X107.826 Y111.688 E66.22254
G1 X107.943 Y112.434 E66.2939
G1 X108.212 Y113.141 E66.36538
G1 X108.621 Y113.775 E66.43668
G1 X109.153 Y114.311 E66.50805
G1 X109.784 Y114.725 E66.57936
G1 X110.465 Y114.991 E66.64845
G1 X111.025 Y115.115 E66.70265
G1 X111.025 Y115.363 E66.71763
G0 F4320 X118.125 Y115.625
G1 F2700 X111.26 Y115.625 E67.36637
G1 X111.025 Y115.625 E67.38744
G1 X104.875 Y115.625 E67.96861
G1 X104.875 Y107.375 E68.74824
G1 X111.64 Y107.375 E69.38753
G1 X111.875 Y107.375 E69.4086
G1 X118.125 Y107.375 E69.99922
G1 X118.125 Y115.625 E70.77885
G0 F4320 X117.785 Y115.285
;TYPE:SKIN
G1 F2700 X112.581 Y115.285 E71.27062
G1 X112.895 Y115.198 E71.30141
G1 X113.629 Y114.82 E71.37944
G1 X114.27 Y114.298 E71.45755
G1 X114.788 Y113.653 E71.53573
G1 X115.16 Y112.916 E71.61375
G1 X115.374 Y112.118 E71.69182
G1 X115.416 Y111.294 E71.76979
G1 X115.287 Y110.478 E71.84786
G1 X114.993 Y109.705 E71.92601
G1 X114.545 Y109.011 E72.00407
G1 X113.963 Y108.425 E72.08212
G1 X113.273 Y107.972 E72.16012
G1 X112.616 Y107.715 E72.22679
G1 X117.785 Y107.715 E72.71526
G1 X117.785 Y115.285 E73.43063
G0 F4320 X113.55 Y115.035
G1 F2700 X113.641 Y115.126 E73.44279
G0 F4320 X113.851 Y114.841
G1 F2700 X114.136 Y115.126 E73.48088
G0 F4320 X114.631 Y115.126
G1 F2700 X114.124 Y114.619 E73.54863
G0 F4320 X114.392 Y114.392
G1 F2700 X115.126 Y115.126 E73.64673
G0 F4320 X115.622 Y115.127
G1 F2700 X114.613 Y114.118 E73.78157
G0 F4320 X114.834 Y113.844
G1 F2700 X116.117 Y115.127 E73.95304
G0 F4320 X116.612 Y115.127
G1 F2700 X115.021 Y113.536 E74.16566
G0 F4320 X115.187 Y113.207
G1 F2700 X117.107 Y115.127 E74.42226
G0 F4320 X117.602 Y115.127
G1 F2700 X115.336 Y112.861 E74.72509
G0 F4320 X115.44 Y112.47
G1 F2700 X117.627 Y114.657 E75.01737
G0 F4320 X117.627 Y114.162
G1 F2700 X115.532 Y112.067 E75.29735
G0 F4320 X115.556 Y111.597
G1 F2700 X117.627 Y113.667 E75.57406
G0 F4320 X117.627 Y113.172
G1 F2700 X115.54 Y111.085 E75.85298
G0 F4320 X115.447 Y110.497
G1 F2700 X117.627 Y112.677 E76.14432
G0 F4320 X117.627 Y112.182
G1 F2700 X115.167 Y109.722 E76.47308
G1 X115.105 Y109.66
G0 F4320 X115.296 Y107.871
G1 F2700 X117.627 Y110.202 E76.7846
G0 F4320 X117.627 Y109.707
G1 F2700 X115.791 Y107.871 E77.02997
G0 F4320 X116.286 Y107.871
G1 F2700 X117.627 Y109.212 E77.20919
G0 F4320 X117.627 Y108.717
G1 F2700 X116.781 Y107.871 E77.32225
G0 F4320 X117.276 Y107.871
G1 F2700 X117.627 Y108.222 E77.36916
G0 F4320 X117.627 Y110.697
G1 F2700 X114.801 Y107.871 E77.74683
G0 F4320 X114.306 Y107.871
G1 F2700 X117.627 Y111.192 E78.19066
G0 F4320 X117.627 Y111.687
G1 F2700 X113.811 Y107.871 E78.70065
G1 X113.749 Y107.809
G0 F4320 X110.319 Y107.715
G1 F2700 X110.005 Y107.802 E78.73144
G1 X109.271 Y108.18 E78.80946
G1 X108.63 Y108.702 E78.88758
G1 X108.112 Y109.347 E78.96575
G1 X107.74 Y110.084 E79.04377
G1 X107.526 Y110.882 E79.12184
G1 X107.484 Y111.706 E79.19981
G1 X107.613 Y112.522 E79.27788
G1 X107.907 Y113.295 E79.35604
G1 X108.355 Y113.989 E79.4341
G1 X108.937 Y114.575 E79.51214
G1 X109.627 Y115.028 E79.59015
G1 X110.284 Y115.285 E79.65681
G1 X105.215 Y115.285 E80.13583
G1 X105.215 Y107.715 E80.8512
G1 X110.319 Y107.715 E81.33353
G0 F4320 X109.414 Y107.929
G1 F2700 X109.356 Y107.871 E81.34128
G0 F4320 X109.103 Y108.113
G1 F2700 X108.861 Y107.871 E81.37362
G0 F4320 X108.83 Y108.335
G1 F2700 X108.366 Y107.871 E81.43563
G0 F4320 X107.871 Y107.871
G1 F2700 X108.557 Y108.557 E81.52731
G0 F4320 X108.33 Y108.825
G1 F2700 X107.376 Y107.871 E81.6548
G0 F4320 X106.882 Y107.871
G1 F2700 X108.109 Y109.099 E81.81885
G0 F4320 X107.91 Y109.395
G1 F2700 X106.387 Y107.871 E82.02246
G0 F4320 X105.892 Y107.871
G1 F2700 X107.745 Y109.725 E82.27016
G0 F4320 X107.584 Y110.059
G1 F2700 X105.397 Y107.871 E82.56251
G0 F4320 X105.372 Y108.342
G1 F2700 X107.479 Y110.449 E82.8441
G0 F4320 X107.374 Y110.839
